;FLAVOR:Marlin
;TIME:20305
;Filament used: 20.0151m
;Layer height: 0.28
;MINX:21.5
;MINY:21.5
;MINZ:0.28
;MAXX:213.5
;MAXY:213.5
;MAXZ:5.88
;Generated with Cura_SteamEngine 5.3.1
M140 S50
M105
M190 S50
M104 S200
M105
M109 S200
M82 ;absolute extrusion mode
; Ender 3 Custom Start G-code
G92 E0 ; Reset Extruder
G28 ; Home all axes
G1 Z2.0 F3000 ; Move Z Axis up little to prevent scratching of Heat Bed
G1 X0.1 Y20 Z0.3 F5000.0 ; Move to start position
G1 X0.1 Y200.0 Z0.3 F1500.0 E15 ; Draw the first line
G1 X0.4 Y200.0 Z0.3 F5000.0 ; Move to side a little
G1 X0.4 Y20 Z0.3 F1500.0 E30 ; Draw the second line
G92 E0 ; Reset Extruder
G1 Z2.0 F3000 ; Move Z Axis up little to prevent scratching of Heat Bed
G1 X5 Y20 Z0.3 F5000.0 ; Move over to prevent blob squish
G92 E0
G92 E0
G1 F2700 E-5
;LAYER_COUNT:21
;LAYER:0
M107
G0 F6000 X25.481 Y25.117 Z0.28
;TYPE:SKIRT
G1 F2700 E0
G1 F1200 X26.162 Y24.524 E0.04205
G1 X26.894 Y23.994 E0.08413
G1 X27.669 Y23.531 E0.12617
G1 X28.482 Y23.138 E0.16821
G1 X29.327 Y22.818 E0.21029
G1 X30.196 Y22.575 E0.2523
G1 X31.084 Y22.409 E0.29437
G1 X32.223 Y22.313 E0.34759
G1 X32.83 Y22.3 E0.37586
G1 X201.939 Y22.301 E8.25029
G1 X202.637 Y22.311 E8.28279
G1 X203.539 Y22.364 E8.32487
G1 X204.432 Y22.496 E8.3669
G1 X205.31 Y22.707 E8.40895
G1 X206.166 Y22.995 E8.451
G1 X206.993 Y23.357 E8.49304
G1 X207.785 Y23.792 E8.53511
G1 X208.536 Y24.294 E8.57718
G1 X209.239 Y24.861 E8.61923
G1 X209.889 Y25.488 E8.66128
G1 X210.481 Y26.17 E8.70334
G1 X211.011 Y26.901 E8.74538
G1 X211.473 Y27.677 E8.78743
G1 X211.866 Y28.49 E8.82948
G1 X212.184 Y29.335 E8.87152
G1 X212.427 Y30.205 E8.91358
G1 X212.592 Y31.093 E8.95564
G1 X212.687 Y32.223 E9.00844
G1 X212.7 Y32.83 E9.03671
G1 X212.699 Y201.89 E16.90886
G1 X212.69 Y202.617 E16.94271
G1 X212.639 Y203.519 E16.98478
G1 X212.508 Y204.413 E17.02685
G1 X212.299 Y205.291 E17.06888
G1 X212.013 Y206.148 E17.11095
G1 X211.652 Y206.976 E17.15301
G1 X211.22 Y207.768 E17.19501
G1 X210.719 Y208.52 E17.23709
G1 X210.153 Y209.224 E17.27915
G1 X209.528 Y209.875 E17.32117
G1 X208.847 Y210.469 E17.36325
G1 X208.116 Y211 E17.40532
G1 X207.342 Y211.464 E17.44734
G1 X206.529 Y211.858 E17.48941
G1 X205.685 Y212.178 E17.53144
G1 X204.815 Y212.423 E17.57353
G1 X203.928 Y212.589 E17.61555
G1 X202.777 Y212.687 E17.66934
G1 X202.17 Y212.7 E17.69761
G1 X33.075 Y212.699 E25.57138
G1 X32.377 Y212.69 E25.60388
G1 X31.476 Y212.639 E25.64591
G1 X30.582 Y212.507 E25.68799
G1 X29.704 Y212.298 E25.73001
G1 X28.847 Y212.011 E25.77209
G1 X28.02 Y211.65 E25.81411
G1 X27.227 Y211.217 E25.85618
G1 X26.476 Y210.716 E25.89822
G1 X25.772 Y210.15 E25.94028
G1 X25.121 Y209.524 E25.98234
G1 X24.528 Y208.843 E26.02438
G1 X23.998 Y208.112 E26.06643
G1 X23.534 Y207.337 E26.10849
G1 X23.14 Y206.524 E26.15056
G1 X22.82 Y205.68 E26.19259
G1 X22.576 Y204.81 E26.23466
G1 X22.41 Y203.922 E26.27673
G1 X22.313 Y202.767 E26.3307
G1 X22.3 Y202.158 E26.35906
G1 X22.301 Y33.036 E34.23409
G1 X22.31 Y32.371 E34.26506
G1 X22.362 Y31.469 E34.30713
G1 X22.494 Y30.576 E34.34916
G1 X22.704 Y29.698 E34.3912
G1 X22.991 Y28.841 E34.43328
G1 X23.353 Y28.014 E34.47532
G1 X23.786 Y27.222 E34.51735
G1 X24.288 Y26.471 E34.55941
G1 X24.855 Y25.767 E34.6015
G1 X25.481 Y25.117 E34.64352
G0 F6000 X25.218 Y24.815
G1 F1200 X25.899 Y24.222 E34.68557
G1 X26.659 Y23.67 E34.72931
G1 X27.495 Y23.171 E34.77464
G1 X28.34 Y22.764 E34.81832
G1 X29.185 Y22.444 E34.86039
G1 X30.122 Y22.182 E34.9057
G1 X31.05 Y22.01 E34.94964
G1 X32.189 Y21.914 E35.00287
G1 X32.83 Y21.9 E35.03272
G1 X201.945 Y21.901 E42.90743
G1 X202.66 Y21.912 E42.94072
G1 X203.597 Y21.968 E42.98443
G1 X204.49 Y22.1 E43.02646
G1 X205.438 Y22.328 E43.07187
G1 X206.294 Y22.616 E43.11392
G1 X207.186 Y23.006 E43.15925
G1 X207.978 Y23.441 E43.20133
G1 X208.758 Y23.961 E43.24498
G1 X209.517 Y24.573 E43.29038
G1 X210.167 Y25.2 E43.33243
G1 X210.805 Y25.935 E43.37775
G1 X211.355 Y26.696 E43.42147
G1 X211.817 Y27.472 E43.46353
G1 X212.24 Y28.349 E43.50887
G1 X212.569 Y29.227 E43.55252
G1 X212.82 Y30.132 E43.59626
G1 X212.991 Y31.059 E43.64015
G1 X213.086 Y32.189 E43.69295
G1 X213.1 Y32.83 E43.72281
G1 X213.099 Y201.895 E51.59518
G1 X213.089 Y202.64 E51.62988
G1 X213.035 Y203.577 E51.67358
G1 X212.904 Y204.471 E51.71565
G1 X212.688 Y205.384 E51.75934
G1 X212.38 Y206.308 E51.80469
G1 X212.019 Y207.136 E51.84675
G1 X211.553 Y207.99 E51.89205
G1 X211.031 Y208.771 E51.93579
G1 X210.465 Y209.475 E51.97786
G1 X209.817 Y210.152 E52.02149
G1 X209.082 Y210.793 E52.0669
G1 X208.351 Y211.324 E52.10897
G1 X207.548 Y211.807 E52.15261
G1 X206.671 Y212.232 E52.19799
G1 X205.827 Y212.552 E52.24002
G1 X204.889 Y212.816 E52.28539
G1 X203.962 Y212.988 E52.32929
G1 X202.811 Y213.086 E52.38308
G1 X202.179 Y213.1 E52.41252
G1 X33.07 Y213.099 E60.28694
G1 X32.354 Y213.089 E60.32029
G1 X31.418 Y213.035 E60.36394
G1 X30.524 Y212.903 E60.40602
G1 X29.611 Y212.687 E60.44971
G1 X28.687 Y212.378 E60.49508
G1 X27.86 Y212.017 E60.53709
G1 X27.005 Y211.55 E60.58246
G1 X26.225 Y211.028 E60.62616
G1 X25.521 Y210.462 E60.66822
G1 X24.819 Y209.787 E60.71357
G1 X24.226 Y209.106 E60.75562
G1 X23.674 Y208.347 E60.79932
G1 X23.174 Y207.511 E60.84468
G1 X22.766 Y206.666 E60.88837
G1 X22.446 Y205.822 E60.9304
G1 X22.183 Y204.884 E60.97576
G1 X22.011 Y203.955 E61.01976
G1 X21.913 Y202.776 E61.07484
G1 X21.9 Y202.158 E61.10363
G1 X21.901 Y33.031 E68.97889
G1 X21.911 Y32.348 E69.0107
G1 X21.966 Y31.411 E69.0544
G1 X22.098 Y30.518 E69.09643
G1 X22.315 Y29.605 E69.14013
G1 X22.612 Y28.714 E69.18386
G1 X23.002 Y27.822 E69.2292
G1 X23.453 Y27 E69.27286
G1 X23.976 Y26.22 E69.31658
G1 X24.543 Y25.516 E69.35868
G1 X25.218 Y24.815 E69.40399
G0 F6000 X24.955 Y24.513
G1 F1200 X25.636 Y23.92 E69.44604
G1 X26.424 Y23.346 E69.49143
G1 X27.321 Y22.811 E69.54006
G1 X28.198 Y22.39 E69.58536
G1 X29.043 Y22.07 E69.62744
G1 X30.049 Y21.789 E69.67607
G1 X31.016 Y21.611 E69.72186
G1 X32.155 Y21.515 E69.77508
G1 X32.83 Y21.5 E69.80652
G1 X201.951 Y21.501 E77.6815
G1 X202.684 Y21.513 E77.71564
G1 X203.655 Y21.572 E77.76094
G1 X204.584 Y21.711 E77.80468
G1 X205.532 Y21.939 E77.85008
G1 X206.454 Y22.249 E77.89537
G1 X207.379 Y22.655 E77.94241
G1 X208.171 Y23.09 E77.98449
G1 X208.98 Y23.628 E78.02972
G1 X209.795 Y24.285 E78.07847
G1 X210.445 Y24.912 E78.12052
G1 X211.107 Y25.673 E78.16749
G1 X211.699 Y26.491 E78.21451
G1 X212.161 Y27.267 E78.25656
G1 X212.615 Y28.209 E78.30525
G1 X212.944 Y29.087 E78.34891
G1 X213.213 Y30.059 E78.39587
G1 X213.39 Y31.025 E78.4416
G1 X213.485 Y32.155 E78.49441
G1 X213.5 Y32.83 E78.52585
G1 X213.499 Y201.9 E86.39845
G1 X213.488 Y202.663 E86.43399
G1 X213.431 Y203.635 E86.47932
G1 X213.3 Y204.529 E86.5214
G1 X213.077 Y205.476 E86.5667
G1 X212.747 Y206.468 E86.61538
G1 X212.386 Y207.296 E86.65744
G1 X211.886 Y208.212 E86.70603
G1 X211.343 Y209.022 E86.75144
G1 X210.777 Y209.726 E86.7935
G1 X210.106 Y210.429 E86.83875
G1 X209.317 Y211.117 E86.8875
G1 X208.586 Y211.648 E86.92957
G1 X207.754 Y212.15 E86.97482
G1 X206.813 Y212.606 E87.02351
G1 X205.969 Y212.926 E87.06554
G1 X204.997 Y213.201 E87.11258
G1 X203.996 Y213.387 E87.15998
G1 X202.845 Y213.485 E87.21377
G1 X202.188 Y213.5 E87.24437
G1 X33.064 Y213.499 E95.1195
G1 X32.331 Y213.488 E95.15363
G1 X31.36 Y213.431 E95.19892
G1 X30.466 Y213.299 E95.241
G1 X29.484 Y213.066 E95.288
G1 X28.527 Y212.745 E95.335
G1 X27.7 Y212.384 E95.37702
G1 X26.813 Y211.901 E95.42405
G1 X25.974 Y211.34 E95.47104
G1 X25.27 Y210.774 E95.51311
G1 X24.517 Y210.05 E95.56175
G1 X23.924 Y209.369 E95.60379
G1 X23.331 Y208.552 E95.6508
G1 X22.814 Y207.685 E95.6978
G1 X22.392 Y206.808 E95.74312
G1 X22.072 Y205.964 E95.78515
G1 X21.798 Y204.992 E95.83218
G1 X21.612 Y203.988 E95.87972
G1 X21.514 Y202.809 E95.93481
G1 X21.5 Y202.158 E95.96513
G1 X21.501 Y33.025 E103.84067
G1 X21.512 Y32.325 E103.87327
G1 X21.57 Y31.353 E103.91861
G1 X21.702 Y30.46 E103.96065
G1 X21.926 Y29.513 E104.00596
G1 X22.245 Y28.554 E104.05302
G1 X22.635 Y27.662 E104.09835
G1 X23.102 Y26.808 E104.14368
G1 X23.664 Y25.969 E104.1907
G1 X24.231 Y25.265 E104.23279
G1 X24.955 Y24.513 E104.2814
G1 F2700 E99.2814
;MESH:case4-CaseBase.stl
G0 F6000 X33.3 Y31.835
G0 X201.9 Y201.9
;TYPE:WALL-INNER
G1 F2700 E104.2814
G1 F1200 X201.9 Y33.1 E112.14143
G1 X33.1 Y33.1 E120.00147
G1 X33.1 Y201.9 E127.8615
G1 X201.9 Y201.9 E135.72154
G0 F6000 X202.3 Y202.3
;TYPE:WALL-OUTER
G1 F1200 X202.3 Y32.7 E143.61882
G1 X32.7 Y32.7 E151.51611
G1 X32.7 Y202.3 E159.4134
G1 X202.3 Y202.3 E167.31068
G0 F6000 X202.03 Y202.03
G0 X201.8 Y201.54
G0 X201.54 Y201.54
;TYPE:SKIN
G1 F1200 X33.46 Y201.54 E175.13719
G1 X33.46 Y33.46 E182.9637
G1 X201.54 Y33.46 E190.79021
G1 X201.54 Y201.54 E198.61672
G1 F2700 E193.61672
G0 F6000 X201.8 Y201.54
G0 X201.8 Y33.896
G0 X201.339 Y33.896
G1 F2700 E198.61672
G1 F1200 X201.103 Y33.66 E198.63226
G0 F6000 X200.537 Y33.66
G1 F1200 X201.339 Y34.462 E198.68507
G0 F6000 X201.339 Y35.027
G1 F1200 X199.971 Y33.66 E198.77512
G0 F6000 X199.406 Y33.66
G1 F1200 X201.339 Y35.593 E198.90242
G0 F6000 X201.339 Y36.159
G1 F1200 X198.84 Y33.66 E199.06698
G0 F6000 X198.274 Y33.66
G1 F1200 X201.339 Y36.725 E199.26881
G0 F6000 X201.339 Y37.29
G1 F1200 X197.709 Y33.66 E199.50786
G0 F6000 X197.143 Y33.66
G1 F1200 X201.339 Y37.856 E199.78417
G0 F6000 X201.339 Y38.422
G1 F1200 X196.577 Y33.66 E200.09776
G0 F6000 X196.012 Y33.66
G1 F1200 X201.339 Y38.987 E200.44855
G0 F6000 X201.339 Y39.553
G1 F1200 X195.446 Y33.66 E200.83661
G0 F6000 X194.88 Y33.66
G1 F1200 X201.339 Y40.119 E201.26195
G0 F6000 X201.339 Y40.684
G1 F1200 X194.315 Y33.66 E201.72449
G0 F6000 X193.749 Y33.66
G1 F1200 X201.339 Y41.25 E202.22431
G0 F6000 X201.339 Y41.816
G1 F1200 X193.183 Y33.66 E202.76139
G0 F6000 X192.618 Y33.66
G1 F1200 X201.339 Y42.381 E203.33568
G0 F6000 X201.339 Y42.947
G1 F1200 X192.052 Y33.66 E203.94725
G0 F6000 X191.486 Y33.66
G1 F1200 X201.339 Y43.513 E204.59609
G0 F6000 X201.339 Y44.078
G1 F1200 X190.92 Y33.66 E205.28216
G0 F6000 X190.355 Y33.66
G1 F1200 X201.339 Y44.644 E206.00548
G0 F6000 X201.339 Y45.21
G1 F1200 X189.789 Y33.66 E206.76606
G0 F6000 X189.223 Y33.66
G1 F1200 X201.339 Y45.775 E207.56389
G0 F6000 X201.339 Y46.341
G1 F1200 X188.658 Y33.66 E208.39896
G0 F6000 X188.092 Y33.66
G1 F1200 X201.339 Y46.907 E209.27129
G0 F6000 X201.339 Y47.473
G1 F1200 X187.526 Y33.66 E210.1809
G0 F6000 X186.961 Y33.66
G1 F1200 X201.339 Y48.038 E211.12772
G0 F6000 X201.339 Y48.604
G1 F1200 X186.395 Y33.66 E212.11181
G0 F6000 X185.829 Y33.66
G1 F1200 X201.339 Y49.17 E213.13317
G0 F6000 X201.339 Y49.735
G1 F1200 X185.264 Y33.66 E214.19173
G0 F6000 X184.698 Y33.66
G1 F1200 X201.339 Y50.301 E215.28757
G0 F6000 X201.339 Y50.867
G1 F1200 X184.132 Y33.66 E216.42068
G0 F6000 X183.567 Y33.66
G1 F1200 X201.339 Y51.432 E217.591
G0 F6000 X201.339 Y51.998
G1 F1200 X183.001 Y33.66 E218.79859
G0 F6000 X182.435 Y33.66
G1 F1200 X201.339 Y52.564 E220.04345
G0 F6000 X201.339 Y53.129
G1 F1200 X181.869 Y33.66 E221.32555
G0 F6000 X181.304 Y33.66
G1 F1200 X201.339 Y53.695 E222.64489
G0 F6000 X201.339 Y54.261
G1 F1200 X180.738 Y33.66 E224.0015
G0 F6000 X180.172 Y33.66
G1 F1200 X201.339 Y54.826 E225.39535
G0 F6000 X201.339 Y55.392
G1 F1200 X179.607 Y33.66 E226.82644
G0 F6000 X179.041 Y33.66
G1 F1200 X201.339 Y55.958 E228.2948
G0 F6000 X201.339 Y56.523
G1 F1200 X178.475 Y33.66 E229.8004
G0 F6000 X177.91 Y33.66
G1 F1200 X201.339 Y57.089 E231.34324
G0 F6000 X201.339 Y57.655
G1 F1200 X177.344 Y33.66 E232.92335
G0 F6000 X176.778 Y33.66
G1 F1200 X201.339 Y58.221 E234.54073
G0 F6000 X201.339 Y58.786
G1 F1200 X176.213 Y33.66 E236.19532
G0 F6000 X175.647 Y33.66
G1 F1200 X201.339 Y59.352 E237.88719
G0 F6000 X201.339 Y59.918
G1 F1200 X175.081 Y33.66 E239.61632
G0 F6000 X174.516 Y33.66
G1 F1200 X201.339 Y60.483 E241.38266
G0 F6000 X201.339 Y61.049
G1 F1200 X173.95 Y33.66 E243.18627
G0 F6000 X173.384 Y33.66
G1 F1200 X201.339 Y61.615 E245.02716
G0 F6000 X201.339 Y62.18
G1 F1200 X172.819 Y33.66 E246.90525
G0 F6000 X172.253 Y33.66
G1 F1200 X201.339 Y62.746 E248.82061
G0 F6000 X201.339 Y63.312
G1 F1200 X171.687 Y33.66 E250.77325
G0 F6000 X171.121 Y33.66
G1 F1200 X201.339 Y63.877 E252.76312
G0 F6000 X201.339 Y64.443
G1 F1200 X170.556 Y33.66 E254.79023
G0 F6000 X169.99 Y33.66
G1 F1200 X201.339 Y65.009 E256.85462
G0 F6000 X201.339 Y65.574
G1 F1200 X169.424 Y33.66 E258.95624
G0 F6000 X168.859 Y33.66
G1 F1200 X201.339 Y66.14 E261.09511
G0 F6000 X201.339 Y66.706
G1 F1200 X168.293 Y33.66 E263.27124
G0 F6000 X167.727 Y33.66
G1 F1200 X201.339 Y67.272 E265.48465
G0 F6000 X201.339 Y67.837
G1 F1200 X167.162 Y33.66 E267.73526
G0 F6000 X166.596 Y33.66
G1 F1200 X201.339 Y68.403 E270.02315
G0 F6000 X201.339 Y68.969
G1 F1200 X166.03 Y33.66 E272.34831
G0 F6000 X165.465 Y33.66
G1 F1200 X201.339 Y69.534 E274.71067
G0 F6000 X201.339 Y70.1
G1 F1200 X164.899 Y33.66 E277.11031
G0 F6000 X164.333 Y33.66
G1 F1200 X201.339 Y70.666 E279.54722
G0 F6000 X201.339 Y71.231
G1 F1200 X163.768 Y33.66 E282.02133
G0 F6000 X163.202 Y33.66
G1 F1200 X201.339 Y71.797 E284.53272
G0 F6000 X201.339 Y72.363
G1 F1200 X162.636 Y33.66 E287.08138
G0 F6000 X162.07 Y33.66
G1 F1200 X201.339 Y72.928 E289.66727
G0 F6000 X201.339 Y73.494
G1 F1200 X161.505 Y33.66 E292.29041
G0 F6000 X160.939 Y33.66
G1 F1200 X201.339 Y74.06 E294.95082
G0 F6000 X201.339 Y74.625
G1 F1200 X160.373 Y33.66 E297.64847
G0 F6000 X159.808 Y33.66
G1 F1200 X201.339 Y75.191 E300.38335
G0 F6000 X201.339 Y75.757
G1 F1200 X159.242 Y33.66 E303.15551
G0 F6000 X158.676 Y33.66
G1 F1200 X201.339 Y76.322 E305.96491
G0 F6000 X201.339 Y76.888
G1 F1200 X158.111 Y33.66 E308.81155
G0 F6000 X157.545 Y33.66
G1 F1200 X201.339 Y77.454 E311.69546
G0 F6000 X201.339 Y78.02
G1 F1200 X156.979 Y33.66 E314.61664
G0 F6000 X156.414 Y33.66
G1 F1200 X201.339 Y78.585 E317.57503
G0 F6000 X201.339 Y79.151
G1 F1200 X155.848 Y33.66 E320.57069
G0 F6000 X155.282 Y33.66
G1 F1200 X201.339 Y79.717 E323.60362
G0 F6000 X201.339 Y80.282
G1 F1200 X154.717 Y33.66 E326.67376
G0 F6000 X154.151 Y33.66
G1 F1200 X201.339 Y80.848 E329.78117
G0 F6000 X201.339 Y81.414
G1 F1200 X153.585 Y33.66 E332.92585
G0 F6000 X153.02 Y33.66
G1 F1200 X201.339 Y81.979 E336.10774
G0 F6000 X201.339 Y82.545
G1 F1200 X152.454 Y33.66 E339.3269
G0 F6000 X151.888 Y33.66
G1 F1200 X201.339 Y83.111 E342.58334
G0 F6000 X201.339 Y83.676
G1 F1200 X151.322 Y33.66 E345.87701
G0 F6000 X150.757 Y33.66
G1 F1200 X201.339 Y84.242 E349.20792
G0 F6000 X201.339 Y84.808
G1 F1200 X150.191 Y33.66 E352.5761
G0 F6000 X149.625 Y33.66
G1 F1200 X201.339 Y85.373 E355.98152
G0 F6000 X201.339 Y85.939
G1 F1200 X149.06 Y33.66 E359.42418
G0 F6000 X148.494 Y33.66
G1 F1200 X201.339 Y86.505 E362.90412
G0 F6000 X201.339 Y87.071
G1 F1200 X147.928 Y33.66 E366.42132
G0 F6000 X147.363 Y33.66
G1 F1200 X201.339 Y87.636 E369.97574
G0 F6000 X201.339 Y88.202
G1 F1200 X146.797 Y33.66 E373.56742
G0 F6000 X146.231 Y33.66
G1 F1200 X201.339 Y88.768 E377.19638
G0 F6000 X201.339 Y89.333
G1 F1200 X145.666 Y33.66 E380.86254
G0 F6000 X145.1 Y33.66
G1 F1200 X201.339 Y89.899 E384.56597
G0 F6000 X201.339 Y90.465
G1 F1200 X144.534 Y33.66 E388.30668
G0 F6000 X143.969 Y33.66
G1 F1200 X201.339 Y91.03 E392.08459
G0 F6000 X201.339 Y91.596
G1 F1200 X143.403 Y33.66 E395.89978
G0 F6000 X142.837 Y33.66
G1 F1200 X201.339 Y92.162 E399.75223
G0 F6000 X201.339 Y92.727
G1 F1200 X142.272 Y33.66 E403.64189
G0 F6000 X141.706 Y33.66
G1 F1200 X201.339 Y93.293 E407.56883
G0 F6000 X201.339 Y93.859
G1 F1200 X141.14 Y33.66 E411.53304
G0 F6000 X140.574 Y33.66
G1 F1200 X201.339 Y94.424 E415.53448
G0 F6000 X201.339 Y94.99
G1 F1200 X140.009 Y33.66 E419.57317
G0 F6000 X139.443 Y33.66
G1 F1200 X201.339 Y95.556 E423.64912
G0 F6000 X201.339 Y96.121
G1 F1200 X138.877 Y33.66 E427.76232
G0 F6000 X138.312 Y33.66
G1 F1200 X201.339 Y96.687 E431.91276
G0 F6000 X201.339 Y97.253
G1 F1200 X137.746 Y33.66 E436.10046
G0 F6000 X137.18 Y33.66
G1 F1200 X201.339 Y97.819 E440.32544
G0 F6000 X201.339 Y98.384
G1 F1200 X136.615 Y33.66 E444.58763
G0 F6000 X136.049 Y33.66
G1 F1200 X201.339 Y98.95 E448.88709
G0 F6000 X201.339 Y99.516
G1 F1200 X135.483 Y33.66 E453.22382
G0 F6000 X134.918 Y33.66
G1 F1200 X201.339 Y100.081 E457.59775
G0 F6000 X201.339 Y100.647
