;FLAVOR:Marlin
;TIME:29562
;Filament used: 27.3629m
;Layer height: 0.28
;MINX:21.034
;MINY:21.5
;MINZ:0.28
;MAXX:213.034
;MAXY:213.5
;MAXZ:49
;Generated with Cura_SteamEngine 5.3.1
M140 S50
M105
M190 S50
M104 S200
M105
M109 S200
M82 ;absolute extrusion mode
; Ender 3 Custom Start G-code
G92 E0 ; Reset Extruder
G28 ; Home all axes
G1 Z2.0 F3000 ; Move Z Axis up little to prevent scratching of Heat Bed
G1 X0.1 Y20 Z0.3 F5000.0 ; Move to start position
G1 X0.1 Y200.0 Z0.3 F1500.0 E15 ; Draw the first line
G1 X0.4 Y200.0 Z0.3 F5000.0 ; Move to side a little
G1 X0.4 Y20 Z0.3 F1500.0 E30 ; Draw the second line
G92 E0 ; Reset Extruder
G1 Z2.0 F3000 ; Move Z Axis up little to prevent scratching of Heat Bed
G1 X5 Y20 Z0.3 F5000.0 ; Move over to prevent blob squish
G92 E0
G92 E0
G1 F2700 E-5
;LAYER_COUNT:175
;LAYER:0
M107
G0 F6000 X25.015 Y25.117 Z0.28
;TYPE:SKIRT
G1 F2700 E0
G1 F1200 X25.696 Y24.524 E0.04205
G1 X26.428 Y23.994 E0.08413
G1 X27.203 Y23.531 E0.12617
G1 X28.016 Y23.138 E0.16821
G1 X28.861 Y22.818 E0.21029
G1 X29.73 Y22.575 E0.2523
G1 X30.618 Y22.409 E0.29437
G1 X31.757 Y22.313 E0.34759
G1 X32.364 Y22.3 E0.37586
G1 X201.473 Y22.301 E8.25029
G1 X202.171 Y22.311 E8.28279
G1 X203.073 Y22.364 E8.32487
G1 X203.966 Y22.496 E8.3669
G1 X204.844 Y22.707 E8.40895
G1 X205.7 Y22.995 E8.451
G1 X206.527 Y23.357 E8.49304
G1 X207.319 Y23.792 E8.53511
G1 X208.07 Y24.294 E8.57718
G1 X208.773 Y24.861 E8.61923
G1 X209.423 Y25.488 E8.66128
G1 X210.015 Y26.17 E8.70334
G1 X210.545 Y26.901 E8.74538
G1 X211.007 Y27.677 E8.78743
G1 X211.4 Y28.49 E8.82948
G1 X211.718 Y29.335 E8.87152
G1 X211.961 Y30.205 E8.91358
G1 X212.126 Y31.093 E8.95564
G1 X212.221 Y32.223 E9.00844
G1 X212.234 Y32.83 E9.03671
G1 X212.233 Y201.89 E16.90886
G1 X212.224 Y202.617 E16.94271
G1 X212.173 Y203.519 E16.98478
G1 X212.042 Y204.413 E17.02685
G1 X211.833 Y205.291 E17.06888
G1 X211.547 Y206.148 E17.11095
G1 X211.186 Y206.976 E17.15301
G1 X210.754 Y207.768 E17.19501
G1 X210.253 Y208.52 E17.23709
G1 X209.687 Y209.224 E17.27915
G1 X209.062 Y209.875 E17.32117
G1 X208.381 Y210.469 E17.36325
G1 X207.65 Y211 E17.40532
G1 X206.876 Y211.464 E17.44734
G1 X206.063 Y211.858 E17.48941
G1 X205.219 Y212.178 E17.53144
G1 X204.349 Y212.423 E17.57353
G1 X203.462 Y212.589 E17.61555
G1 X202.311 Y212.687 E17.66934
G1 X201.704 Y212.7 E17.69761
G1 X32.609 Y212.699 E25.57138
G1 X31.911 Y212.69 E25.60388
G1 X31.01 Y212.639 E25.64591
G1 X30.116 Y212.507 E25.68799
G1 X29.238 Y212.298 E25.73001
G1 X28.381 Y212.011 E25.77209
G1 X27.554 Y211.65 E25.81411
G1 X26.761 Y211.217 E25.85618
G1 X26.01 Y210.716 E25.89822
G1 X25.306 Y210.15 E25.94028
G1 X24.655 Y209.524 E25.98234
G1 X24.062 Y208.843 E26.02438
G1 X23.532 Y208.112 E26.06643
G1 X23.068 Y207.337 E26.10849
G1 X22.674 Y206.524 E26.15056
G1 X22.354 Y205.68 E26.19259
G1 X22.11 Y204.81 E26.23466
G1 X21.944 Y203.922 E26.27673
G1 X21.847 Y202.767 E26.3307
G1 X21.834 Y202.158 E26.35906
G1 X21.835 Y33.036 E34.23409
G1 X21.844 Y32.371 E34.26506
G1 X21.896 Y31.469 E34.30713
G1 X22.028 Y30.576 E34.34916
G1 X22.238 Y29.698 E34.3912
G1 X22.525 Y28.841 E34.43328
G1 X22.887 Y28.014 E34.47532
G1 X23.32 Y27.222 E34.51735
G1 X23.822 Y26.471 E34.55941
G1 X24.389 Y25.767 E34.6015
G1 X25.015 Y25.117 E34.64352
G0 F6000 X24.752 Y24.815
G1 F1200 X25.433 Y24.222 E34.68557
G1 X26.193 Y23.67 E34.72931
G1 X27.029 Y23.171 E34.77464
G1 X27.874 Y22.764 E34.81832
G1 X28.719 Y22.444 E34.86039
G1 X29.656 Y22.182 E34.9057
G1 X30.584 Y22.01 E34.94964
G1 X31.723 Y21.914 E35.00287
G1 X32.364 Y21.9 E35.03272
G1 X201.479 Y21.901 E42.90743
G1 X202.194 Y21.912 E42.94072
G1 X203.131 Y21.968 E42.98443
G1 X204.024 Y22.1 E43.02646
G1 X204.972 Y22.328 E43.07187
G1 X205.828 Y22.616 E43.11392
G1 X206.72 Y23.006 E43.15925
G1 X207.512 Y23.441 E43.20133
G1 X208.292 Y23.961 E43.24498
G1 X209.051 Y24.573 E43.29038
G1 X209.701 Y25.2 E43.33243
G1 X210.339 Y25.935 E43.37775
G1 X210.889 Y26.696 E43.42147
G1 X211.351 Y27.472 E43.46353
G1 X211.774 Y28.349 E43.50887
G1 X212.103 Y29.227 E43.55252
G1 X212.354 Y30.132 E43.59626
G1 X212.525 Y31.059 E43.64015
G1 X212.62 Y32.189 E43.69295
G1 X212.634 Y32.83 E43.72281
G1 X212.633 Y201.895 E51.59518
G1 X212.623 Y202.64 E51.62988
G1 X212.569 Y203.577 E51.67358
G1 X212.438 Y204.471 E51.71565
G1 X212.222 Y205.384 E51.75934
G1 X211.914 Y206.308 E51.80469
G1 X211.553 Y207.136 E51.84675
G1 X211.087 Y207.99 E51.89205
G1 X210.565 Y208.771 E51.93579
G1 X209.999 Y209.475 E51.97786
G1 X209.351 Y210.152 E52.02149
G1 X208.616 Y210.793 E52.0669
G1 X207.885 Y211.324 E52.10897
G1 X207.082 Y211.807 E52.15261
G1 X206.205 Y212.232 E52.19799
G1 X205.361 Y212.552 E52.24002
G1 X204.423 Y212.816 E52.28539
G1 X203.496 Y212.988 E52.32929
G1 X202.345 Y213.086 E52.38308
G1 X201.713 Y213.1 E52.41252
G1 X32.604 Y213.099 E60.28694
G1 X31.888 Y213.089 E60.32029
G1 X30.952 Y213.035 E60.36394
G1 X30.058 Y212.903 E60.40602
G1 X29.145 Y212.687 E60.44971
G1 X28.221 Y212.378 E60.49508
G1 X27.394 Y212.017 E60.53709
G1 X26.539 Y211.55 E60.58246
G1 X25.759 Y211.028 E60.62616
G1 X25.055 Y210.462 E60.66822
G1 X24.353 Y209.787 E60.71357
G1 X23.76 Y209.106 E60.75562
G1 X23.208 Y208.347 E60.79932
G1 X22.708 Y207.511 E60.84468
G1 X22.3 Y206.666 E60.88837
G1 X21.98 Y205.822 E60.9304
G1 X21.717 Y204.884 E60.97576
G1 X21.545 Y203.955 E61.01976
G1 X21.447 Y202.776 E61.07484
G1 X21.434 Y202.158 E61.10363
G1 X21.435 Y33.031 E68.97889
G1 X21.445 Y32.348 E69.0107
G1 X21.5 Y31.411 E69.0544
G1 X21.632 Y30.518 E69.09643
G1 X21.849 Y29.605 E69.14013
G1 X22.146 Y28.714 E69.18386
G1 X22.536 Y27.822 E69.2292
G1 X22.987 Y27 E69.27286
G1 X23.51 Y26.22 E69.31658
G1 X24.077 Y25.516 E69.35868
G1 X24.752 Y24.815 E69.40399
G0 F6000 X24.489 Y24.513
G1 F1200 X25.17 Y23.92 E69.44604
G1 X25.958 Y23.346 E69.49143
G1 X26.855 Y22.811 E69.54006
G1 X27.732 Y22.39 E69.58536
G1 X28.577 Y22.07 E69.62744
G1 X29.583 Y21.789 E69.67607
G1 X30.55 Y21.611 E69.72186
G1 X31.689 Y21.515 E69.77508
G1 X32.364 Y21.5 E69.80652
G1 X201.485 Y21.501 E77.6815
G1 X202.218 Y21.513 E77.71564
G1 X203.189 Y21.572 E77.76094
G1 X204.118 Y21.711 E77.80468
G1 X205.066 Y21.939 E77.85008
G1 X205.988 Y22.249 E77.89537
G1 X206.913 Y22.655 E77.94241
G1 X207.705 Y23.09 E77.98449
G1 X208.514 Y23.628 E78.02972
G1 X209.329 Y24.285 E78.07847
G1 X209.979 Y24.912 E78.12052
G1 X210.641 Y25.673 E78.16749
G1 X211.233 Y26.491 E78.21451
G1 X211.695 Y27.267 E78.25656
G1 X212.149 Y28.209 E78.30525
G1 X212.478 Y29.087 E78.34891
G1 X212.747 Y30.059 E78.39587
G1 X212.924 Y31.025 E78.4416
G1 X213.019 Y32.155 E78.49441
G1 X213.034 Y32.83 E78.52585
G1 X213.033 Y201.9 E86.39845
G1 X213.022 Y202.663 E86.43399
G1 X212.965 Y203.635 E86.47932
G1 X212.834 Y204.529 E86.5214
G1 X212.611 Y205.476 E86.5667
G1 X212.281 Y206.468 E86.61538
G1 X211.92 Y207.296 E86.65744
G1 X211.42 Y208.212 E86.70603
G1 X210.877 Y209.022 E86.75144
G1 X210.311 Y209.726 E86.7935
G1 X209.64 Y210.429 E86.83875
G1 X208.851 Y211.117 E86.8875
G1 X208.12 Y211.648 E86.92957
G1 X207.288 Y212.15 E86.97482
G1 X206.347 Y212.606 E87.02351
G1 X205.503 Y212.926 E87.06554
G1 X204.531 Y213.201 E87.11258
G1 X203.53 Y213.387 E87.15998
G1 X202.379 Y213.485 E87.21377
G1 X201.722 Y213.5 E87.24437
G1 X32.598 Y213.499 E95.1195
G1 X31.865 Y213.488 E95.15363
G1 X30.894 Y213.431 E95.19892
G1 X30 Y213.299 E95.241
G1 X29.018 Y213.066 E95.288
G1 X28.061 Y212.745 E95.335
G1 X27.234 Y212.384 E95.37702
G1 X26.347 Y211.901 E95.42405
G1 X25.508 Y211.34 E95.47104
G1 X24.804 Y210.774 E95.51311
G1 X24.051 Y210.05 E95.56175
G1 X23.458 Y209.369 E95.60379
G1 X22.865 Y208.552 E95.6508
G1 X22.348 Y207.685 E95.6978
G1 X21.926 Y206.808 E95.74312
G1 X21.606 Y205.964 E95.78515
G1 X21.332 Y204.992 E95.83218
G1 X21.146 Y203.988 E95.87972
G1 X21.048 Y202.809 E95.93481
G1 X21.034 Y202.158 E95.96513
G1 X21.035 Y33.025 E103.84067
G1 X21.046 Y32.325 E103.87327
G1 X21.104 Y31.353 E103.91861
G1 X21.236 Y30.46 E103.96065
G1 X21.46 Y29.513 E104.00596
G1 X21.779 Y28.554 E104.05302
G1 X22.169 Y27.662 E104.09835
G1 X22.636 Y26.808 E104.14368
G1 X23.198 Y25.969 E104.1907
G1 X23.765 Y25.265 E104.23279
G1 X24.489 Y24.513 E104.2814
G1 F2700 E99.2814
;MESH:case3-CaseBase-thin.stl
G0 F6000 X54.751 Y77.622
G0 X59.513 Y85.699
;TYPE:WALL-INNER
G1 F2700 E104.2814
G1 F1200 X59.213 Y85.779 E104.29585
G1 X55.087 Y85.777 E104.48798
G1 X54.822 Y85.633 E104.50202
G1 X54.721 Y85.521 E104.50904
G1 X52.633 Y81.912 E104.70319
G1 X52.614 Y81.669 E104.71454
G1 X52.673 Y81.452 E104.72501
G1 X54.736 Y77.888 E104.91677
G1 X54.833 Y77.787 E104.92329
G1 X55.041 Y77.676 E104.93426
G1 X55.214 Y77.65 E104.94241
G1 X59.263 Y77.652 E105.13095
G1 X59.41 Y77.683 E105.13794
G1 X59.673 Y77.845 E105.15233
G1 X61.76 Y81.46 E105.3467
G1 X61.816 Y81.715 E105.35885
G1 X61.735 Y82.016 E105.37337
G1 X59.705 Y85.523 E105.56205
G1 X59.513 Y85.699 E105.57418
G1 F2700 E100.57418
G0 F6000 X61.891 Y82.108
G0 X65.478 Y79.994
G0 X69.843 Y79.735
G1 F2700 E105.57418
G1 F1200 X69.543 Y79.815 E105.58864
G1 X65.492 Y79.813 E105.77727
G1 X65.245 Y79.735 E105.78933
G1 X65.053 Y79.56 E105.80143
G1 X62.961 Y75.945 E105.99591
G1 X62.953 Y75.637 E106.01026
G1 X63 Y75.494 E106.01727
G1 X65.052 Y71.943 E106.20824
G1 X65.216 Y71.784 E106.21887
G1 X65.497 Y71.688 E106.2327
G1 X69.619 Y71.691 E106.42464
G1 X69.859 Y71.776 E106.43649
G1 X70.02 Y71.921 E106.44658
G1 X72.088 Y75.494 E106.63882
G1 X72.135 Y75.637 E106.64582
G1 X72.127 Y75.946 E106.66022
G1 X70.035 Y79.559 E106.85462
G1 X69.843 Y79.735 E106.86675
G1 F2700 E101.86675
G0 F6000 X70.184 Y79.662
G0 X73.165 Y81.383
G0 X80.173 Y85.699
G1 F2700 E106.86675
G1 F1200 X79.873 Y85.779 E106.88121
G1 X75.822 Y85.777 E107.06984
G1 X75.575 Y85.699 E107.0819
G1 X75.383 Y85.524 E107.094
G1 X73.353 Y82.016 E107.28272
G1 X73.273 Y81.715 E107.29722
G1 X73.329 Y81.461 E107.30934
G1 X75.415 Y77.845 E107.50372
G1 X75.678 Y77.683 E107.5181
G1 X75.825 Y77.652 E107.5251
G1 X79.923 Y77.652 E107.71592
G1 X80.07 Y77.683 E107.72291
G1 X80.333 Y77.845 E107.7373
G1 X82.42 Y81.46 E107.93166
G1 X82.476 Y81.715 E107.94382
G1 X82.395 Y82.016 E107.95834
G1 X80.365 Y85.523 E108.14702
G1 X80.173 Y85.699 E108.15915
G1 F2700 E103.15915
G0 F6000 X82.551 Y82.108
G0 X86.138 Y79.994
G0 X90.503 Y79.735
G1 F2700 E108.15915
G1 F1200 X90.203 Y79.815 E108.17361
G1 X86.152 Y79.813 E108.36224
G1 X85.905 Y79.735 E108.3743
G1 X85.713 Y79.56 E108.3864
G1 X83.621 Y75.945 E108.58088
G1 X83.613 Y75.637 E108.59523
G1 X83.66 Y75.494 E108.60224
G1 X85.728 Y71.921 E108.79447
G1 X85.914 Y71.761 E108.80589
G1 X86.112 Y71.687 E108.81573
G1 X90.279 Y71.691 E109.00977
G1 X90.519 Y71.776 E109.02162
G1 X90.68 Y71.921 E109.03171
G1 X92.748 Y75.494 E109.22394
G1 X92.795 Y75.637 E109.23095
G1 X92.787 Y75.946 E109.24535
G1 X90.695 Y79.559 E109.43975
G1 X90.503 Y79.735 E109.45188
G1 F2700 E104.45188
G0 F6000 X90.844 Y79.662
G0 X93.825 Y81.383
G0 X100.833 Y85.699
G1 F2700 E109.45188
G1 F1200 X100.533 Y85.779 E109.46633
G1 X96.482 Y85.777 E109.65497
G1 X96.235 Y85.699 E109.66703
G1 X96.043 Y85.524 E109.67912
G1 X94.013 Y82.016 E109.86785
G1 X93.933 Y81.715 E109.88235
G1 X93.989 Y81.461 E109.89446
G1 X96.075 Y77.845 E110.08885
G1 X96.338 Y77.683 E110.10323
G1 X96.485 Y77.652 E110.11023
G1 X100.583 Y77.652 E110.30105
G1 X100.73 Y77.683 E110.30804
G1 X100.993 Y77.845 E110.32243
G1 X103.08 Y81.46 E110.51679
G1 X103.136 Y81.715 E110.52895
G1 X103.055 Y82.016 E110.54346
G1 X101.025 Y85.523 E110.73215
G1 X100.833 Y85.699 E110.74428
G1 F2700 E105.74428
G0 F6000 X103.211 Y82.108
G0 X106.798 Y79.994
G0 X111.163 Y79.735
G1 F2700 E110.74428
G1 F1200 X110.863 Y79.815 E110.75873
G1 X106.812 Y79.813 E110.94737
G1 X106.565 Y79.735 E110.95943
G1 X106.373 Y79.56 E110.97152
G1 X104.281 Y75.945 E111.16601
G1 X104.273 Y75.637 E111.18035
G1 X104.32 Y75.494 E111.18736
G1 X106.388 Y71.921 E111.3796
G1 X106.574 Y71.761 E111.39102
G1 X106.772 Y71.687 E111.40086
G1 X110.939 Y71.691 E111.5949
G1 X111.179 Y71.776 E111.60675
G1 X111.34 Y71.921 E111.61684
G1 X113.408 Y75.494 E111.80907
G1 X113.455 Y75.637 E111.81608
G1 X113.447 Y75.946 E111.83047
G1 X111.355 Y79.559 E112.02488
G1 X111.163 Y79.735 E112.03701
G1 F2700 E107.03701
G0 F6000 X111.504 Y79.662
G0 X114.485 Y81.383
G0 X121.493 Y85.699
G1 F2700 E112.03701
G1 F1200 X121.193 Y85.779 E112.05146
G1 X117.142 Y85.777 E112.24009
G1 X116.895 Y85.699 E112.25216
G1 X116.703 Y85.524 E112.26425
G1 X114.673 Y82.016 E112.45298
G1 X114.593 Y81.715 E112.46748
G1 X114.649 Y81.461 E112.47959
G1 X116.735 Y77.845 E112.67398
G1 X116.998 Y77.683 E112.68836
G1 X117.145 Y77.652 E112.69535
G1 X121.243 Y77.652 E112.88617
G1 X121.39 Y77.683 E112.89317
G1 X121.653 Y77.845 E112.90755
G1 X123.74 Y81.46 E113.10192
G1 X123.796 Y81.715 E113.11408
G1 X123.715 Y82.016 E113.12859
G1 X121.685 Y85.523 E113.31728
G1 X121.493 Y85.699 E113.32941
G1 F2700 E108.32941
G0 F6000 X123.871 Y82.108
G0 X126.884 Y79.662
G0 X127.225 Y79.735
G1 F2700 E113.32941
G1 F1200 X127.033 Y79.56 E113.3415
G1 X124.941 Y75.945 E113.53599
G1 X124.933 Y75.637 E113.55033
G1 X124.98 Y75.494 E113.55734
G1 X127.048 Y71.921 E113.74957
G1 X127.234 Y71.761 E113.761
G1 X127.432 Y71.687 E113.77084
G1 X131.571 Y71.688 E113.96357
G1 X131.867 Y71.794 E113.97821
G1 X132.004 Y71.919 E113.98685
G1 X134.068 Y75.494 E114.17906
G1 X134.115 Y75.637 E114.18607
G1 X134.107 Y75.946 E114.20047
G1 X132.015 Y79.559 E114.39487
G1 X131.824 Y79.735 E114.40696
G1 X131.523 Y79.815 E114.42147
G1 X127.472 Y79.813 E114.6101
G1 X127.225 Y79.735 E114.62216
G1 F2700 E109.62216
G0 F6000 X131.522 Y79.996
G0 X135.178 Y82.108
G0 X137.555 Y85.699
G1 F2700 E114.62216
G1 F1200 X137.364 Y85.523 E114.63425
G1 X135.334 Y82.016 E114.82294
G1 X135.254 Y81.715 E114.83744
G1 X135.31 Y81.461 E114.84955
G1 X137.396 Y77.845 E115.04394
G1 X137.659 Y77.683 E115.05832
G1 X137.806 Y77.652 E115.06531
G1 X141.889 Y77.651 E115.25544
G1 X142.09 Y77.698 E115.26505
G1 X142.318 Y77.853 E115.27789
G1 X144.398 Y81.455 E115.47157
G1 X144.45 Y81.624 E115.4798
G1 X144.45 Y81.805 E115.48823
G1 X144.393 Y81.985 E115.49702
G1 X142.348 Y85.521 E115.68722
G1 X142.247 Y85.633 E115.69425
G1 X141.979 Y85.779 E115.70846
G1 X137.803 Y85.777 E115.90291
G1 X137.555 Y85.699 E115.91501
G1 F2700 E110.91501
G0 F6000 X137.215 Y85.626
G0 X134.233 Y87.347
G0 X127.225 Y91.664
G1 F2700 E115.91501
G1 F1200 X127.033 Y91.489 E115.92711
G1 X125.003 Y87.98 E116.11588
G1 X124.923 Y87.679 E116.13038
G1 X124.979 Y87.425 E116.14249
G1 X127.004 Y83.915 E116.33118
G1 X127.225 Y83.695 E116.3457
G1 X127.472 Y83.617 E116.35776
G1 X131.65 Y83.615 E116.55231
G1 X131.981 Y83.806 E116.5701
G1 X134.069 Y87.425 E116.76465
G1 X134.125 Y87.679 E116.77676
G1 X134.045 Y87.98 E116.79127
G1 X132.015 Y91.488 E116.97999
G1 X131.824 Y91.664 E116.99209
G1 X131.523 Y91.744 E117.00659
G1 X127.472 Y91.742 E117.19522
G1 X127.225 Y91.664 E117.20728
G1 F2700 E112.20728
G0 F6000 X126.967 Y91.667
G0 X123.656 Y93.644
G0 X121.493 Y97.628
G1 F2700 E117.20728
G1 F1200 X121.193 Y97.708 E117.22174
G1 X117.142 Y97.706 E117.41037
G1 X116.895 Y97.628 E117.42243
G1 X116.703 Y97.453 E117.43453
G1 X114.673 Y93.945 E117.62325
G1 X114.593 Y93.644 E117.63776
G1 X114.649 Y93.39 E117.64987
G1 X116.675 Y89.879 E117.83862
G1 X116.895 Y89.659 E117.85311
G1 X117.142 Y89.581 E117.86517
G1 X121.32 Y89.579 E118.05972
G1 X121.649 Y89.769 E118.07741
G1 X123.74 Y93.389 E118.27207
G1 X123.796 Y93.644 E118.28422
G1 X123.715 Y93.945 E118.29874
G1 X121.685 Y97.452 E118.48742
G1 X121.493 Y97.628 E118.49955
G1 F2700 E113.49955
G0 F6000 X121.765 Y97.617
G0 X125.062 Y99.608
G0 X127.225 Y103.592
G1 F2700 E118.49955
G1 F1200 X127.033 Y103.417 E118.51165
G1 X125.003 Y99.909 E118.70038
G1 X124.923 Y99.608 E118.71488
G1 X124.979 Y99.354 E118.72699
G1 X127.004 Y95.844 E118.91568
G1 X127.225 Y95.624 E118.9302
G1 X127.472 Y95.546 E118.94226
G1 X131.65 Y95.544 E119.13681
G1 X131.981 Y95.735 E119.1546
G1 X134.069 Y99.354 E119.34915
G1 X134.125 Y99.608 E119.36126
G1 X134.045 Y99.909 E119.37577
G1 X132.015 Y103.416 E119.56445
G1 X131.824 Y103.592 E119.57654
G1 X131.523 Y103.672 E119.59105
G1 X127.472 Y103.67 E119.77968
G1 X127.225 Y103.592 E119.79174
G1 F2700 E114.79174
G0 F6000 X126.967 Y103.595
G0 X123.656 Y105.572
G0 X121.493 Y109.556
