;FLAVOR:Marlin
;TIME:2815
;Filament used: 2.54339m
;Layer height: 0.28
;MINX:19.215
;MINY:76.222
;MINZ:0.28
;MAXX:211.215
;MAXY:148.222
;MAXZ:6.72
;Generated with Cura_SteamEngine 5.3.1
M140 S50
M105
M190 S50
M104 S200
M105
M109 S200
M82 ;absolute extrusion mode
; Ender 3 Custom Start G-code
G92 E0 ; Reset Extruder
G28 ; Home all axes
G1 Z2.0 F3000 ; Move Z Axis up little to prevent scratching of Heat Bed
G1 X0.1 Y20 Z0.3 F5000.0 ; Move to start position
G1 X0.1 Y200.0 Z0.3 F1500.0 E15 ; Draw the first line
G1 X0.4 Y200.0 Z0.3 F5000.0 ; Move to side a little
G1 X0.4 Y20 Z0.3 F1500.0 E30 ; Draw the second line
G92 E0 ; Reset Extruder
G1 Z2.0 F3000 ; Move Z Axis up little to prevent scratching of Heat Bed
G1 X5 Y20 Z0.3 F5000.0 ; Move over to prevent blob squish
G92 E0
G92 E0
G1 F2700 E-5
;LAYER_COUNT:24
;LAYER:0
M107
G0 F6000 X27.042 Y77.54 Z0.28
;TYPE:SKIRT
G1 F2700 E0
G1 F1200 X27.911 Y77.297 E0.04202
G1 X28.799 Y77.131 E0.08408
G1 X29.938 Y77.035 E0.13731
G1 X30.545 Y77.022 E0.16558
G1 X199.654 Y77.023 E8.04
G1 X200.352 Y77.033 E8.07251
G1 X201.254 Y77.086 E8.11458
G1 X202.147 Y77.218 E8.15661
G1 X203.025 Y77.429 E8.19866
G1 X203.881 Y77.717 E8.24071
G1 X204.708 Y78.079 E8.28275
G1 X205.5 Y78.514 E8.32483
G1 X206.251 Y79.016 E8.36689
G1 X206.954 Y79.583 E8.40894
G1 X207.604 Y80.21 E8.451
G1 X208.196 Y80.892 E8.49305
G1 X208.726 Y81.623 E8.53509
G1 X209.188 Y82.399 E8.57715
G1 X209.581 Y83.212 E8.61919
G1 X209.899 Y84.057 E8.66123
G1 X210.142 Y84.927 E8.7033
G1 X210.307 Y85.815 E8.74535
G1 X210.402 Y86.945 E8.79816
G1 X210.415 Y87.552 E8.82643
G1 X210.414 Y136.612 E11.11087
G1 X210.405 Y137.339 E11.14472
G1 X210.354 Y138.241 E11.18679
G1 X210.223 Y139.135 E11.22886
G1 X210.014 Y140.013 E11.27089
G1 X209.728 Y140.87 E11.31296
G1 X209.367 Y141.698 E11.35502
G1 X208.935 Y142.49 E11.39702
G1 X208.434 Y143.242 E11.4391
G1 X207.868 Y143.946 E11.48116
G1 X207.243 Y144.597 E11.52318
G1 X206.562 Y145.191 E11.56526
G1 X205.831 Y145.722 E11.60733
G1 X205.057 Y146.186 E11.64935
G1 X204.244 Y146.58 E11.69142
G1 X203.4 Y146.9 E11.73345
G1 X202.53 Y147.145 E11.77554
G1 X201.643 Y147.311 E11.81756
G1 X200.492 Y147.409 E11.87135
G1 X199.885 Y147.422 E11.89962
G1 X190.777 Y147.421 E12.32373
G1 X190.075 Y147.411 E12.35642
G1 X189.173 Y147.358 E12.39849
G1 X188.28 Y147.226 E12.44052
G1 X187.402 Y147.015 E12.48257
G1 X186.546 Y146.727 E12.52463
G1 X185.718 Y146.365 E12.5667
G1 X184.926 Y145.931 E12.60876
G1 X184.176 Y145.428 E12.65081
G1 X183.473 Y144.862 E12.69283
G1 X182.66 Y144.06 E12.74601
G1 X181.793 Y143.103 E12.80614
G1 X180.041 Y141.223 E12.9258
G1 X178.247 Y139.404 E13.04476
G1 X176.41 Y137.643 E13.16326
G1 X174.533 Y135.944 E13.28115
G1 X172.623 Y134.311 E13.39816
G1 X170.623 Y132.695 E13.51789
G1 X168.592 Y131.149 E13.63674
G1 X166.555 Y129.685 E13.75355
G1 X164.442 Y128.258 E13.87227
G1 X162.298 Y126.896 E13.99055
G1 X160.089 Y125.578 E14.11033
G1 X157.906 Y124.358 E14.22677
G1 X155.656 Y123.183 E14.34497
G1 X153.35 Y122.06 E14.4644
G1 X151.064 Y121.027 E14.58121
G1 X148.671 Y120.027 E14.70198
G1 X146.349 Y119.131 E14.81787
G1 X143.934 Y118.277 E14.93715
G1 X141.528 Y117.502 E15.05485
G1 X139.09 Y116.792 E15.17309
G1 X136.61 Y116.145 E15.29243
G1 X134.122 Y115.572 E15.41132
G1 X131.687 Y115.083 E15.52696
G1 X129.134 Y114.644 E15.64759
G1 X126.676 Y114.293 E15.7632
G1 X124.107 Y114.001 E15.8836
G1 X121.571 Y113.784 E16.00211
G1 X119.079 Y113.642 E16.11834
G1 X116.509 Y113.568 E16.23806
G1 X113.976 Y113.566 E16.35601
G1 X111.446 Y113.637 E16.47386
G1 X108.902 Y113.78 E16.59251
G1 X106.372 Y113.994 E16.71074
G1 X103.84 Y114.281 E16.82939
G1 X101.346 Y114.635 E16.94669
G1 X98.823 Y115.066 E17.06587
G1 X96.322 Y115.567 E17.18464
G1 X93.899 Y116.122 E17.30039
G1 X91.402 Y116.771 E17.42052
G1 X88.955 Y117.481 E17.53916
G1 X86.57 Y118.247 E17.65581
G1 X84.154 Y119.099 E17.7751
G1 X81.767 Y120.017 E17.89418
G1 X79.435 Y120.991 E18.01186
G1 X77.112 Y122.039 E18.13053
G1 X74.85 Y123.138 E18.24763
G1 X72.602 Y124.309 E18.36565
G1 X70.382 Y125.548 E18.48404
G1 X68.166 Y126.867 E18.60412
G1 X66.032 Y128.221 E18.7218
G1 X63.948 Y129.626 E18.83883
G1 X61.861 Y131.122 E18.9584
G1 X59.87 Y132.637 E19.0749
G1 X57.863 Y134.254 E19.19491
G1 X55.945 Y135.892 E19.31236
G1 X54.04 Y137.614 E19.43193
G1 X52.234 Y139.342 E19.54832
G1 X50.432 Y141.166 E19.66771
G1 X48.665 Y143.059 E19.78829
G1 X47.808 Y144.016 E19.84811
G1 X47.176 Y144.662 E19.89019
G1 X46.49 Y145.249 E19.93223
G1 X45.754 Y145.773 E19.9743
G1 X44.975 Y146.23 E20.01636
G1 X44.159 Y146.617 E20.05841
G1 X43.312 Y146.929 E20.10044
G1 X42.44 Y147.166 E20.14252
G1 X41.551 Y147.324 E20.18456
G1 X40.492 Y147.409 E20.23403
G1 X39.885 Y147.422 E20.2623
G1 X30.79 Y147.421 E20.6858
G1 X30.092 Y147.412 E20.71831
G1 X29.191 Y147.361 E20.76033
G1 X28.297 Y147.229 E20.80241
G1 X27.419 Y147.02 E20.84443
G1 X26.562 Y146.733 E20.88652
G1 X25.735 Y146.372 E20.92854
G1 X24.942 Y145.939 E20.97061
G1 X24.191 Y145.438 E21.01264
G1 X23.487 Y144.872 E21.05471
G1 X22.836 Y144.246 E21.09676
G1 X22.243 Y143.565 E21.13881
G1 X21.713 Y142.834 E21.18085
G1 X21.249 Y142.059 E21.22291
G1 X20.855 Y141.246 E21.26498
G1 X20.535 Y140.402 E21.30701
G1 X20.291 Y139.532 E21.34908
G1 X20.125 Y138.644 E21.39115
G1 X20.028 Y137.489 E21.44512
G1 X20.015 Y136.88 E21.47348
G1 X20.016 Y87.758 E23.76081
G1 X20.025 Y87.093 E23.79178
G1 X20.077 Y86.191 E23.83385
G1 X20.209 Y85.298 E23.87588
G1 X20.419 Y84.42 E23.91792
G1 X20.706 Y83.563 E23.96
G1 X21.068 Y82.736 E24.00204
G1 X21.501 Y81.944 E24.04407
G1 X22.003 Y81.193 E24.08613
G1 X22.57 Y80.489 E24.12822
G1 X23.196 Y79.839 E24.17025
G1 X23.877 Y79.246 E24.21229
G1 X24.609 Y78.716 E24.25437
G1 X25.384 Y78.253 E24.29641
G1 X26.197 Y77.86 E24.33846
G1 X27.042 Y77.54 E24.38053
G0 F6000 X26.9 Y77.166
G1 F1200 X27.837 Y76.904 E24.42584
G1 X28.765 Y76.732 E24.46978
G1 X29.904 Y76.636 E24.52301
G1 X30.545 Y76.622 E24.55286
G1 X199.66 Y76.623 E32.42757
G1 X200.375 Y76.634 E32.46086
G1 X201.312 Y76.69 E32.50457
G1 X202.205 Y76.822 E32.54661
G1 X203.153 Y77.05 E32.59201
G1 X204.009 Y77.338 E32.63406
G1 X204.901 Y77.728 E32.67939
G1 X205.693 Y78.163 E32.72147
G1 X206.473 Y78.683 E32.76512
G1 X207.232 Y79.295 E32.81052
G1 X207.882 Y79.922 E32.85257
G1 X208.52 Y80.657 E32.89789
G1 X209.07 Y81.418 E32.94161
G1 X209.532 Y82.194 E32.98367
G1 X209.955 Y83.071 E33.02901
G1 X210.284 Y83.949 E33.07267
G1 X210.535 Y84.854 E33.1164
G1 X210.706 Y85.781 E33.16029
G1 X210.801 Y86.911 E33.21309
G1 X210.815 Y87.552 E33.24295
G1 X210.814 Y136.617 E35.52762
G1 X210.804 Y137.362 E35.56231
G1 X210.75 Y138.299 E35.60602
G1 X210.619 Y139.193 E35.64809
G1 X210.403 Y140.106 E35.69178
G1 X210.095 Y141.03 E35.73713
G1 X209.734 Y141.858 E35.77919
G1 X209.268 Y142.712 E35.82449
G1 X208.746 Y143.493 E35.86823
G1 X208.18 Y144.197 E35.91029
G1 X207.532 Y144.874 E35.95393
G1 X206.797 Y145.515 E35.99934
G1 X206.066 Y146.046 E36.04141
G1 X205.263 Y146.529 E36.08505
G1 X204.386 Y146.954 E36.13043
G1 X203.542 Y147.274 E36.17246
G1 X202.604 Y147.538 E36.21783
G1 X201.677 Y147.71 E36.26173
G1 X200.526 Y147.808 E36.31552
G1 X199.885 Y147.822 E36.34538
G1 X190.771 Y147.821 E36.76976
G1 X190.052 Y147.81 E36.80325
G1 X189.115 Y147.754 E36.84695
G1 X188.222 Y147.622 E36.88899
G1 X187.274 Y147.394 E36.93439
G1 X186.386 Y147.094 E36.97803
G1 X185.558 Y146.732 E37.02011
G1 X184.734 Y146.282 E37.06383
G1 X183.925 Y145.74 E37.10917
G1 X183.222 Y145.174 E37.1512
G1 X182.364 Y144.329 E37.20727
G1 X181.5 Y143.376 E37.26717
G1 X179.748 Y141.496 E37.38683
G1 X177.962 Y139.685 E37.50527
G1 X176.133 Y137.932 E37.62324
G1 X174.265 Y136.241 E37.74057
G1 X172.363 Y134.615 E37.85708
G1 X170.372 Y133.006 E37.97628
G1 X168.359 Y131.474 E38.09407
G1 X166.322 Y130.01 E38.21088
G1 X164.228 Y128.596 E38.32853
G1 X162.093 Y127.24 E38.44631
G1 X159.884 Y125.922 E38.56608
G1 X157.721 Y124.713 E38.68147
G1 X155.471 Y123.538 E38.79966
G1 X153.185 Y122.425 E38.91805
G1 X150.899 Y121.391 E39.03488
G1 X148.517 Y120.396 E39.15509
G1 X146.205 Y119.504 E39.27048
G1 X143.811 Y118.658 E39.38871
G1 X141.405 Y117.883 E39.50641
G1 X138.978 Y117.176 E39.62412
G1 X136.52 Y116.535 E39.7424
G1 X134.032 Y115.962 E39.86129
G1 X131.612 Y115.476 E39.97622
G1 X129.077 Y115.04 E40.09599
G1 X126.619 Y114.689 E40.21161
G1 X124.073 Y114.4 E40.33092
G1 X121.537 Y114.182 E40.44945
G1 X119.067 Y114.042 E40.56464
G1 X116.497 Y113.968 E40.68436
G1 X113.987 Y113.966 E40.80124
G1 X111.457 Y114.037 E40.91909
G1 X108.936 Y114.178 E41.03667
G1 X106.406 Y114.392 E41.15489
G1 X103.896 Y114.677 E41.27252
G1 X101.402 Y115.031 E41.38982
G1 X98.902 Y115.458 E41.50791
G1 X96.411 Y115.957 E41.62621
G1 X93.988 Y116.512 E41.74195
G1 X91.503 Y117.158 E41.86151
G1 X89.077 Y117.862 E41.97914
G1 X86.692 Y118.628 E42.09578
G1 X84.298 Y119.472 E42.21398
G1 X81.911 Y120.39 E42.33306
G1 X79.599 Y121.356 E42.44974
G1 X77.287 Y122.399 E42.56784
G1 X75.025 Y123.498 E42.68495
G1 X72.787 Y124.664 E42.80245
G1 X70.587 Y125.892 E42.91977
G1 X68.371 Y127.211 E43.03985
G1 X66.256 Y128.553 E43.15649
G1 X64.172 Y129.958 E43.27352
G1 X62.094 Y131.447 E43.39256
G1 X60.112 Y132.955 E43.50853
G1 X58.123 Y134.558 E43.62748
G1 X56.205 Y136.196 E43.74492
G1 X54.317 Y137.903 E43.86344
G1 X52.511 Y139.631 E43.97983
G1 X50.717 Y141.447 E44.09869
G1 X48.963 Y143.326 E44.21838
G1 X48.094 Y144.296 E44.27903
G1 X47.462 Y144.942 E44.32111
G1 X46.722 Y145.575 E44.36645
G1 X45.986 Y146.099 E44.40852
G1 X45.177 Y146.575 E44.45223
G1 X44.297 Y146.992 E44.49757
G1 X43.417 Y147.315 E44.54122
G1 X42.51 Y147.56 E44.58497
G1 X41.583 Y147.723 E44.6288
G1 X40.501 Y147.809 E44.67934
G1 X39.894 Y147.822 E44.70761
G1 X30.785 Y147.821 E45.13176
G1 X30.069 Y147.811 E45.16511
G1 X29.133 Y147.757 E45.20876
G1 X28.239 Y147.625 E45.25084
G1 X27.326 Y147.409 E45.29453
G1 X26.402 Y147.1 E45.3399
G1 X25.575 Y146.739 E45.38191
G1 X24.72 Y146.272 E45.42728
G1 X23.94 Y145.75 E45.47098
G1 X23.236 Y145.184 E45.51304
G1 X22.534 Y144.509 E45.55839
G1 X21.941 Y143.828 E45.60044
G1 X21.389 Y143.069 E45.64414
G1 X20.889 Y142.233 E45.6895
G1 X20.481 Y141.388 E45.73319
G1 X20.161 Y140.544 E45.77522
G1 X19.898 Y139.606 E45.82058
G1 X19.726 Y138.677 E45.86458
G1 X19.628 Y137.498 E45.91966
G1 X19.615 Y136.88 E45.94845
G1 X19.616 Y87.753 E48.23601
G1 X19.626 Y87.07 E48.26781
G1 X19.681 Y86.133 E48.31152
G1 X19.813 Y85.24 E48.35355
G1 X20.03 Y84.327 E48.39725
G1 X20.327 Y83.436 E48.44098
G1 X20.717 Y82.544 E48.48631
G1 X21.168 Y81.722 E48.52997
G1 X21.691 Y80.942 E48.5737
G1 X22.258 Y80.238 E48.61579
G1 X22.933 Y79.537 E48.66111
G1 X23.614 Y78.944 E48.70315
G1 X24.374 Y78.392 E48.74689
G1 X25.21 Y77.893 E48.79223
G1 X26.055 Y77.486 E48.8359
G1 X26.9 Y77.166 E48.87797
G0 F6000 X26.758 Y76.792
G1 F1200 X27.764 Y76.511 E48.92661
G1 X28.731 Y76.333 E48.9724
G1 X29.87 Y76.237 E49.02562
G1 X30.545 Y76.222 E49.05706
G1 X199.666 Y76.223 E56.93204
G1 X200.399 Y76.235 E56.96618
G1 X201.37 Y76.294 E57.01147
G1 X202.299 Y76.433 E57.05521
G1 X203.247 Y76.661 E57.10062
G1 X204.169 Y76.971 E57.14591
G1 X205.094 Y77.377 E57.19295
G1 X205.886 Y77.812 E57.23502
G1 X206.695 Y78.35 E57.28026
G1 X207.51 Y79.007 E57.32901
G1 X208.16 Y79.634 E57.37106
G1 X208.822 Y80.395 E57.41803
G1 X209.414 Y81.213 E57.46505
G1 X209.876 Y81.989 E57.5071
G1 X210.33 Y82.931 E57.55579
G1 X210.659 Y83.809 E57.59945
G1 X210.928 Y84.781 E57.64641
G1 X211.105 Y85.747 E57.69214
G1 X211.2 Y86.877 E57.74494
G1 X211.215 Y87.552 E57.77638
G1 X211.214 Y136.622 E60.06129
G1 X211.203 Y137.385 E60.09682
G1 X211.146 Y138.357 E60.14216
G1 X211.015 Y139.251 E60.18423
G1 X210.792 Y140.198 E60.22953
G1 X210.462 Y141.19 E60.27821
G1 X210.101 Y142.018 E60.32027
G1 X209.601 Y142.934 E60.36887
G1 X209.058 Y143.744 E60.41428
G1 X208.492 Y144.448 E60.45634
G1 X207.821 Y145.151 E60.50159
G1 X207.032 Y145.839 E60.55033
G1 X206.301 Y146.37 E60.59241
G1 X205.469 Y146.872 E60.63765
G1 X204.528 Y147.328 E60.68634
G1 X203.684 Y147.648 E60.72837
G1 X202.712 Y147.923 E60.77541
G1 X201.711 Y148.109 E60.82282
G1 X200.56 Y148.207 E60.87661
G1 X199.885 Y148.222 E60.90805
G1 X190.765 Y148.221 E61.33271
G1 X190.028 Y148.209 E61.36703
G1 X189.057 Y148.15 E61.41233
G1 X188.128 Y148.011 E61.45607
G1 X187.18 Y147.783 E61.50147
G1 X186.226 Y147.461 E61.54836
G1 X185.398 Y147.099 E61.59044
G1 X184.542 Y146.633 E61.63582
G1 X183.674 Y146.052 E61.68446
G1 X182.971 Y145.486 E61.72648
G1 X182.068 Y144.598 E61.78545
G1 X181.207 Y143.649 E61.84512
G1 X179.455 Y141.769 E61.96478
G1 X177.677 Y139.966 E62.08269
G1 X175.856 Y138.221 E62.20013
G1 X173.997 Y136.538 E62.3169
G1 X172.103 Y134.919 E62.43292
G1 X170.121 Y133.317 E62.55159
G1 X168.126 Y131.799 E62.66832
G1 X166.089 Y130.335 E62.78513
G1 X164.014 Y128.934 E62.90171
G1 X161.888 Y127.584 E63.01898
G1 X159.679 Y126.266 E63.13875
G1 X157.536 Y125.068 E63.25307
G1 X155.286 Y123.893 E63.37127
G1 X153.01 Y122.785 E63.48914
G1 X150.745 Y121.76 E63.60491
G1 X148.363 Y120.765 E63.72511
G1 X146.061 Y119.877 E63.84
G1 X143.688 Y119.039 E63.95718
G1 X141.282 Y118.264 E64.07488
G1 X138.87 Y117.561 E64.19187
G1 X136.43 Y116.925 E64.30928
G1 X133.942 Y116.352 E64.42817
G1 X131.537 Y115.869 E64.54239
G1 X129.02 Y115.436 E64.66131
G1 X126.562 Y115.085 E64.77693
G1 X124.039 Y114.799 E64.89516
G1 X121.503 Y114.58 E65.01369
G1 X119.055 Y114.442 E65.12786
G1 X116.485 Y114.368 E65.24758
G1 X113.998 Y114.366 E65.36339
G1 X111.468 Y114.437 E65.48124
G1 X108.97 Y114.576 E65.59774
G1 X106.44 Y114.79 E65.71596
G1 X103.952 Y115.073 E65.83256
G1 X101.458 Y115.427 E65.94986
G1 X98.981 Y115.85 E66.06687
G1 X96.5 Y116.347 E66.18469
G1 X94.077 Y116.902 E66.30044
G1 X91.604 Y117.545 E66.41942
G1 X89.199 Y118.243 E66.53603
G1 X86.814 Y119.009 E66.65267
G1 X84.442 Y119.845 E66.76978
G1 X82.055 Y120.763 E66.88886
G1 X79.763 Y121.721 E67.00454
G1 X77.462 Y122.759 E67.12208
G1 X75.2 Y123.858 E67.23918
G1 X72.972 Y125.019 E67.35616
G1 X70.792 Y126.236 E67.47242
G1 X68.576 Y127.555 E67.5925
G1 X66.48 Y128.885 E67.70809
G1 X64.396 Y130.29 E67.82513
G1 X62.327 Y131.772 E67.94363
G1 X60.354 Y133.273 E68.05907
G1 X58.383 Y134.862 E68.17696
G1 X56.465 Y136.5 E68.2944
G1 X54.594 Y138.192 E68.41187
G1 X52.788 Y139.92 E68.52825
G1 X51.002 Y141.728 E68.64659
G1 X49.261 Y143.593 E68.76539
G1 X48.38 Y144.576 E68.82686
G1 X47.748 Y145.222 E68.86894
G1 X46.954 Y145.901 E68.91759
G1 X46.189 Y146.444 E68.96127
G1 X45.38 Y146.92 E69.00498
G1 X44.435 Y147.368 E69.05367
G1 X43.555 Y147.691 E69.09732
G1 X42.579 Y147.954 E69.14439
G1 X41.615 Y148.122 E69.18996
G1 X40.533 Y148.208 E69.2405
G1 X39.894 Y148.222 E69.27026
G1 X30.779 Y148.221 E69.69469
G1 X30.046 Y148.21 E69.72883
G1 X29.075 Y148.153 E69.77412
G1 X28.181 Y148.021 E69.8162
G1 X27.199 Y147.788 E69.86319
G1 X26.242 Y147.467 E69.9102
G1 X25.415 Y147.106 E69.95221
G1 X24.528 Y146.623 E69.99924
G1 X23.689 Y146.062 E70.04624
G1 X22.985 Y145.496 E70.0883
G1 X22.232 Y144.772 E70.13694
G1 X21.639 Y144.091 E70.17899
G1 X21.046 Y143.274 E70.226
G1 X20.529 Y142.407 E70.273
G1 X20.107 Y141.53 E70.31832
G1 X19.787 Y140.686 E70.36035
G1 X19.513 Y139.714 E70.40737
G1 X19.327 Y138.71 E70.45492
G1 X19.229 Y137.531 E70.51001
G1 X19.215 Y136.88 E70.54033
G1 X19.216 Y87.747 E72.82817
G1 X19.227 Y87.047 E72.86077
G1 X19.285 Y86.075 E72.90611
G1 X19.417 Y85.182 E72.94814
G1 X19.641 Y84.235 E72.99345
G1 X19.96 Y83.276 E73.04051
G1 X20.35 Y82.384 E73.08585
G1 X20.817 Y81.53 E73.13117
G1 X21.379 Y80.691 E73.17819
G1 X21.946 Y79.987 E73.22028
G1 X22.67 Y79.235 E73.26889
G1 X23.351 Y78.642 E73.31094
G1 X24.139 Y78.068 E73.35633
G1 X25.036 Y77.533 E73.40497
G1 X25.913 Y77.112 E73.45026
G1 X26.758 Y76.792 E73.49234
G1 F2700 E68.49234
;MESH:case4-Front.stl
G0 F6000 X31.016 Y86.557
G0 X190.815 Y136.622
;TYPE:WALL-INNER
G1 F2700 E73.49234
G1 F1200 X199.615 Y136.622 E73.9021
G1 X199.615 Y87.822 E76.17443
G1 X30.816 Y87.823 E84.03442
G1 X30.815 Y136.622 E86.30671
G1 X39.615 Y136.622 E86.71647
G1 X39.615 Y98.104 E88.51003
G1 X39.726 Y97.827 E88.52393
G1 X39.972 Y97.626 E88.53872
G1 X40.131 Y97.581 E88.54642
G1 X190.299 Y97.581 E95.53887
G1 X190.458 Y97.626 E95.54656
G1 X190.704 Y97.827 E95.56135
