;FLAVOR:Marlin
;TIME:2788
;Filament used: 2.51985m
;Layer height: 0.28
;MINX:22.471
;MINY:51.654
;MINZ:0.28
;MAXX:214.471
;MAXY:102.154
;MAXZ:5.88
;Generated with Cura_SteamEngine 5.3.1
M140 S50
M105
M190 S50
M104 S200
M105
M109 S200
M82 ;absolute extrusion mode
; Ender 3 Custom Start G-code
G92 E0 ; Reset Extruder
G28 ; Home all axes
G1 Z2.0 F3000 ; Move Z Axis up little to prevent scratching of Heat Bed
G1 X0.1 Y20 Z0.3 F5000.0 ; Move to start position
G1 X0.1 Y200.0 Z0.3 F1500.0 E15 ; Draw the first line
G1 X0.4 Y200.0 Z0.3 F5000.0 ; Move to side a little
G1 X0.4 Y20 Z0.3 F1500.0 E30 ; Draw the second line
G92 E0 ; Reset Extruder
G1 Z2.0 F3000 ; Move Z Axis up little to prevent scratching of Heat Bed
G1 X5 Y20 Z0.3 F5000.0 ; Move over to prevent blob squish
G92 E0
G92 E0
G1 F2700 E-5
;LAYER_COUNT:21
;LAYER:0
M107
G0 F6000 X28.64 Y53.685 Z0.28
;TYPE:SKIRT
G1 F2700 E0
G1 F1200 X29.453 Y53.292 E0.04205
G1 X30.298 Y52.972 E0.08412
G1 X31.167 Y52.729 E0.12614
G1 X32.055 Y52.563 E0.1682
G1 X33.194 Y52.467 E0.22143
G1 X33.801 Y52.454 E0.2497
G1 X202.91 Y52.455 E8.12412
G1 X203.608 Y52.465 E8.15663
G1 X204.51 Y52.518 E8.1987
G1 X205.403 Y52.65 E8.24073
G1 X206.281 Y52.861 E8.28278
G1 X207.137 Y53.149 E8.32484
G1 X207.964 Y53.511 E8.36687
G1 X208.756 Y53.946 E8.40895
G1 X209.507 Y54.448 E8.45101
G1 X210.21 Y55.015 E8.49307
G1 X210.86 Y55.642 E8.53512
G1 X211.452 Y56.324 E8.57717
G1 X211.982 Y57.055 E8.61921
G1 X212.444 Y57.831 E8.66127
G1 X212.837 Y58.644 E8.70331
G1 X213.155 Y59.489 E8.74536
G1 X213.398 Y60.359 E8.78742
G1 X213.563 Y61.247 E8.82947
G1 X213.658 Y62.377 E8.88228
G1 X213.671 Y62.984 E8.91055
G1 X213.67 Y90.544 E10.19386
G1 X213.661 Y91.271 E10.22771
G1 X213.61 Y92.173 E10.26978
G1 X213.479 Y93.067 E10.31185
G1 X213.27 Y93.945 E10.35388
G1 X212.984 Y94.802 E10.39595
G1 X212.623 Y95.63 E10.43801
G1 X212.191 Y96.422 E10.48002
G1 X211.69 Y97.174 E10.52209
G1 X211.124 Y97.878 E10.56415
G1 X210.499 Y98.529 E10.60618
G1 X209.818 Y99.123 E10.64825
G1 X209.087 Y99.654 E10.69032
G1 X208.313 Y100.118 E10.73235
G1 X207.5 Y100.512 E10.77441
G1 X206.656 Y100.832 E10.81644
G1 X205.786 Y101.077 E10.85853
G1 X204.899 Y101.243 E10.90055
G1 X203.748 Y101.341 E10.95434
G1 X203.141 Y101.354 E10.98261
G1 X34.046 Y101.353 E18.85638
G1 X33.348 Y101.344 E18.88889
G1 X32.447 Y101.293 E18.93091
G1 X31.553 Y101.161 E18.97299
G1 X30.675 Y100.952 E19.01501
G1 X29.818 Y100.665 E19.0571
G1 X28.991 Y100.304 E19.09911
G1 X28.198 Y99.871 E19.14119
G1 X27.447 Y99.37 E19.18322
G1 X26.743 Y98.804 E19.22528
G1 X26.092 Y98.178 E19.26734
G1 X25.499 Y97.497 E19.30939
G1 X24.969 Y96.766 E19.35143
G1 X24.505 Y95.991 E19.39349
G1 X24.111 Y95.178 E19.43556
G1 X23.791 Y94.334 E19.47759
G1 X23.547 Y93.464 E19.51966
G1 X23.381 Y92.576 E19.56173
G1 X23.284 Y91.421 E19.6157
G1 X23.271 Y90.812 E19.64406
G1 X23.272 Y63.19 E20.93026
G1 X23.281 Y62.525 E20.96123
G1 X23.333 Y61.623 E21.0033
G1 X23.465 Y60.73 E21.04533
G1 X23.675 Y59.852 E21.08737
G1 X23.962 Y58.995 E21.12945
G1 X24.324 Y58.168 E21.17149
G1 X24.757 Y57.376 E21.21352
G1 X25.259 Y56.625 E21.25558
G1 X25.826 Y55.921 E21.29767
G1 X26.452 Y55.271 E21.33969
G1 X27.133 Y54.678 E21.38174
G1 X27.865 Y54.148 E21.42382
G1 X28.64 Y53.685 E21.46586
G0 F6000 X28.466 Y53.325
G1 F1200 X29.311 Y52.918 E21.50953
G1 X30.156 Y52.598 E21.55161
G1 X31.093 Y52.336 E21.59691
G1 X32.021 Y52.164 E21.64086
G1 X33.16 Y52.068 E21.69408
G1 X33.801 Y52.054 E21.72394
G1 X202.916 Y52.055 E29.59864
G1 X203.631 Y52.066 E29.63194
G1 X204.568 Y52.122 E29.67565
G1 X205.461 Y52.254 E29.71768
G1 X206.409 Y52.482 E29.76308
G1 X207.265 Y52.77 E29.80513
G1 X208.157 Y53.16 E29.85047
G1 X208.949 Y53.595 E29.89254
G1 X209.729 Y54.115 E29.93619
G1 X210.488 Y54.727 E29.98159
G1 X211.138 Y55.354 E30.02365
G1 X211.776 Y56.089 E30.06897
G1 X212.326 Y56.85 E30.11269
G1 X212.788 Y57.626 E30.15474
G1 X213.211 Y58.503 E30.20008
G1 X213.54 Y59.381 E30.24374
G1 X213.791 Y60.286 E30.28747
G1 X213.962 Y61.213 E30.33136
G1 X214.057 Y62.343 E30.38417
G1 X214.071 Y62.984 E30.41402
G1 X214.07 Y90.549 E31.69756
G1 X214.06 Y91.294 E31.73226
G1 X214.006 Y92.231 E31.77596
G1 X213.875 Y93.125 E31.81803
G1 X213.659 Y94.038 E31.86172
G1 X213.351 Y94.962 E31.90707
G1 X212.99 Y95.79 E31.94913
G1 X212.524 Y96.644 E31.99443
G1 X212.002 Y97.425 E32.03817
G1 X211.436 Y98.129 E32.08024
G1 X210.788 Y98.806 E32.12387
G1 X210.053 Y99.447 E32.16929
G1 X209.322 Y99.978 E32.21136
G1 X208.519 Y100.461 E32.25499
G1 X207.642 Y100.886 E32.30037
G1 X206.798 Y101.206 E32.3424
G1 X205.86 Y101.47 E32.38777
G1 X204.933 Y101.642 E32.43168
G1 X203.782 Y101.74 E32.48546
G1 X203.15 Y101.754 E32.5149
G1 X34.041 Y101.753 E40.38932
G1 X33.325 Y101.743 E40.42267
G1 X32.389 Y101.689 E40.46632
G1 X31.495 Y101.557 E40.5084
G1 X30.582 Y101.341 E40.55209
G1 X29.658 Y101.032 E40.59746
G1 X28.831 Y100.671 E40.63947
G1 X27.976 Y100.204 E40.68484
G1 X27.196 Y99.682 E40.72854
G1 X26.492 Y99.116 E40.7706
G1 X25.79 Y98.441 E40.81595
G1 X25.197 Y97.76 E40.858
G1 X24.645 Y97.001 E40.9017
G1 X24.145 Y96.165 E40.94706
G1 X23.737 Y95.32 E40.99075
G1 X23.417 Y94.476 E41.03278
G1 X23.154 Y93.538 E41.07814
G1 X22.982 Y92.609 E41.12214
G1 X22.884 Y91.43 E41.17722
G1 X22.871 Y90.812 E41.20601
G1 X22.872 Y63.185 E42.49244
G1 X22.882 Y62.502 E42.52424
G1 X22.937 Y61.565 E42.56795
G1 X23.069 Y60.672 E42.60998
G1 X23.286 Y59.759 E42.65368
G1 X23.583 Y58.868 E42.69741
G1 X23.973 Y57.976 E42.74275
G1 X24.424 Y57.154 E42.7864
G1 X24.947 Y56.374 E42.83013
G1 X25.514 Y55.67 E42.87222
G1 X26.189 Y54.969 E42.91754
G1 X26.87 Y54.376 E42.95959
G1 X27.63 Y53.824 E43.00332
G1 X28.466 Y53.325 E43.04866
G0 F6000 X28.292 Y52.965
G1 F1200 X29.169 Y52.544 E43.09396
G1 X30.014 Y52.224 E43.13603
G1 X31.02 Y51.943 E43.18467
G1 X31.987 Y51.765 E43.23045
G1 X33.126 Y51.669 E43.28368
G1 X33.801 Y51.654 E43.31511
G1 X202.922 Y51.655 E51.1901
G1 X203.655 Y51.667 E51.22423
G1 X204.626 Y51.726 E51.26953
G1 X205.555 Y51.865 E51.31327
G1 X206.503 Y52.093 E51.35867
G1 X207.425 Y52.403 E51.40396
G1 X208.35 Y52.809 E51.451
G1 X209.142 Y53.244 E51.49308
G1 X209.951 Y53.782 E51.53832
G1 X210.766 Y54.439 E51.58706
G1 X211.416 Y55.066 E51.62912
G1 X212.078 Y55.827 E51.67608
G1 X212.67 Y56.645 E51.7231
G1 X213.132 Y57.421 E51.76515
G1 X213.586 Y58.363 E51.81385
G1 X213.915 Y59.241 E51.85751
G1 X214.184 Y60.213 E51.90447
G1 X214.361 Y61.179 E51.9502
G1 X214.456 Y62.309 E52.003
G1 X214.471 Y62.984 E52.03444
G1 X214.47 Y90.554 E53.31821
G1 X214.459 Y91.317 E53.35375
G1 X214.402 Y92.289 E53.39908
G1 X214.271 Y93.183 E53.44116
G1 X214.048 Y94.13 E53.48646
G1 X213.718 Y95.122 E53.53514
G1 X213.357 Y95.95 E53.5772
G1 X212.857 Y96.866 E53.62579
G1 X212.314 Y97.676 E53.6712
G1 X211.748 Y98.38 E53.71326
G1 X211.077 Y99.083 E53.75852
G1 X210.288 Y99.771 E53.80726
G1 X209.557 Y100.302 E53.84933
G1 X208.725 Y100.804 E53.89458
G1 X207.784 Y101.26 E53.94327
G1 X206.94 Y101.58 E53.9853
G1 X205.968 Y101.855 E54.03234
G1 X204.967 Y102.041 E54.07974
G1 X203.816 Y102.139 E54.13353
G1 X203.159 Y102.154 E54.16413
G1 X34.035 Y102.153 E62.03926
G1 X33.302 Y102.142 E62.07339
G1 X32.331 Y102.085 E62.11868
G1 X31.437 Y101.953 E62.16076
G1 X30.455 Y101.72 E62.20776
G1 X29.498 Y101.399 E62.25476
G1 X28.671 Y101.038 E62.29678
G1 X27.784 Y100.555 E62.34381
G1 X26.945 Y99.994 E62.3908
G1 X26.241 Y99.428 E62.43287
G1 X25.488 Y98.704 E62.48151
G1 X24.895 Y98.023 E62.52355
G1 X24.302 Y97.206 E62.57056
G1 X23.785 Y96.339 E62.61757
G1 X23.363 Y95.462 E62.66288
G1 X23.043 Y94.618 E62.70491
G1 X22.769 Y93.646 E62.75194
G1 X22.583 Y92.642 E62.79948
G1 X22.485 Y91.463 E62.85457
G1 X22.471 Y90.812 E62.88489
G1 X22.472 Y63.179 E64.1716
G1 X22.483 Y62.479 E64.2042
G1 X22.541 Y61.507 E64.24954
G1 X22.673 Y60.614 E64.29157
G1 X22.897 Y59.667 E64.33689
G1 X23.216 Y58.708 E64.38395
G1 X23.606 Y57.816 E64.42928
G1 X24.073 Y56.962 E64.4746
G1 X24.635 Y56.123 E64.52163
G1 X25.202 Y55.419 E64.56372
G1 X25.926 Y54.667 E64.61232
G1 X26.607 Y54.074 E64.65437
G1 X27.395 Y53.5 E64.69977
G1 X28.292 Y52.965 E64.7484
G1 F2700 E59.7484
;MESH:case4-Back.stl
G0 F6000 X38.846 Y61.989
G0 X49.952 Y74.515
;TYPE:WALL-INNER
G1 F2700 E64.7484
G1 F1200 X49.754 Y74.684 E64.76052
G1 X49.53 Y74.754 E64.77145
G1 X39.391 Y74.749 E65.24356
G1 X39.207 Y74.694 E65.25251
G1 X39.018 Y74.549 E65.2636
G1 X38.871 Y74.268 E65.27836
G1 X38.871 Y64.154 E65.74932
G1 X38.99 Y63.793 E65.76701
G1 F1269.8 X39.371 Y63.584 E65.78614
G1 F1359.8 X49.471 Y63.579 E66.20117
G1 F1280 X49.952 Y63.793 E66.22416
G1 F1200 X50.071 Y64.154 E66.24186
G1 X50.071 Y74.219 E66.71052
G1 X49.952 Y74.515 E66.72538
G1 F2700 E61.72538
G0 F6000 X49.971 Y74.515
G0 X39.394 Y74.935
G0 X34.271 Y74.935
G0 X34.071 Y90.554
G1 F2700 E66.72538
G1 F1200 X202.871 Y90.554 E74.58542
G1 X202.871 Y63.254 E75.85662
G1 X50.221 Y63.254 E82.96464
G1 F1280 X49.471 Y63.229 E82.9974
G1 F1371.4 X39.471 Y63.229 E83.40484
G1 F1280 X38.721 Y63.254 E83.43759
G1 F1200 X34.071 Y63.254 E83.65412
G1 X34.071 Y90.554 E84.92532
G1 F2700 E79.92532
G0 F6000 X165.545 Y90.354
G0 X165.545 Y86.934
G0 X165.545 Y86.754
G1 F2700 E84.92532
G1 F1200 X55.471 Y86.754 E90.05083
G1 X55.276 Y86.722 E90.06003
G1 X55.11 Y86.635 E90.06876
G1 X54.991 Y86.514 E90.07666
G1 X54.871 Y86.233 E90.09089
G1 X54.871 Y76.089 E90.56323
G1 X54.99 Y75.793 E90.57809
G1 X55.188 Y75.624 E90.59021
G1 X55.412 Y75.554 E90.60114
G1 X165.551 Y75.554 E95.72967
G1 X165.744 Y75.619 E95.73915
G1 X165.974 Y75.825 E95.75353
G1 X166.07 Y76.106 E95.76736
G1 X166.071 Y86.233 E96.23891
G1 X165.951 Y86.514 E96.25314
G1 X165.831 Y86.635 E96.26108
G1 X165.545 Y86.754 E96.2755
G1 F2700 E91.2755
G0 F6000 X165.899 Y86.582
G0 X165.893 Y85.502
G0 X166.269 Y78.002
G0 X184.69 Y77.41
G0 X185.792 Y77.905
G1 F2700 E96.2755
G1 F1200 X185.242 Y77.605 E96.30467
G1 X184.814 Y77.278 E96.32975
G1 X184.528 Y77.01 E96.348
G1 X184.203 Y76.642 E96.37087
G1 X183.876 Y76.139 E96.3988
G1 X183.605 Y75.544 E96.42925
G1 X183.47 Y75.05 E96.45309
G1 X183.382 Y74.561 E96.47623
G1 X183.373 Y74.022 E96.50133
G1 X183.408 Y73.556 E96.52309
G1 X183.53 Y73.025 E96.54846
G1 X183.643 Y72.686 E96.5651
G1 X183.802 Y72.324 E96.58351
G1 X184.01 Y71.956 E96.60319
G1 X184.273 Y71.588 E96.62425
G1 X184.499 Y71.329 E96.64026
G1 X184.857 Y70.995 E96.66306
G1 X185.236 Y70.707 E96.68522
G1 X185.773 Y70.413 E96.71373
G1 X186.285 Y70.229 E96.73906
G1 X186.676 Y70.132 E96.75782
G1 X187.074 Y70.074 E96.77655
G1 X187.552 Y70.046 E96.79885
G1 X188.027 Y70.093 E96.82107
G1 X188.46 Y70.176 E96.8416
G1 X188.9 Y70.311 E96.86303
G1 X189.274 Y70.472 E96.88199
G1 X189.725 Y70.725 E96.90607
G1 X190.078 Y70.989 E96.9266
G1 X190.446 Y71.327 E96.94986
G1 X190.771 Y71.722 E96.97368
G1 X191.079 Y72.194 E96.99993
G1 X191.269 Y72.608 E97.02114
G1 X191.428 Y73.08 E97.04433
G1 X191.512 Y73.455 E97.06222
G1 X191.559 Y73.83 E97.07982
G1 X191.571 Y74.244 E97.09911
G1 X191.531 Y74.778 E97.12404
G1 X191.393 Y75.372 E97.15244
G1 X191.196 Y75.87 E97.17738
G1 X190.955 Y76.323 E97.20127
G1 X190.666 Y76.724 E97.22428
G1 X190.387 Y77.036 E97.24377
G1 X190.124 Y77.281 E97.26051
G1 X189.739 Y77.576 E97.2831
G1 X189.164 Y77.897 E97.31376
G1 X188.668 Y78.076 E97.33831
G1 X188.244 Y78.183 E97.35868
G1 X187.78 Y78.25 E97.38051
G1 X187.233 Y78.248 E97.40598
G1 X186.774 Y78.203 E97.42745
G1 X186.253 Y78.069 E97.4525
G1 X185.792 Y77.905 E97.47528
G0 F6000 X185.968 Y77.543
;TYPE:WALL-OUTER
G1 F1200 X185.448 Y77.259 E97.50287
G1 X185.085 Y76.984 E97.52408
G1 X184.841 Y76.759 E97.53953
G1 X184.522 Y76.4 E97.5619
G1 X184.221 Y75.936 E97.58765
G1 X183.981 Y75.408 E97.61466
G1 X183.864 Y74.978 E97.63541
G1 X183.78 Y74.522 E97.657
G1 X183.772 Y74.051 E97.67893
G1 X183.804 Y73.609 E97.69957
G1 X183.91 Y73.151 E97.72146
G1 X184.03 Y72.794 E97.739
G1 X184.176 Y72.47 E97.75554
G1 X184.357 Y72.155 E97.77246
G1 X184.563 Y71.866 E97.78899
G1 X184.815 Y71.577 E97.80684
G1 X185.083 Y71.327 E97.82391
G1 X185.467 Y71.037 E97.84631
G1 X185.925 Y70.786 E97.87063
G1 X186.385 Y70.617 E97.89345
G1 X186.731 Y70.528 E97.91009
G1 X187.097 Y70.474 E97.92731
G1 X187.561 Y70.449 E97.94895
G1 X187.988 Y70.491 E97.96893
G1 X188.402 Y70.573 E97.98858
G1 X188.725 Y70.672 E98.00431
G1 X189.064 Y70.814 E98.02143
G1 X189.485 Y71.045 E98.04379
G1 X189.855 Y71.323 E98.06534
G1 X190.174 Y71.62 E98.08563
G1 X190.471 Y71.988 E98.10765
G1 X190.707 Y72.348 E98.1277
G1 X190.913 Y72.795 E98.15062
G1 X191.038 Y73.17 E98.16902
G1 X191.115 Y73.505 E98.18503
G1 X191.162 Y73.88 E98.20263
G1 X191.171 Y74.244 E98.21958
G1 X191.137 Y74.709 E98.24129
G1 X191.006 Y75.263 E98.2678
G1 X190.849 Y75.667 E98.28798
G1 X190.629 Y76.091 E98.31022
G1 X190.366 Y76.46 E98.33132
G1 X190.129 Y76.729 E98.34802
G1 X189.855 Y76.985 E98.36548
G1 X189.497 Y77.257 E98.38641
G1 X188.985 Y77.536 E98.41356
G1 X188.588 Y77.682 E98.43326
G1 X188.175 Y77.789 E98.45313
G1 X187.765 Y77.848 E98.47242
G1 X187.272 Y77.85 E98.49537
G1 X186.855 Y77.809 E98.51488
G1 X186.387 Y77.692 E98.53734
G1 X185.968 Y77.543 E98.55805
G1 F2700 E93.55805
G0 F6000 X185.799 Y78.014
G0 X184.69 Y77.41
G0 X166.269 Y77.413
G0 X55.273 Y76.122
G1 F2700 E98.55805
G1 F1200 X55.31 Y76.033 E98.56254
G1 X55.442 Y75.956 E98.56966
G1 X165.506 Y75.956 E103.6947
G1 X165.599 Y75.999 E103.69947
G1 X165.669 Y76.122 E103.70606
G1 X165.668 Y86.191 E104.17491
G1 X165.591 Y86.315 E104.18171
G1 X165.506 Y86.352 E104.18603
G1 X55.425 Y86.354 E109.31186
G1 X55.311 Y86.274 E109.31834
G1 X55.274 Y86.191 E109.32257
G1 X55.273 Y76.122 E109.79143
G1 F2700 E104.79143
G0 F6000 X54.971 Y76.122
G0 X54.729 Y75.907
G0 X50.213 Y74.401
G0 X49.632 Y74.275
G1 F2700 E109.79143
G1 F1200 X49.5 Y74.352 E109.79855
G1 X39.425 Y74.353 E110.26768
G1 X39.351 Y74.314 E110.27157
G1 X39.273 Y74.189 E110.27844
G1 X39.271 Y64.154 E110.74571
G1 X39.31 Y64.033 E110.75163
G1 X39.436 Y63.956 E110.7585
G1 X49.471 Y63.954 E111.22577
G1 X49.632 Y64.033 E111.23413
G1 X49.671 Y64.154 E111.24004
G1 X49.669 Y74.186 E111.70718
G1 X49.632 Y74.275 E111.71166
G1 F2700 E106.71166
G0 F6000 X49.971 Y74.275
G0 X49.899 Y74.582
G0 X39.394 Y74.935
G0 X34.271 Y74.935
G0 X33.671 Y90.954
G1 F2700 E111.71166
G1 F1200 X203.271 Y90.954 E119.60895
G1 X203.271 Y62.854 E120.91741
G1 X33.671 Y62.854 E128.81469
G1 X33.671 Y90.954 E130.12315
G1 F2700 E125.12315
G0 F6000 X33.941 Y90.684
G0 X185.747 Y90.354
G0 X186.741 Y78.381
G0 X185.621 Y78.225
;TYPE:SKIN
G1 F2700 E130.12315
G1 F1200 X186.132 Y78.408 E130.14842
G1 X186.725 Y78.56 E130.17692
G1 X187.193 Y78.607 E130.19883
G1 X187.815 Y78.608 E130.22779
G1 X188.315 Y78.537 E130.2513
G1 X188.824 Y78.404 E130.2758
G1 X189.329 Y78.217 E130.30088
G1 X189.888 Y77.912 E130.33053
G1 X190.369 Y77.546 E130.35867
G1 X190.701 Y77.228 E130.38008
G1 X190.998 Y76.886 E130.40117
G1 X191.281 Y76.487 E130.42395
G1 X191.525 Y76.015 E130.44869
G1 X191.734 Y75.493 E130.47487
G1 X191.887 Y74.841 E130.50606
G1 X191.931 Y74.258 E130.53328
G1 X191.916 Y73.781 E130.5555
G1 X191.856 Y73.323 E130.57701
G1 X191.779 Y72.994 E130.59275
G1 X191.629 Y72.541 E130.61497
G1 X191.375 Y71.98 E130.64364
G1 X191.11 Y71.573 E130.66626
G1 X190.751 Y71.12 E130.69317
G1 X190.374 Y70.768 E130.71719
G1 X189.875 Y70.388 E130.74639
G1 X189.442 Y70.154 E130.76931
G1 X189.033 Y69.975 E130.7901
G1 X188.633 Y69.847 E130.80966
G1 X188.136 Y69.745 E130.83328
G1 X187.558 Y69.69 E130.86032
G1 X186.984 Y69.722 E130.88709
G1 X186.555 Y69.787 E130.90729
G1 X186.116 Y69.907 E130.92848
G1 X185.611 Y70.092 E130.95352
G1 X185.025 Y70.414 E130.98466
G1 X184.575 Y70.761 E131.01112
G1 X184.239 Y71.079 E131.03266
G1 X183.955 Y71.408 E131.0529
G1 X183.739 Y71.711 E131.07023
G1 X183.483 Y72.157 E131.09417
G1 X183.304 Y72.566 E131.11496
G1 X183.19 Y72.905 E131.13161
G1 X183.05 Y73.508 E131.16044
G1 X183.012 Y74.031 E131.18486
G1 X183.022 Y74.597 E131.21122
G1 X183.117 Y75.121 E131.23601
G1 X183.266 Y75.668 E131.26241
G1 X183.563 Y76.317 E131.29565
G1 X183.921 Y76.867 E131.3262
G1 X184.247 Y77.24 E131.34927
G1 X184.581 Y77.553 E131.37059
G1 X185.06 Y77.917 E131.3986
G1 X185.621 Y78.225 E131.4284
G1 F2700 E126.4284
G0 F6000 X185.747 Y77.996
G0 X184.69 Y77.41
G0 X165.871 Y77.41
G0 X166.047 Y86.929
G1 F2700 E131.4284
