;FLAVOR:Marlin
;TIME:25167
;Filament used: 22.4999m
;Layer height: 0.28
;MINX:31.25
;MINY:20.349
;MINZ:0.28
;MAXX:203.75
;MAXY:214.652
;MAXZ:19.88
;Generated with Cura_SteamEngine 5.3.1
M140 S50
M105
M190 S50
M104 S200
M105
M109 S200
M82 ;absolute extrusion mode
; Ender 3 Custom Start G-code
G92 E0 ; Reset Extruder
G28 ; Home all axes
G1 Z2.0 F3000 ; Move Z Axis up little to prevent scratching of Heat Bed
G1 X0.1 Y20 Z0.3 F5000.0 ; Move to start position
G1 X0.1 Y200.0 Z0.3 F1500.0 E15 ; Draw the first line
G1 X0.4 Y200.0 Z0.3 F5000.0 ; Move to side a little
G1 X0.4 Y20 Z0.3 F1500.0 E30 ; Draw the second line
G92 E0 ; Reset Extruder
G1 Z2.0 F3000 ; Move Z Axis up little to prevent scratching of Heat Bed
G1 X5 Y20 Z0.3 F5000.0 ; Move over to prevent blob squish
G92 E0
G92 E0
G1 F2700 E-5
;LAYER_COUNT:71
;LAYER:0
M107
G0 F6000 X34.038 Y25.322 Z0.28
;TYPE:SKIRT
G1 F2700 E0
G1 F1200 X34.604 Y24.618 E0.04206
G1 X35.23 Y23.967 E0.08412
G1 X35.912 Y23.375 E0.12617
G1 X36.643 Y22.844 E0.16824
G1 X37.418 Y22.381 E0.21028
G1 X38.231 Y21.988 E0.25232
G1 X39.076 Y21.668 E0.2944
G1 X39.945 Y21.425 E0.33641
G1 X40.833 Y21.259 E0.37848
G1 X41.97 Y21.163 E0.43161
G1 X42.577 Y21.15 E0.45988
G1 X192.042 Y21.149 E7.4196
G1 X192.887 Y21.16 E7.45895
G1 X193.788 Y21.213 E7.50098
G1 X194.682 Y21.345 E7.54306
G1 X195.56 Y21.556 E7.5851
G1 X196.416 Y21.844 E7.62716
G1 X197.243 Y22.206 E7.66919
G1 X198.035 Y22.64 E7.71125
G1 X198.786 Y23.143 E7.75333
G1 X199.489 Y23.71 E7.79539
G1 X200.139 Y24.337 E7.83744
G1 X200.731 Y25.019 E7.8795
G1 X201.26 Y25.75 E7.92151
G1 X201.723 Y26.526 E7.96359
G1 X202.115 Y27.339 E8.00562
G1 X202.434 Y28.184 E8.04767
G1 X202.677 Y29.054 E8.08973
G1 X202.842 Y29.942 E8.13179
G1 X202.937 Y31.071 E8.18455
G1 X202.95 Y31.678 E8.21282
G1 X202.949 Y203.056 E16.1929
G1 X202.939 Y203.783 E16.22675
G1 X202.887 Y204.685 E16.26882
G1 X202.755 Y205.578 E16.31086
G1 X202.544 Y206.457 E16.35295
G1 X202.257 Y207.313 E16.39499
G1 X201.895 Y208.14 E16.43702
G1 X201.461 Y208.932 E16.47908
G1 X200.959 Y209.683 E16.52114
G1 X200.393 Y210.386 E16.56317
G1 X199.766 Y211.037 E16.60525
G1 X199.085 Y211.629 E16.64727
G1 X198.354 Y212.159 E16.68931
G1 X197.578 Y212.622 E16.73139
G1 X196.765 Y213.015 E16.77344
G1 X195.92 Y213.335 E16.81551
G1 X195.051 Y213.578 E16.85753
G1 X194.163 Y213.743 E16.89958
G1 X193.02 Y213.839 E16.95299
G1 X192.412 Y213.852 E16.98131
G1 X42.822 Y213.852 E23.94685
G1 X42.128 Y213.843 E23.97917
G1 X41.226 Y213.791 E24.02124
G1 X40.333 Y213.66 E24.06326
G1 X39.454 Y213.45 E24.10535
G1 X38.598 Y213.164 E24.14737
G1 X37.77 Y212.803 E24.18943
G1 X36.978 Y212.37 E24.23146
G1 X36.226 Y211.868 E24.27356
G1 X35.523 Y211.302 E24.31559
G1 X34.872 Y210.676 E24.35764
G1 X34.279 Y209.995 E24.39969
G1 X33.748 Y209.264 E24.44176
G1 X33.284 Y208.489 E24.48382
G1 X32.891 Y207.676 E24.52587
G1 X32.571 Y206.832 E24.5679
G1 X32.327 Y205.962 E24.60997
G1 X32.161 Y205.075 E24.65199
G1 X32.065 Y203.95 E24.70457
G1 X32.05 Y203.311 E24.73433
G1 X32.051 Y31.892 E32.71632
G1 X32.06 Y31.222 E32.74752
G1 X32.112 Y30.32 E32.78959
G1 X32.244 Y29.427 E32.83162
G1 X32.454 Y28.549 E32.87366
G1 X32.741 Y27.692 E32.91574
G1 X33.102 Y26.865 E32.95776
G1 X33.536 Y26.072 E32.99986
G1 X34.038 Y25.322 E33.04188
G0 F6000 X33.726 Y25.071
G1 F1200 X34.292 Y24.367 E33.08394
G1 X34.968 Y23.665 E33.12932
G1 X35.677 Y23.051 E33.17299
G1 X36.408 Y22.52 E33.21507
G1 X37.244 Y22.021 E33.2604
G1 X38.089 Y21.614 E33.30407
G1 X38.934 Y21.294 E33.34615
G1 X39.871 Y21.032 E33.39145
G1 X40.799 Y20.86 E33.4354
G1 X41.936 Y20.764 E33.48853
G1 X42.577 Y20.75 E33.51839
G1 X192.047 Y20.749 E40.47833
G1 X192.91 Y20.761 E40.51852
G1 X193.846 Y20.817 E40.56219
G1 X194.74 Y20.949 E40.60427
G1 X195.688 Y21.177 E40.64967
G1 X196.544 Y21.465 E40.69172
G1 X197.435 Y21.855 E40.73701
G1 X198.227 Y22.289 E40.77906
G1 X199.009 Y22.811 E40.82284
G1 X199.767 Y23.422 E40.86818
G1 X200.417 Y24.049 E40.91023
G1 X201.055 Y24.784 E40.95555
G1 X201.604 Y25.545 E40.99925
G1 X202.067 Y26.321 E41.04132
G1 X202.475 Y27.165 E41.08497
G1 X202.819 Y28.076 E41.13032
G1 X203.07 Y28.981 E41.17405
G1 X203.241 Y29.908 E41.21794
G1 X203.336 Y31.037 E41.2707
G1 X203.35 Y31.678 E41.30055
G1 X203.349 Y203.062 E49.28091
G1 X203.338 Y203.806 E49.31556
G1 X203.283 Y204.743 E49.35926
G1 X203.151 Y205.636 E49.4013
G1 X202.933 Y206.55 E49.44505
G1 X202.636 Y207.44 E49.48874
G1 X202.246 Y208.332 E49.53407
G1 X201.794 Y209.154 E49.57775
G1 X201.271 Y209.934 E49.62148
G1 X200.705 Y210.637 E49.66351
G1 X200.028 Y211.339 E49.70892
G1 X199.32 Y211.953 E49.75256
G1 X198.559 Y212.503 E49.79628
G1 X197.783 Y212.966 E49.83835
G1 X196.907 Y213.389 E49.88365
G1 X196.062 Y213.709 E49.92572
G1 X195.124 Y213.971 E49.97107
G1 X194.196 Y214.142 E50.01501
G1 X193.029 Y214.239 E50.06954
G1 X192.421 Y214.252 E50.09786
G1 X42.817 Y214.252 E57.06405
G1 X42.105 Y214.242 E57.0972
G1 X41.168 Y214.187 E57.14091
G1 X40.275 Y214.056 E57.18294
G1 X39.361 Y213.839 E57.22668
G1 X38.438 Y213.531 E57.27199
G1 X37.61 Y213.17 E57.31405
G1 X36.756 Y212.703 E57.35937
G1 X35.975 Y212.18 E57.40314
G1 X35.272 Y211.614 E57.44516
G1 X34.57 Y210.939 E57.49051
G1 X33.977 Y210.258 E57.53256
G1 X33.424 Y209.499 E57.57629
G1 X32.924 Y208.663 E57.62165
G1 X32.517 Y207.818 E57.66532
G1 X32.197 Y206.974 E57.70735
G1 X31.934 Y206.036 E57.75271
G1 X31.762 Y205.109 E57.79661
G1 X31.666 Y203.984 E57.84919
G1 X31.65 Y203.311 E57.88053
G1 X31.651 Y31.887 E65.86275
G1 X31.661 Y31.199 E65.89479
G1 X31.716 Y30.262 E65.9385
G1 X31.848 Y29.369 E65.98053
G1 X32.065 Y28.456 E66.02423
G1 X32.374 Y27.532 E66.0696
G1 X32.735 Y26.705 E66.11162
G1 X33.185 Y25.88 E66.15537
G1 X33.726 Y25.071 E66.20069
G0 F6000 X33.414 Y24.82
G1 F1200 X33.98 Y24.116 E66.24275
G1 X34.706 Y23.363 E66.29146
G1 X35.442 Y22.727 E66.33675
G1 X36.173 Y22.196 E66.37882
G1 X37.07 Y21.661 E66.42746
G1 X37.947 Y21.24 E66.47276
G1 X38.792 Y20.92 E66.51483
G1 X39.798 Y20.639 E66.56347
G1 X40.765 Y20.461 E66.60925
G1 X41.902 Y20.365 E66.66238
G1 X42.577 Y20.35 E66.69382
G1 X192.053 Y20.349 E73.65405
G1 X192.934 Y20.362 E73.69508
G1 X193.904 Y20.421 E73.74033
G1 X194.834 Y20.56 E73.78411
G1 X195.782 Y20.788 E73.82951
G1 X196.672 Y21.086 E73.87322
G1 X197.627 Y21.504 E73.92176
G1 X198.449 Y21.956 E73.96544
G1 X199.231 Y22.478 E74.00922
G1 X200.045 Y23.134 E74.0579
G1 X200.695 Y23.761 E74.09995
G1 X201.379 Y24.55 E74.14858
G1 X201.948 Y25.34 E74.19391
G1 X202.411 Y26.116 E74.23599
G1 X202.835 Y26.991 E74.28126
G1 X203.204 Y27.969 E74.32994
G1 X203.463 Y28.908 E74.37529
G1 X203.64 Y29.874 E74.42102
G1 X203.735 Y31.003 E74.47378
G1 X203.75 Y31.678 E74.50522
G1 X203.749 Y203.068 E82.48585
G1 X203.737 Y203.829 E82.52129
G1 X203.679 Y204.801 E82.56663
G1 X203.547 Y205.694 E82.60867
G1 X203.322 Y206.643 E82.65408
G1 X203.003 Y207.6 E82.70106
G1 X202.597 Y208.525 E82.74809
G1 X202.145 Y209.347 E82.79177
G1 X201.583 Y210.185 E82.83876
G1 X200.993 Y210.915 E82.88246
G1 X200.316 Y211.617 E82.92788
G1 X199.582 Y212.255 E82.97316
G1 X198.764 Y212.847 E83.02018
G1 X197.988 Y213.31 E83.06226
G1 X197.049 Y213.763 E83.1108
G1 X196.204 Y214.083 E83.15287
G1 X195.232 Y214.356 E83.19989
G1 X194.229 Y214.541 E83.24738
G1 X193.062 Y214.638 E83.30191
G1 X192.43 Y214.652 E83.33134
G1 X42.811 Y214.652 E90.29823
G1 X42.082 Y214.641 E90.33218
G1 X41.11 Y214.583 E90.37752
G1 X40.217 Y214.452 E90.41955
G1 X39.234 Y214.218 E90.4666
G1 X38.278 Y213.898 E90.51354
G1 X37.45 Y213.537 E90.5556
G1 X36.564 Y213.054 E90.60259
G1 X35.724 Y212.492 E90.64965
G1 X35.021 Y211.926 E90.69168
G1 X34.268 Y211.202 E90.74032
G1 X33.675 Y210.521 E90.78236
G1 X33.101 Y209.735 E90.82768
G1 X32.564 Y208.837 E90.8764
G1 X32.143 Y207.96 E90.9217
G1 X31.823 Y207.116 E90.96373
G1 X31.549 Y206.144 E91.01076
G1 X31.363 Y205.143 E91.05817
G1 X31.267 Y204.018 E91.11074
G1 X31.25 Y203.311 E91.14367
G1 X31.251 Y31.881 E99.12617
G1 X31.262 Y31.176 E99.159
G1 X31.32 Y30.204 E99.20434
G1 X31.452 Y29.311 E99.24638
G1 X31.686 Y28.329 E99.29338
G1 X32.007 Y27.372 E99.34038
G1 X32.368 Y26.545 E99.3824
G1 X32.852 Y25.658 E99.42945
G1 X33.414 Y24.82 E99.47644
G1 F2700 E94.47644
;MESH:case1-CaseBase.stl
G0 F6000 X58.881 Y71.176
G0 X64.559 Y81.039
;TYPE:WALL-INNER
G1 F2700 E99.47644
G1 F1200 X64.259 Y81.119 E99.49089
G1 X59.133 Y81.117 E99.72958
G1 X58.868 Y80.973 E99.74363
G1 X58.767 Y80.861 E99.75065
G1 X56.211 Y76.436 E99.9886
G1 X56.167 Y76.293 E99.99557
G1 X56.211 Y75.942 E100.01204
G1 X58.778 Y71.494 E100.25117
G1 X58.933 Y71.355 E100.26087
G1 X59.232 Y71.259 E100.27549
G1 X64.305 Y71.26 E100.51171
G1 X64.482 Y71.301 E100.52017
G1 X64.746 Y71.5 E100.53556
G1 X67.304 Y75.932 E100.77384
G1 X67.351 Y76.075 E100.78085
G1 X67.343 Y76.383 E100.7952
G1 X64.751 Y80.863 E101.03621
G1 X64.559 Y81.039 E101.04833
G1 F2700 E96.04833
G0 F6000 X64.258 Y81.3
G0 X64.258 Y84.738
G0 X64.559 Y94.699
G1 F2700 E101.04833
G1 F1200 X64.259 Y94.779 E101.06279
G1 X59.133 Y94.777 E101.30148
G1 X58.868 Y94.633 E101.31552
G1 X58.767 Y94.521 E101.32255
G1 X56.211 Y90.096 E101.5605
G1 X56.167 Y89.953 E101.56746
G1 X56.211 Y89.602 E101.58393
G1 X58.767 Y85.177 E101.82189
G1 X58.868 Y85.065 E101.82891
G1 X59.133 Y84.921 E101.84295
G1 X64.386 Y84.919 E102.08755
G1 X64.715 Y85.109 E102.10524
G1 X67.306 Y89.594 E102.34643
G1 X67.362 Y89.849 E102.35859
G1 X67.281 Y90.15 E102.3731
G1 X64.751 Y94.523 E102.60835
G1 X64.559 Y94.699 E102.62048
G1 F2700 E97.62048
G0 F6000 X67.438 Y90.242
G0 X71.024 Y88.128
G0 X76.389 Y87.869
G1 F2700 E102.62048
G1 F1200 X76.089 Y87.949 E102.63493
G1 X71.038 Y87.947 E102.87013
G1 X70.791 Y87.869 E102.88219
G1 X70.599 Y87.694 E102.89429
G1 X68.069 Y83.32 E103.12958
G1 X67.989 Y83.019 E103.14408
G1 X68.045 Y82.765 E103.15619
G1 X70.633 Y78.282 E103.39722
G1 X70.894 Y78.121 E103.4115
G1 X71.041 Y78.09 E103.4185
G1 X76.139 Y78.09 E103.65588
G1 X76.286 Y78.121 E103.66288
G1 X76.547 Y78.281 E103.67713
G1 X79.136 Y82.764 E103.91819
G1 X79.192 Y83.019 E103.93035
G1 X79.111 Y83.32 E103.94486
G1 X76.581 Y87.693 E104.18011
G1 X76.389 Y87.869 E104.19224
G1 F2700 E99.19224
G0 F6000 X76.73 Y87.796
G0 X79.711 Y89.517
G0 X88.219 Y94.699
G1 F2700 E104.19224
G1 F1200 X87.919 Y94.779 E104.2067
G1 X82.868 Y94.777 E104.44189
G1 X82.621 Y94.699 E104.45395
G1 X82.429 Y94.524 E104.46605
G1 X79.899 Y90.15 E104.70134
G1 X79.819 Y89.849 E104.71584
G1 X79.875 Y89.595 E104.72795
G1 X82.401 Y85.219 E104.96323
G1 X82.621 Y84.999 E104.97772
G1 X82.868 Y84.921 E104.98978
G1 X88.046 Y84.919 E105.23089
G1 X88.375 Y85.109 E105.24858
G1 X90.966 Y89.594 E105.48976
G1 X91.022 Y89.849 E105.50192
G1 X90.941 Y90.15 E105.51643
G1 X88.411 Y94.523 E105.75168
G1 X88.219 Y94.699 E105.76381
G1 F2700 E100.76381
G0 F6000 X90.922 Y89.849
G0 X88.695 Y85.991
G0 X87.918 Y84.738
G0 X87.918 Y81.3
G0 X88.219 Y81.039
G1 F2700 E105.76381
G1 F1200 X87.919 Y81.119 E105.77827
G1 X82.868 Y81.117 E106.01346
G1 X82.621 Y81.039 E106.02553
G1 X82.429 Y80.864 E106.03762
G1 X79.837 Y76.383 E106.27867
G1 X79.829 Y76.075 E106.29302
G1 X79.876 Y75.932 E106.30003
G1 X82.401 Y71.558 E106.5352
G1 X82.511 Y71.42 E106.54341
G1 X82.719 Y71.293 E106.55476
G1 X82.875 Y71.26 E106.56219
G1 X87.965 Y71.26 E106.7992
G1 X88.142 Y71.301 E106.80766
G1 X88.406 Y71.5 E106.82305
G1 X90.964 Y75.932 E107.06133
G1 X91.011 Y76.075 E107.06834
G1 X91.003 Y76.383 E107.08269
G1 X88.411 Y80.863 E107.3237
G1 X88.219 Y81.039 E107.33582
G1 F2700 E102.33582
G0 F6000 X88.56 Y80.966
G0 X91.541 Y82.687
G0 X100.049 Y87.869
G1 F2700 E107.33582
G1 F1200 X99.749 Y87.949 E107.35028
G1 X94.698 Y87.947 E107.58548
G1 X94.451 Y87.869 E107.59754
G1 X94.259 Y87.694 E107.60963
G1 X91.729 Y83.32 E107.84492
G1 X91.649 Y83.019 E107.85943
G1 X91.705 Y82.765 E107.87154
G1 X94.293 Y78.282 E108.11257
G1 X94.554 Y78.121 E108.12685
G1 X94.701 Y78.09 E108.13385
G1 X99.799 Y78.09 E108.37123
G1 X99.946 Y78.121 E108.37823
G1 X100.207 Y78.281 E108.39248
G1 X102.796 Y82.764 E108.63354
G1 X102.852 Y83.019 E108.6457
G1 X102.771 Y83.32 E108.66021
G1 X100.241 Y87.693 E108.89546
G1 X100.049 Y87.869 E108.90759
G1 F2700 E103.90759
G0 F6000 X102.928 Y83.412
G0 X106.514 Y81.298
G0 X111.879 Y81.039
G1 F2700 E108.90759
G1 F1200 X111.579 Y81.119 E108.92204
G1 X106.528 Y81.117 E109.15724
G1 X106.281 Y81.039 E109.1693
G1 X106.089 Y80.864 E109.1814
G1 X103.497 Y76.383 E109.42245
G1 X103.489 Y76.075 E109.43679
G1 X103.536 Y75.932 E109.4438
G1 X106.061 Y71.558 E109.67897
G1 X106.171 Y71.42 E109.68719
G1 X106.379 Y71.293 E109.69854
G1 X106.535 Y71.26 E109.70596
G1 X111.625 Y71.26 E109.94298
G1 X111.802 Y71.301 E109.95144
G1 X112.066 Y71.5 E109.96683
G1 X114.624 Y75.932 E110.20511
G1 X114.671 Y76.075 E110.21212
G1 X114.663 Y76.383 E110.22646
G1 X112.071 Y80.863 E110.46747
G1 X111.879 Y81.039 E110.4796
G1 F2700 E105.4796
G0 F6000 X111.578 Y81.3
G0 X111.578 Y84.738
G0 X111.879 Y94.699
G1 F2700 E110.4796
G1 F1200 X111.579 Y94.779 E110.49406
G1 X106.528 Y94.777 E110.72925
G1 X106.281 Y94.699 E110.74131
G1 X106.089 Y94.524 E110.75341
G1 X103.559 Y90.15 E110.9887
G1 X103.479 Y89.849 E111.0032
G1 X103.535 Y89.595 E111.01531
G1 X106.061 Y85.219 E111.25059
G1 X106.281 Y84.999 E111.26508
G1 X106.528 Y84.921 E111.27714
G1 X111.706 Y84.919 E111.51825
G1 X112.035 Y85.109 E111.53594
G1 X114.626 Y89.594 E111.77712
G1 X114.682 Y89.849 E111.78928
G1 X114.601 Y90.15 E111.80379
G1 X112.071 Y94.523 E112.03904
G1 X111.879 Y94.699 E112.05117
G1 F2700 E107.05117
G0 F6000 X114.758 Y90.242
G0 X118.344 Y88.128
G0 X123.709 Y87.869
G1 F2700 E112.05117
G1 F1200 X123.409 Y87.949 E112.06563
G1 X118.358 Y87.947 E112.30082
G1 X118.111 Y87.869 E112.31289
G1 X117.919 Y87.694 E112.32498
G1 X115.389 Y83.32 E112.56027
G1 X115.309 Y83.019 E112.57477
G1 X115.365 Y82.765 E112.58688
G1 X117.953 Y78.282 E112.82792
G1 X118.214 Y78.121 E112.8422
G1 X118.361 Y78.09 E112.84919
G1 X123.459 Y78.09 E113.08658
G1 X123.606 Y78.121 E113.09357
G1 X123.867 Y78.281 E113.10783
G1 X126.456 Y82.764 E113.34889
G1 X126.512 Y83.019 E113.36104
G1 X126.431 Y83.32 E113.37556
G1 X123.901 Y87.693 E113.61081
G1 X123.709 Y87.869 E113.62293
G1 F2700 E108.62293
G0 F6000 X126.588 Y83.412
G0 X129.6 Y80.966
G0 X129.941 Y81.039
G1 F2700 E113.62293
G1 F1200 X129.749 Y80.864 E113.63503
G1 X127.157 Y76.383 E113.87608
G1 X127.149 Y76.075 E113.89042
G1 X127.196 Y75.932 E113.89743
G1 X129.721 Y71.558 E114.13261
G1 X129.831 Y71.42 E114.14082
G1 X130.039 Y71.293 E114.15217
G1 X130.195 Y71.26 E114.1596
G1 X135.287 Y71.26 E114.3967
G1 X135.49 Y71.313 E114.40647
G1 X135.74 Y71.527 E114.42179
G1 X138.277 Y75.917 E114.65789
G1 X138.339 Y76.128 E114.66813
G1 X138.276 Y76.463 E114.684
G1 X135.733 Y80.861 E114.92056
G1 X135.632 Y80.973 E114.92759
G1 X135.364 Y81.119 E114.9418
G1 X130.188 Y81.117 E115.18281
G1 X129.941 Y81.039 E115.19487
G1 F2700 E110.19487
G0 F6000 X130.174 Y81.298
G0 X130.174 Y84.74
G0 X129.941 Y94.699
G1 F2700 E115.19487
G1 F1200 X129.749 Y94.524 E115.20697
G1 X127.219 Y90.15 E115.44226
G1 X127.139 Y89.849 E115.45676
G1 X127.195 Y89.595 E115.46887
G1 X129.721 Y85.219 E115.70415
G1 X129.941 Y84.999 E115.71864
G1 X130.188 Y84.921 E115.7307
G1 X135.364 Y84.919 E115.97171
G1 X135.632 Y85.065 E115.98592
G1 X135.733 Y85.177 E115.99295
G1 X138.282 Y89.587 E116.23013
G1 X138.341 Y89.822 E116.24141
G1 X138.276 Y90.123 E116.25575
G1 X135.733 Y94.521 E116.49231
G1 X135.632 Y94.633 E116.49933
G1 X135.364 Y94.779 E116.51354
G1 X130.188 Y94.777 E116.75456
G1 X129.941 Y94.699 E116.76662
G1 F2700 E111.76662
G0 F6000 X126.588 Y97.072
G0 X123.709 Y101.53
G1 F2700 E116.76662
G1 F1200 X123.409 Y101.61 E116.78108
G1 X118.358 Y101.608 E117.01627
G1 X118.111 Y101.53 E117.02834
G1 X117.919 Y101.355 E117.04043
G1 X115.389 Y96.98 E117.27576
G1 X115.309 Y96.679 E117.29026
G1 X115.365 Y96.425 E117.30237
G1 X117.891 Y92.049 E117.53765
G1 X118.111 Y91.829 E117.55214
G1 X118.358 Y91.751 E117.5642
G1 X123.536 Y91.749 E117.80531
G1 X123.865 Y91.939 E117.823
G1 X126.456 Y96.424 E118.06418
G1 X126.512 Y96.679 E118.07634
G1 X126.431 Y96.98 E118.09086
G1 X123.901 Y101.354 E118.32614
G1 X123.709 Y101.53 E118.33827
G1 F2700 E113.33827
G0 F6000 X127.063 Y103.903
G0 X129.941 Y108.36
G1 F2700 E118.33827
