;FLAVOR:Marlin
;TIME:9632
;Filament used: 8.96405m
;Layer height: 0.28
;MINX:79.046
;MINY:95.433
;MINZ:0.28
;MAXX:181.046
;MAXY:127.433
;MAXZ:71.96
;Generated with Cura_SteamEngine 5.3.1
M140 S50
M105
M190 S50
M104 S200
M105
M109 S200
M82 ;absolute extrusion mode
; Ender 3 Custom Start G-code
G92 E0 ; Reset Extruder
G28 ; Home all axes
G1 Z2.0 F3000 ; Move Z Axis up little to prevent scratching of Heat Bed
G1 X0.1 Y20 Z0.3 F5000.0 ; Move to start position
G1 X0.1 Y200.0 Z0.3 F1500.0 E15 ; Draw the first line
G1 X0.4 Y200.0 Z0.3 F5000.0 ; Move to side a little
G1 X0.4 Y20 Z0.3 F1500.0 E30 ; Draw the second line
G92 E0 ; Reset Extruder
G1 Z2.0 F3000 ; Move Z Axis up little to prevent scratching of Heat Bed
G1 X5 Y20 Z0.3 F5000.0 ; Move over to prevent blob squish
G92 E0
G92 E0
G1 F2700 E-5
;LAYER_COUNT:257
;LAYER:0
M107
G0 F6000 X83.708 Y98.457 Z0.28
;TYPE:SKIRT
G1 F2700 E0
G1 F1200 X84.44 Y97.927 E0.04208
G1 X85.215 Y97.464 E0.08412
G1 X86.028 Y97.071 E0.12617
G1 X86.873 Y96.751 E0.16824
G1 X87.742 Y96.508 E0.21026
G1 X88.63 Y96.342 E0.25232
G1 X89.769 Y96.246 E0.30555
G1 X90.376 Y96.233 E0.33382
G1 X169.485 Y96.234 E4.01746
G1 X170.183 Y96.244 E4.04997
G1 X171.085 Y96.297 E4.09204
G1 X171.978 Y96.429 E4.13408
G1 X172.856 Y96.64 E4.17612
G1 X173.712 Y96.928 E4.21818
G1 X174.539 Y97.29 E4.26021
G1 X175.331 Y97.725 E4.30229
G1 X176.082 Y98.227 E4.34435
G1 X176.785 Y98.794 E4.38641
G1 X177.435 Y99.421 E4.42846
G1 X178.027 Y100.103 E4.47051
G1 X178.557 Y100.834 E4.51256
G1 X179.019 Y101.61 E4.55461
G1 X179.412 Y102.423 E4.59666
G1 X179.73 Y103.268 E4.6387
G1 X179.973 Y104.138 E4.68076
G1 X180.138 Y105.026 E4.72281
G1 X180.233 Y106.156 E4.77562
G1 X180.246 Y106.763 E4.80389
G1 X180.245 Y115.823 E5.22576
G1 X180.236 Y116.55 E5.25962
G1 X180.185 Y117.452 E5.30168
G1 X180.054 Y118.346 E5.34376
G1 X179.845 Y119.224 E5.38578
G1 X179.559 Y120.081 E5.42785
G1 X179.198 Y120.909 E5.46991
G1 X178.766 Y121.701 E5.51192
G1 X178.265 Y122.453 E5.554
G1 X177.699 Y123.157 E5.59606
G1 X177.074 Y123.808 E5.63808
G1 X176.393 Y124.402 E5.68016
G1 X175.662 Y124.933 E5.72223
G1 X174.888 Y125.397 E5.76425
G1 X174.075 Y125.791 E5.80632
G1 X173.231 Y126.111 E5.84835
G1 X172.361 Y126.356 E5.89043
G1 X171.474 Y126.522 E5.93245
G1 X170.323 Y126.62 E5.98624
G1 X169.716 Y126.633 E6.01451
G1 X90.621 Y126.632 E9.69751
G1 X89.923 Y126.623 E9.73001
G1 X89.022 Y126.572 E9.77203
G1 X88.128 Y126.44 E9.81411
G1 X87.25 Y126.231 E9.85614
G1 X86.393 Y125.944 E9.89822
G1 X85.566 Y125.583 E9.94024
G1 X84.773 Y125.15 E9.98231
G1 X84.022 Y124.649 E10.02435
G1 X83.318 Y124.083 E10.06641
G1 X82.667 Y123.457 E10.10847
G1 X82.074 Y122.776 E10.15051
G1 X81.544 Y122.045 E10.19256
G1 X81.08 Y121.27 E10.23462
G1 X80.686 Y120.457 E10.27669
G1 X80.366 Y119.613 E10.31872
G1 X80.122 Y118.743 E10.36079
G1 X79.956 Y117.855 E10.40285
G1 X79.859 Y116.7 E10.45683
G1 X79.846 Y116.091 E10.48519
G1 X79.847 Y106.969 E10.90995
G1 X79.856 Y106.304 E10.94092
G1 X79.908 Y105.402 E10.98299
G1 X80.04 Y104.509 E11.02502
G1 X80.25 Y103.631 E11.06706
G1 X80.537 Y102.774 E11.10914
G1 X80.899 Y101.947 E11.15118
G1 X81.332 Y101.155 E11.19321
G1 X81.834 Y100.404 E11.23527
G1 X82.401 Y99.7 E11.27736
G1 X83.027 Y99.05 E11.31938
G1 X83.708 Y98.457 E11.36143
G0 F6000 X83.445 Y98.155
G1 F1200 X84.205 Y97.603 E11.40517
G1 X85.041 Y97.104 E11.4505
G1 X85.886 Y96.697 E11.49418
G1 X86.731 Y96.377 E11.53625
G1 X87.668 Y96.115 E11.58155
G1 X88.596 Y95.943 E11.6255
G1 X89.735 Y95.847 E11.67873
G1 X90.376 Y95.833 E11.70858
G1 X169.491 Y95.834 E15.39251
G1 X170.206 Y95.845 E15.4258
G1 X171.143 Y95.901 E15.46951
G1 X172.036 Y96.033 E15.51155
G1 X172.984 Y96.261 E15.55695
G1 X173.84 Y96.549 E15.599
G1 X174.732 Y96.939 E15.64433
G1 X175.524 Y97.374 E15.68641
G1 X176.304 Y97.894 E15.73006
G1 X177.063 Y98.506 E15.77546
G1 X177.713 Y99.133 E15.81751
G1 X178.351 Y99.868 E15.86283
G1 X178.901 Y100.629 E15.90655
G1 X179.363 Y101.405 E15.94861
G1 X179.786 Y102.282 E15.99395
G1 X180.115 Y103.16 E16.03761
G1 X180.366 Y104.065 E16.08134
G1 X180.537 Y104.992 E16.12523
G1 X180.632 Y106.122 E16.17803
G1 X180.646 Y106.763 E16.20789
G1 X180.645 Y115.828 E16.62999
G1 X180.635 Y116.573 E16.66469
G1 X180.581 Y117.51 E16.70839
G1 X180.45 Y118.404 E16.75046
G1 X180.234 Y119.317 E16.79415
G1 X179.926 Y120.241 E16.8395
G1 X179.565 Y121.069 E16.88156
G1 X179.099 Y121.923 E16.92686
G1 X178.577 Y122.704 E16.9706
G1 X178.011 Y123.408 E17.01267
G1 X177.363 Y124.085 E17.0563
G1 X176.628 Y124.726 E17.10171
G1 X175.897 Y125.257 E17.14379
G1 X175.094 Y125.74 E17.18742
G1 X174.217 Y126.165 E17.2328
G1 X173.373 Y126.485 E17.27483
G1 X172.435 Y126.749 E17.3202
G1 X171.508 Y126.921 E17.3641
G1 X170.357 Y127.019 E17.41789
G1 X169.725 Y127.033 E17.44733
G1 X90.616 Y127.032 E21.13098
G1 X89.9 Y127.022 E21.16432
G1 X88.964 Y126.968 E21.20798
G1 X88.07 Y126.836 E21.25006
G1 X87.157 Y126.62 E21.29374
G1 X86.233 Y126.311 E21.33911
G1 X85.406 Y125.95 E21.38113
G1 X84.551 Y125.483 E21.42649
G1 X83.771 Y124.961 E21.47019
G1 X83.067 Y124.395 E21.51226
G1 X82.365 Y123.72 E21.5576
G1 X81.772 Y123.039 E21.59965
G1 X81.22 Y122.28 E21.64335
G1 X80.72 Y121.444 E21.68871
G1 X80.312 Y120.599 E21.7324
G1 X79.992 Y119.755 E21.77443
G1 X79.729 Y118.817 E21.8198
G1 X79.557 Y117.888 E21.86379
G1 X79.459 Y116.709 E21.91888
G1 X79.446 Y116.091 E21.94766
G1 X79.447 Y106.964 E22.37265
G1 X79.457 Y106.281 E22.40446
G1 X79.512 Y105.344 E22.44816
G1 X79.644 Y104.451 E22.4902
G1 X79.861 Y103.538 E22.5339
G1 X80.158 Y102.647 E22.57763
G1 X80.548 Y101.755 E22.62296
G1 X80.999 Y100.933 E22.66662
G1 X81.522 Y100.153 E22.71035
G1 X82.089 Y99.449 E22.75244
G1 X82.764 Y98.748 E22.79775
G1 X83.445 Y98.155 E22.8398
G0 F6000 X83.182 Y97.853
G1 F1200 X83.97 Y97.279 E22.8852
G1 X84.867 Y96.744 E22.93383
G1 X85.744 Y96.323 E22.97913
G1 X86.589 Y96.003 E23.0212
G1 X87.595 Y95.722 E23.06984
G1 X88.562 Y95.544 E23.11562
G1 X89.701 Y95.448 E23.16885
G1 X90.376 Y95.433 E23.20028
G1 X169.497 Y95.434 E26.88449
G1 X170.23 Y95.446 E26.91863
G1 X171.201 Y95.505 E26.96392
G1 X172.13 Y95.644 E27.00766
G1 X173.078 Y95.872 E27.05306
G1 X174 Y96.182 E27.09836
G1 X174.925 Y96.588 E27.1454
G1 X175.717 Y97.023 E27.18747
G1 X176.526 Y97.561 E27.23271
G1 X177.341 Y98.218 E27.28146
G1 X177.991 Y98.845 E27.32351
G1 X178.653 Y99.606 E27.37048
G1 X179.245 Y100.424 E27.41749
G1 X179.707 Y101.2 E27.45955
G1 X180.161 Y102.142 E27.50824
G1 X180.49 Y103.02 E27.5519
G1 X180.759 Y103.992 E27.59886
G1 X180.936 Y104.958 E27.64459
G1 X181.031 Y106.088 E27.69739
G1 X181.046 Y106.763 E27.72883
G1 X181.045 Y115.833 E28.15117
G1 X181.034 Y116.596 E28.1867
G1 X180.977 Y117.568 E28.23204
G1 X180.846 Y118.462 E28.27411
G1 X180.623 Y119.409 E28.31941
G1 X180.293 Y120.401 E28.3681
G1 X179.932 Y121.229 E28.41016
G1 X179.432 Y122.145 E28.45875
G1 X178.889 Y122.955 E28.50416
G1 X178.323 Y123.659 E28.54622
G1 X177.652 Y124.362 E28.59147
G1 X176.863 Y125.05 E28.64022
G1 X176.132 Y125.581 E28.68229
G1 X175.3 Y126.083 E28.72753
G1 X174.359 Y126.539 E28.77622
G1 X173.515 Y126.859 E28.81825
G1 X172.543 Y127.134 E28.86529
G1 X171.542 Y127.32 E28.9127
G1 X170.391 Y127.418 E28.96649
G1 X169.734 Y127.433 E28.99709
G1 X90.61 Y127.432 E32.68144
G1 X89.877 Y127.421 E32.71557
G1 X88.906 Y127.364 E32.76086
G1 X88.012 Y127.232 E32.80294
G1 X87.03 Y126.999 E32.84994
G1 X86.073 Y126.678 E32.89694
G1 X85.246 Y126.317 E32.93896
G1 X84.359 Y125.834 E32.98599
G1 X83.52 Y125.273 E33.03298
G1 X82.816 Y124.707 E33.07504
G1 X82.063 Y123.983 E33.12369
G1 X81.47 Y123.302 E33.16573
G1 X80.877 Y122.485 E33.21274
G1 X80.36 Y121.618 E33.25974
G1 X79.938 Y120.741 E33.30506
G1 X79.618 Y119.897 E33.34709
G1 X79.344 Y118.925 E33.39412
G1 X79.158 Y117.921 E33.44166
G1 X79.06 Y116.742 E33.49675
G1 X79.046 Y116.091 E33.52707
G1 X79.047 Y106.958 E33.95234
G1 X79.058 Y106.258 E33.98494
G1 X79.116 Y105.286 E34.03028
G1 X79.248 Y104.393 E34.07232
G1 X79.472 Y103.446 E34.11763
G1 X79.791 Y102.487 E34.16469
G1 X80.181 Y101.595 E34.21002
G1 X80.648 Y100.741 E34.25534
G1 X81.21 Y99.902 E34.30237
G1 X81.777 Y99.198 E34.34446
G1 X82.501 Y98.446 E34.39307
G1 X83.182 Y97.853 E34.43511
G1 F2700 E29.43511
;MESH:case4-keypad.stl
G0 F6000 X90.46 Y105.768
G0 X90.646 Y115.833
;TYPE:WALL-INNER
G1 F2700 E34.43511
G1 F1200 X169.446 Y115.833 E38.10437
G1 X169.446 Y107.033 E38.51414
G1 X90.646 Y107.033 E42.18339
G1 X90.646 Y115.833 E42.59316
G0 F6000 X90.246 Y116.233
;TYPE:WALL-OUTER
G1 F1200 X169.846 Y116.233 E46.29967
G1 X169.846 Y106.633 E46.74668
G1 X90.246 Y106.633 E50.45319
G1 X90.246 Y116.233 E50.90021
G0 F6000 X90.516 Y115.963
G0 X90.746 Y115.473
G0 X91.006 Y115.473
;TYPE:SKIN
G1 F1200 X91.006 Y107.393 E51.27645
G1 X169.086 Y107.393 E54.91218
G1 X169.086 Y115.473 E55.28842
G1 X91.006 Y115.473 E58.92415
G0 F6000 X91.513 Y115.271
G1 F1200 X91.206 Y114.964 E58.94437
G0 F6000 X91.206 Y114.399
G1 F1200 X92.078 Y115.271 E59.00179
G0 F6000 X92.644 Y115.271
G1 F1200 X91.206 Y113.833 E59.09649
G0 F6000 X91.206 Y113.267
G1 F1200 X93.21 Y115.271 E59.22845
G0 F6000 X93.775 Y115.271
G1 F1200 X91.206 Y112.702 E59.39762
G0 F6000 X91.206 Y112.136
G1 F1200 X94.341 Y115.271 E59.60407
G0 F6000 X94.907 Y115.271
G1 F1200 X91.206 Y111.57 E59.84779
G0 F6000 X91.206 Y111.005
G1 F1200 X95.472 Y115.271 E60.12871
G0 F6000 X96.038 Y115.271
G1 F1200 X91.206 Y110.439 E60.44691
G0 F6000 X91.206 Y109.873
G1 F1200 X96.604 Y115.271 E60.80237
G0 F6000 X97.169 Y115.271
G1 F1200 X91.206 Y109.308 E61.19505
G0 F6000 X91.206 Y108.742
G1 F1200 X97.735 Y115.271 E61.62499
G0 F6000 X98.301 Y115.271
G1 F1200 X91.206 Y108.176 E62.09221
G0 F6000 X91.206 Y107.611
G1 F1200 X98.866 Y115.271 E62.59664
G0 F6000 X99.432 Y115.271
G1 F1200 X91.754 Y107.593 E63.10224
G0 F6000 X92.319 Y107.593
G1 F1200 X99.998 Y115.271 E63.60789
G0 F6000 X100.564 Y115.271
G1 F1200 X92.885 Y107.593 E64.11353
G0 F6000 X93.451 Y107.593
G1 F1200 X101.129 Y115.271 E64.61914
G0 F6000 X101.695 Y115.271
G1 F1200 X94.016 Y107.593 E65.12478
G0 F6000 X94.582 Y107.593
G1 F1200 X102.261 Y115.271 E65.63042
G0 F6000 X102.826 Y115.271
G1 F1200 X95.148 Y107.593 E66.13603
G0 F6000 X95.713 Y107.593
G1 F1200 X103.392 Y115.271 E66.64167
G0 F6000 X103.958 Y115.271
G1 F1200 X96.279 Y107.593 E67.14732
G0 F6000 X96.845 Y107.593
G1 F1200 X104.523 Y115.271 E67.65293
G0 F6000 X105.089 Y115.271
G1 F1200 X97.411 Y107.593 E68.15854
G0 F6000 X97.976 Y107.593
G1 F1200 X105.655 Y115.271 E68.66418
G0 F6000 X106.22 Y115.271
G1 F1200 X98.542 Y107.593 E69.16979
G0 F6000 X99.108 Y107.593
G1 F1200 X106.786 Y115.271 E69.6754
G0 F6000 X107.352 Y115.271
G1 F1200 X99.673 Y107.593 E70.18104
G0 F6000 X100.239 Y107.593
G1 F1200 X107.917 Y115.271 E70.68665
G0 F6000 X108.483 Y115.271
G1 F1200 X100.805 Y107.593 E71.19226
G0 F6000 X101.37 Y107.593
G1 F1200 X109.049 Y115.271 E71.6979
G0 F6000 X109.614 Y115.271
G1 F1200 X101.936 Y107.593 E72.20351
G0 F6000 X102.502 Y107.593
G1 F1200 X110.18 Y115.271 E72.70912
G0 F6000 X110.746 Y115.271
G1 F1200 X103.067 Y107.593 E73.21476
G0 F6000 X103.633 Y107.593
G1 F1200 X111.312 Y115.271 E73.7204
G0 F6000 X111.877 Y115.271
G1 F1200 X104.199 Y107.593 E74.22601
G0 F6000 X104.764 Y107.593
G1 F1200 X112.443 Y115.271 E74.73166
G0 F6000 X113.009 Y115.271
G1 F1200 X105.33 Y107.593 E75.2373
G0 F6000 X105.896 Y107.593
G1 F1200 X113.574 Y115.271 E75.74291
G0 F6000 X114.14 Y115.271
G1 F1200 X106.461 Y107.593 E76.24855
G0 F6000 X107.027 Y107.593
G1 F1200 X114.706 Y115.271 E76.75419
G0 F6000 X115.271 Y115.271
G1 F1200 X107.593 Y107.593 E77.2598
G0 F6000 X108.159 Y107.593
G1 F1200 X115.837 Y115.271 E77.76541
G0 F6000 X116.403 Y115.271
G1 F1200 X108.724 Y107.593 E78.27105
G0 F6000 X109.29 Y107.593
G1 F1200 X116.968 Y115.271 E78.77666
G0 F6000 X117.534 Y115.271
G1 F1200 X109.856 Y107.593 E79.28227
G0 F6000 X110.421 Y107.593
G1 F1200 X118.1 Y115.271 E79.78791
G0 F6000 X118.665 Y115.271
G1 F1200 X110.987 Y107.593 E80.29352
G0 F6000 X111.553 Y107.593
G1 F1200 X119.231 Y115.271 E80.79913
G0 F6000 X119.797 Y115.271
G1 F1200 X112.118 Y107.593 E81.30478
G0 F6000 X112.684 Y107.593
G1 F1200 X120.363 Y115.271 E81.81042
G0 F6000 X120.928 Y115.271
G1 F1200 X113.25 Y107.593 E82.31603
G0 F6000 X113.815 Y107.593
G1 F1200 X121.494 Y115.271 E82.82167
G0 F6000 X122.06 Y115.271
G1 F1200 X114.381 Y107.593 E83.32731
G0 F6000 X114.947 Y107.593
G1 F1200 X122.625 Y115.271 E83.83292
G0 F6000 X123.191 Y115.271
G1 F1200 X115.512 Y107.593 E84.33856
G0 F6000 X116.078 Y107.593
G1 F1200 X123.757 Y115.271 E84.84421
G0 F6000 X124.322 Y115.271
G1 F1200 X116.644 Y107.593 E85.34982
G0 F6000 X117.21 Y107.593
G1 F1200 X124.888 Y115.271 E85.85543
G0 F6000 X125.454 Y115.271
G1 F1200 X117.775 Y107.593 E86.36107
G0 F6000 X118.341 Y107.593
G1 F1200 X126.019 Y115.271 E86.86668
G0 F6000 X126.585 Y115.271
G1 F1200 X118.907 Y107.593 E87.37229
G0 F6000 X119.472 Y107.593
G1 F1200 X127.151 Y115.271 E87.87793
G0 F6000 X127.716 Y115.271
G1 F1200 X120.038 Y107.593 E88.38354
G0 F6000 X120.604 Y107.593
G1 F1200 X128.282 Y115.271 E88.88915
G0 F6000 X128.848 Y115.271
G1 F1200 X121.169 Y107.593 E89.39479
G0 F6000 X121.735 Y107.593
G1 F1200 X129.413 Y115.271 E89.9004
G0 F6000 X129.979 Y115.271
G1 F1200 X122.301 Y107.593 E90.40601
G0 F6000 X122.866 Y107.593
G1 F1200 X130.545 Y115.271 E90.91165
G0 F6000 X131.111 Y115.271
G1 F1200 X123.432 Y107.593 E91.41729
G0 F6000 X123.998 Y107.593
G1 F1200 X131.676 Y115.271 E91.9229
G0 F6000 X132.242 Y115.271
G1 F1200 X124.563 Y107.593 E92.42855
G0 F6000 X125.129 Y107.593
G1 F1200 X132.808 Y115.271 E92.93419
G0 F6000 X133.373 Y115.271
G1 F1200 X125.695 Y107.593 E93.4398
G0 F6000 X126.26 Y107.593
G1 F1200 X133.939 Y115.271 E93.94544
G0 F6000 X134.505 Y115.271
G1 F1200 X126.826 Y107.593 E94.45108
G0 F6000 X127.392 Y107.593
G1 F1200 X135.07 Y115.271 E94.95669
G0 F6000 X135.636 Y115.271
G1 F1200 X127.958 Y107.593 E95.4623
G0 F6000 X128.523 Y107.593
G1 F1200 X136.202 Y115.271 E95.96794
G0 F6000 X136.767 Y115.271
G1 F1200 X129.089 Y107.593 E96.47355
G0 F6000 X129.655 Y107.593
G1 F1200 X137.333 Y115.271 E96.97916
G0 F6000 X137.899 Y115.271
G1 F1200 X130.22 Y107.593 E97.4848
G0 F6000 X130.786 Y107.593
G1 F1200 X138.464 Y115.271 E97.99041
G0 F6000 X139.03 Y115.271
G1 F1200 X131.352 Y107.593 E98.49602
G0 F6000 X131.917 Y107.593
G1 F1200 X139.596 Y115.271 E99.00167
G0 F6000 X140.161 Y115.271
G1 F1200 X132.483 Y107.593 E99.50727
G0 F6000 X133.049 Y107.593
G1 F1200 X140.727 Y115.271 E100.01288
G0 F6000 X141.293 Y115.271
G1 F1200 X133.614 Y107.593 E100.51853
G0 F6000 X134.18 Y107.593
G1 F1200 X141.859 Y115.271 E101.02417
G0 F6000 X142.424 Y115.271
G1 F1200 X134.746 Y107.593 E101.52978
G0 F6000 X135.311 Y107.593
G1 F1200 X142.99 Y115.271 E102.03542
G0 F6000 X143.556 Y115.271
G1 F1200 X135.877 Y107.593 E102.54106
G0 F6000 X136.443 Y107.593
G1 F1200 X144.121 Y115.271 E103.04667
G0 F6000 X144.687 Y115.271
G1 F1200 X137.009 Y107.593 E103.55228
G0 F6000 X137.574 Y107.593
G1 F1200 X145.253 Y115.271 E104.05792
G0 F6000 X145.818 Y115.271
G1 F1200 X138.14 Y107.593 E104.56353
G0 F6000 X138.706 Y107.593
G1 F1200 X146.384 Y115.271 E105.06914
G0 F6000 X146.95 Y115.271
G1 F1200 X139.271 Y107.593 E105.57479
G0 F6000 X139.837 Y107.593
G1 F1200 X147.515 Y115.271 E106.08039
G0 F6000 X148.081 Y115.271
G1 F1200 X140.403 Y107.593 E106.586
G0 F6000 X140.968 Y107.593
G1 F1200 X148.647 Y115.271 E107.09165
G0 F6000 X149.212 Y115.271
G1 F1200 X141.534 Y107.593 E107.59726
G0 F6000 X142.1 Y107.593
G1 F1200 X149.778 Y115.271 E108.10286
G0 F6000 X150.344 Y115.271
G1 F1200 X142.665 Y107.593 E108.60851
G0 F6000 X143.231 Y107.593
G1 F1200 X150.91 Y115.271 E109.11415
G0 F6000 X151.475 Y115.271
G1 F1200 X143.797 Y107.593 E109.61976
G0 F6000 X144.362 Y107.593
G1 F1200 X152.041 Y115.271 E110.1254
G0 F6000 X152.607 Y115.271
G1 F1200 X144.928 Y107.593 E110.63104
G0 F6000 X145.494 Y107.593
G1 F1200 X153.172 Y115.271 E111.13665
G0 F6000 X153.738 Y115.271
G1 F1200 X146.059 Y107.593 E111.6423
G0 F6000 X146.625 Y107.593
G1 F1200 X154.304 Y115.271 E112.14794
G0 F6000 X154.869 Y115.271
G1 F1200 X147.191 Y107.593 E112.65355
G0 F6000 X147.757 Y107.593
G1 F1200 X155.435 Y115.271 E113.15916
G0 F6000 X156.001 Y115.271
G1 F1200 X148.322 Y107.593 E113.6648
