;FLAVOR:Marlin
;TIME:560
;Filament used: 0.29308m
;Layer height: 0.28
;MINX:98.994
;MINY:87.659
;MINZ:0.28
;MAXX:132.994
;MAXY:133.833
;MAXZ:10.92
;Generated with Cura_SteamEngine 5.3.1
M140 S50
M105
M190 S50
M104 S200
M105
M109 S200
M82 ;absolute extrusion mode
; Ender 3 Custom Start G-code
G92 E0 ; Reset Extruder
G28 ; Home all axes
G1 Z2.0 F3000 ; Move Z Axis up little to prevent scratching of Heat Bed
G1 X0.1 Y20 Z0.3 F5000.0 ; Move to start position
G1 X0.1 Y200.0 Z0.3 F1500.0 E15 ; Draw the first line
G1 X0.4 Y200.0 Z0.3 F5000.0 ; Move to side a little
G1 X0.4 Y20 Z0.3 F1500.0 E30 ; Draw the second line
G92 E0 ; Reset Extruder
G1 Z2.0 F3000 ; Move Z Axis up little to prevent scratching of Heat Bed
G1 X5 Y20 Z0.3 F5000.0 ; Move over to prevent blob squish
G92 E0
G92 E0
G1 F2700 E-5
;LAYER_COUNT:39
;LAYER:0
M107
G0 F6000 X102.349 Y91.926 Z0.28
;TYPE:SKIRT
G1 F2700 E0
G1 F1200 X102.975 Y91.276 E0.04202
G1 X103.656 Y90.683 E0.08407
G1 X104.388 Y90.153 E0.12615
G1 X105.163 Y89.69 E0.16819
G1 X105.976 Y89.297 E0.21023
G1 X106.821 Y88.977 E0.25231
G1 X107.69 Y88.734 E0.29432
G1 X108.578 Y88.568 E0.33639
G1 X109.717 Y88.472 E0.38961
G1 X110.324 Y88.459 E0.41789
G1 X121.287 Y88.459 E0.92837
G1 X122.131 Y88.47 E0.96767
G1 X123.033 Y88.523 E1.00975
G1 X123.926 Y88.655 E1.05178
G1 X124.804 Y88.866 E1.09383
G1 X125.66 Y89.154 E1.13588
G1 X126.487 Y89.516 E1.17792
G1 X127.279 Y89.951 E1.21999
G1 X128.03 Y90.453 E1.26206
G1 X128.733 Y91.02 E1.30411
G1 X129.383 Y91.647 E1.34616
G1 X129.975 Y92.329 E1.38822
G1 X130.505 Y93.06 E1.43026
G1 X130.967 Y93.836 E1.47231
G1 X131.36 Y94.649 E1.51436
G1 X131.678 Y95.494 E1.5564
G1 X131.921 Y96.364 E1.59846
G1 X132.086 Y97.252 E1.64052
G1 X132.181 Y98.382 E1.69332
G1 X132.194 Y98.989 E1.72159
G1 X132.193 Y110.075 E2.2378
G1 X132.183 Y110.795 E2.27133
G1 X132.131 Y111.696 E2.31336
G1 X132.013 Y112.515 E2.35189
G1 X131.847 Y113.409 E2.39423
G1 X131.628 Y114.505 E2.44627
G1 X131.192 Y117.059 E2.56691
G1 X130.841 Y119.537 E2.68345
G1 X130.555 Y122.069 E2.8021
G1 X130.497 Y122.759 E2.83435
G1 X130.389 Y123.843 E2.88507
G1 X130.259 Y124.737 E2.92714
G1 X130.051 Y125.616 E2.9692
G1 X129.765 Y126.473 E3.01127
G1 X129.405 Y127.301 E3.05331
G1 X128.973 Y128.094 E3.09536
G1 X128.473 Y128.846 E3.13741
G1 X127.908 Y129.55 E3.17944
G1 X127.283 Y130.202 E3.2215
G1 X126.603 Y130.796 E3.26354
G1 X125.873 Y131.328 E3.3056
G1 X125.098 Y131.793 E3.34768
G1 X124.286 Y132.187 E3.38971
G1 X123.442 Y132.508 E3.43176
G1 X122.573 Y132.754 E3.47381
G1 X121.685 Y132.921 E3.51589
G1 X120.527 Y133.02 E3.57
G1 X119.92 Y133.033 E3.59827
G1 X115.311 Y133.032 E3.81289
G1 X114.611 Y133.022 E3.84549
G1 X113.71 Y132.969 E3.88751
G1 X112.816 Y132.837 E3.92959
G1 X111.938 Y132.626 E3.97164
G1 X111.082 Y132.338 E4.0137
G1 X110.255 Y131.976 E4.05573
G1 X109.463 Y131.542 E4.09778
G1 X108.713 Y131.039 E4.13983
G1 X108.01 Y130.472 E4.18189
G1 X107.359 Y129.846 E4.22394
G1 X106.767 Y129.164 E4.266
G1 X106.238 Y128.432 E4.30805
G1 X105.775 Y127.657 E4.35009
G1 X105.383 Y126.843 E4.39216
G1 X105.049 Y125.952 E4.43646
G1 X104.925 Y125.568 E4.45525
G1 X104.095 Y123.12 E4.57562
G1 X103.203 Y120.71 E4.69528
G1 X102.258 Y118.367 E4.81292
G1 X101.209 Y115.961 E4.93513
G1 X100.709 Y114.855 E4.99165
G1 X100.373 Y114.016 E5.03374
G1 X100.114 Y113.151 E5.07578
G1 X99.931 Y112.266 E5.11786
G1 X99.807 Y110.936 E5.18006
G1 X99.794 Y110.329 E5.20833
G1 X99.795 Y99.195 E5.72678
G1 X99.804 Y98.53 E5.75775
G1 X99.856 Y97.628 E5.79982
G1 X99.988 Y96.735 E5.84185
G1 X100.198 Y95.857 E5.88389
G1 X100.485 Y95 E5.92597
G1 X100.847 Y94.173 E5.96801
G1 X101.28 Y93.381 E6.01004
G1 X101.782 Y92.63 E6.0521
G1 X102.349 Y91.926 E6.09419
G0 F6000 X102.037 Y91.675
G1 F1200 X102.712 Y90.974 E6.13951
G1 X103.393 Y90.381 E6.18155
G1 X104.153 Y89.829 E6.22529
G1 X104.989 Y89.33 E6.27063
G1 X105.834 Y88.923 E6.3143
G1 X106.679 Y88.603 E6.35637
G1 X107.616 Y88.341 E6.40168
G1 X108.544 Y88.169 E6.44562
G1 X109.683 Y88.073 E6.49885
G1 X110.315 Y88.059 E6.52828
G1 X121.292 Y88.059 E7.03942
G1 X122.154 Y88.071 E7.07956
G1 X123.091 Y88.127 E7.12327
G1 X123.984 Y88.259 E7.1653
G1 X124.932 Y88.487 E7.21071
G1 X125.788 Y88.775 E7.25276
G1 X126.68 Y89.165 E7.29809
G1 X127.472 Y89.6 E7.34017
G1 X128.252 Y90.12 E7.38382
G1 X129.011 Y90.732 E7.42922
G1 X129.661 Y91.359 E7.47127
G1 X130.299 Y92.094 E7.51659
G1 X130.849 Y92.855 E7.56031
G1 X131.311 Y93.631 E7.60237
G1 X131.734 Y94.508 E7.6477
G1 X132.063 Y95.386 E7.69136
G1 X132.314 Y96.291 E7.7351
G1 X132.485 Y97.218 E7.77899
G1 X132.58 Y98.348 E7.83179
G1 X132.594 Y98.989 E7.86165
G1 X132.593 Y110.081 E8.37814
G1 X132.582 Y110.818 E8.41246
G1 X132.527 Y111.753 E8.45607
G1 X132.406 Y112.588 E8.49536
G1 X132.239 Y113.487 E8.53794
G1 X132.02 Y114.583 E8.58998
G1 X131.586 Y117.126 E8.7101
G1 X131.237 Y119.593 E8.82612
G1 X130.954 Y122.103 E8.94374
G1 X130.895 Y122.799 E8.97626
G1 X130.785 Y123.901 E9.02783
G1 X130.655 Y124.795 E9.0699
G1 X130.43 Y125.743 E9.11527
G1 X130.132 Y126.632 E9.15893
G1 X129.772 Y127.46 E9.20097
G1 X129.306 Y128.315 E9.24631
G1 X128.785 Y129.096 E9.29003
G1 X128.197 Y129.827 E9.33371
G1 X127.572 Y130.479 E9.37576
G1 X126.839 Y131.119 E9.42108
G1 X126.079 Y131.671 E9.46481
G1 X125.273 Y132.153 E9.50854
G1 X124.461 Y132.547 E9.55057
G1 X123.551 Y132.893 E9.5959
G1 X122.682 Y133.139 E9.63796
G1 X121.719 Y133.32 E9.68358
G1 X120.561 Y133.419 E9.7377
G1 X119.92 Y133.433 E9.76756
G1 X115.305 Y133.432 E9.98245
G1 X114.605 Y133.422 E10.01505
G1 X113.652 Y133.365 E10.0595
G1 X112.758 Y133.233 E10.10158
G1 X111.81 Y133.005 E10.14698
G1 X110.954 Y132.717 E10.18904
G1 X110.063 Y132.327 E10.23433
G1 X109.24 Y131.874 E10.27807
G1 X108.49 Y131.371 E10.32012
G1 X107.759 Y130.783 E10.36381
G1 X107.057 Y130.108 E10.40915
G1 X106.465 Y129.426 E10.45121
G1 X105.914 Y128.666 E10.49492
G1 X105.415 Y127.831 E10.54021
G1 X105.008 Y126.983 E10.58401
G1 X104.668 Y126.075 E10.62916
G1 X104.544 Y125.691 E10.64795
G1 X103.716 Y123.248 E10.76806
G1 X102.828 Y120.849 E10.88717
G1 X101.887 Y118.517 E11.00427
G1 X100.843 Y116.121 E11.12597
G1 X100.338 Y115.004 E11.18305
G1 X99.99 Y114.131 E11.22681
G1 X99.722 Y113.232 E11.27049
G1 X99.539 Y112.347 E11.31257
G1 X99.407 Y110.945 E11.37814
G1 X99.394 Y110.329 E11.40683
G1 X99.395 Y99.19 E11.92551
G1 X99.405 Y98.507 E11.95732
G1 X99.46 Y97.57 E12.00102
G1 X99.592 Y96.677 E12.04306
G1 X99.809 Y95.764 E12.08676
G1 X100.106 Y94.873 E12.13049
G1 X100.496 Y93.981 E12.17582
G1 X100.947 Y93.159 E12.21948
G1 X101.47 Y92.379 E12.26321
G1 X102.037 Y91.675 E12.3053
G0 F6000 X101.725 Y91.424
G1 F1200 X102.449 Y90.672 E12.35391
G1 X103.13 Y90.079 E12.39595
G1 X103.918 Y89.505 E12.44135
G1 X104.815 Y88.97 E12.48998
G1 X105.692 Y88.549 E12.53528
G1 X106.537 Y88.229 E12.57735
G1 X107.543 Y87.948 E12.62599
G1 X108.51 Y87.77 E12.67177
G1 X109.649 Y87.674 E12.725
G1 X110.306 Y87.659 E12.7556
G1 X121.298 Y87.659 E13.26743
G1 X122.178 Y87.672 E13.30841
G1 X123.149 Y87.731 E13.35371
G1 X124.078 Y87.87 E13.39745
G1 X125.026 Y88.098 E13.44285
G1 X125.948 Y88.408 E13.48815
G1 X126.873 Y88.814 E13.53519
G1 X127.665 Y89.249 E13.57726
G1 X128.474 Y89.787 E13.6225
G1 X129.289 Y90.444 E13.67125
G1 X129.939 Y91.071 E13.7133
G1 X130.601 Y91.832 E13.76027
G1 X131.193 Y92.65 E13.80728
G1 X131.655 Y93.426 E13.84934
G1 X132.109 Y94.368 E13.89803
G1 X132.438 Y95.246 E13.94169
G1 X132.707 Y96.218 E13.98865
G1 X132.884 Y97.184 E14.03438
G1 X132.979 Y98.314 E14.08718
G1 X132.994 Y98.989 E14.11862
G1 X132.993 Y110.087 E14.63539
G1 X132.982 Y110.824 E14.66971
G1 X132.923 Y111.81 E14.71571
G1 X132.799 Y112.661 E14.75575
G1 X132.631 Y113.565 E14.79857
G1 X132.412 Y114.661 E14.85061
G1 X131.98 Y117.193 E14.97021
G1 X131.633 Y119.649 E15.08571
G1 X131.353 Y122.137 E15.20229
G1 X131.293 Y122.839 E15.2351
G1 X131.181 Y123.959 E15.28751
G1 X131.051 Y124.853 E15.32958
G1 X130.809 Y125.87 E15.37826
G1 X130.499 Y126.791 E15.42351
G1 X130.139 Y127.619 E15.46555
G1 X129.639 Y128.537 E15.51422
G1 X129.097 Y129.347 E15.55961
G1 X128.509 Y130.078 E15.60329
G1 X127.861 Y130.756 E15.64696
G1 X127.074 Y131.443 E15.6956
G1 X126.314 Y131.995 E15.73934
G1 X125.448 Y132.513 E15.78633
G1 X124.636 Y132.907 E15.82836
G1 X123.66 Y133.278 E15.87698
G1 X122.791 Y133.524 E15.91903
G1 X121.753 Y133.719 E15.96821
G1 X120.595 Y133.818 E16.02233
G1 X119.92 Y133.833 E16.05377
G1 X115.299 Y133.832 E16.26894
G1 X114.581 Y133.821 E16.30238
G1 X113.594 Y133.761 E16.34842
G1 X112.664 Y133.622 E16.39221
G1 X111.716 Y133.394 E16.43761
G1 X110.826 Y133.096 E16.48131
G1 X109.87 Y132.677 E16.52991
G1 X109.017 Y132.206 E16.57529
G1 X108.239 Y131.683 E16.61894
G1 X107.508 Y131.095 E16.66262
G1 X106.755 Y130.37 E16.71129
G1 X106.141 Y129.661 E16.75497
G1 X105.59 Y128.901 E16.79868
G1 X105.054 Y128.004 E16.84734
G1 X104.633 Y127.123 E16.8928
G1 X104.287 Y126.198 E16.93879
G1 X103.337 Y123.376 E17.07744
G1 X102.453 Y120.988 E17.19601
G1 X101.516 Y118.667 E17.31256
G1 X100.477 Y116.281 E17.43374
G1 X99.966 Y115.152 E17.49144
G1 X99.618 Y114.279 E17.5352
G1 X99.33 Y113.313 E17.58214
G1 X99.147 Y112.428 E17.62422
G1 X99.007 Y110.953 E17.69321
G1 X98.994 Y110.329 E17.72228
G1 X98.995 Y99.184 E18.24123
G1 X99.006 Y98.484 E18.27383
G1 X99.064 Y97.512 E18.31917
G1 X99.196 Y96.619 E18.36121
G1 X99.42 Y95.672 E18.40652
G1 X99.739 Y94.713 E18.45358
G1 X100.129 Y93.821 E18.49891
G1 X100.596 Y92.967 E18.54424
G1 X101.158 Y92.128 E18.59126
G1 X101.725 Y91.424 E18.63335
G1 F2700 E13.63335
;MESH:case4-resetbutton-case.stl
G0 F6000 X113.158 Y102.149
G0 X116.427 Y108.237
;TYPE:WALL-INNER
G1 F2700 E18.63335
G1 F1200 X115.556 Y108.237 E18.67391
G1 X114.715 Y108.03 E18.71424
G1 X113.947 Y107.628 E18.7546
G1 X113.294 Y107.047 E18.7953
G1 X112.802 Y106.335 E18.8356
G1 X112.495 Y105.526 E18.87589
G1 X112.389 Y104.659 E18.91656
G1 X112.495 Y103.793 E18.95719
G1 X112.802 Y102.983 E18.99752
G1 X113.296 Y102.269 E19.03795
G1 X113.947 Y101.691 E19.07849
G1 X114.715 Y101.288 E19.11887
G1 X115.56 Y101.081 E19.15938
G1 X116.431 Y101.081 E19.19994
G1 X117.272 Y101.289 E19.24028
G1 X118.04 Y101.691 E19.28065
G1 X118.691 Y102.269 E19.32118
G1 X119.185 Y102.983 E19.36161
G1 X119.493 Y103.796 E19.40209
G1 X119.594 Y104.659 E19.44255
G1 X119.492 Y105.524 E19.48311
G1 X119.185 Y106.333 E19.5234
G1 X118.693 Y107.047 E19.56378
G1 X118.04 Y107.628 E19.60448
G1 X117.272 Y108.03 E19.64484
G1 X116.427 Y108.237 E19.68535
G1 F2700 E14.68535
G0 F6000 X118.144 Y107.777
G0 X118.144 Y109.859
G0 X121.394 Y110.059
G1 F2700 E19.68535
G1 F1200 X121.394 Y99.259 E20.18824
G1 X110.594 Y99.259 E20.69114
G1 X110.594 Y110.059 E21.19403
G1 X121.394 Y110.059 E21.69692
G0 F6000 X121.794 Y110.459
;TYPE:WALL-OUTER
G1 F1200 X121.794 Y98.859 E22.23707
G1 X110.194 Y98.859 E22.77721
G1 X110.194 Y110.459 E23.31736
G1 X121.794 Y110.459 E23.8575
G1 F2700 E18.8575
G0 F6000 X121.524 Y110.189
G0 X116.461 Y109.859
G0 X116.448 Y108.418
G0 X116.391 Y107.835
G1 F2700 E23.8575
G1 F1200 X115.583 Y107.832 E23.89513
G1 X114.858 Y107.653 E23.9299
G1 X114.177 Y107.297 E23.96568
G1 X113.596 Y106.78 E24.0019
G1 X113.151 Y106.127 E24.03869
G1 X112.884 Y105.413 E24.07419
G1 X112.793 Y104.659 E24.10955
G1 X112.886 Y103.89 E24.14562
G1 X113.158 Y103.171 E24.18141
G1 X113.598 Y102.536 E24.21739
G1 X114.177 Y102.022 E24.25344
G1 X114.858 Y101.665 E24.28924
G1 X115.596 Y101.483 E24.32464
G1 X116.404 Y101.486 E24.36226
G1 X117.129 Y101.665 E24.39703
G1 X117.81 Y102.022 E24.43284
G1 X118.389 Y102.536 E24.46889
G1 X118.829 Y103.171 E24.50486
G1 X119.101 Y103.891 E24.5407
G1 X119.194 Y104.659 E24.57672
G1 X119.103 Y105.412 E24.61204
G1 X118.828 Y106.147 E24.64858
G1 X118.391 Y106.781 E24.68444
G1 X117.81 Y107.297 E24.72062
G1 X117.129 Y107.653 E24.7564
G1 X116.391 Y107.835 E24.7918
G1 F2700 E19.7918
G0 F6000 X116.461 Y108.126
G0 X118.144 Y107.777
G0 X118.144 Y109.859
G0 X121.034 Y109.699
;TYPE:SKIN
G1 F2700 E24.7918
G1 F1200 X110.954 Y109.699 E25.26116
G1 X110.954 Y99.619 E25.73053
G1 X121.034 Y99.619 E26.1999
G1 X121.034 Y109.699 E26.66926
G1 F2700 E21.66926
G0 F6000 X121.294 Y109.699
G0 X116.438 Y109.859
G0 X116.438 Y108.417
G0 X116.48 Y108.595
G1 F2700 E26.66926
G1 F1200 X117.397 Y108.369 E26.71324
G1 X118.244 Y107.927 E26.75773
G1 X118.967 Y107.287 E26.80269
G1 X119.509 Y106.498 E26.84726
G1 X119.845 Y105.599 E26.89195
G1 X119.96 Y104.659 E26.93605
G1 X119.843 Y103.703 E26.9809
G1 X119.508 Y102.819 E27.02491
G1 X118.965 Y102.031 E27.06947
G1 X118.243 Y101.389 E27.11446
G1 X117.403 Y100.95 E27.1586
G1 X116.502 Y100.726 E27.20183
G1 X115.506 Y100.723 E27.24821
G1 X114.585 Y100.95 E27.29238
G1 X113.744 Y101.389 E27.33655
G1 X113.023 Y102.03 E27.38147
G1 X112.48 Y102.814 E27.42588
G1 X112.144 Y103.7 E27.47
G1 X112.028 Y104.659 E27.51498
G1 X112.144 Y105.617 E27.55992
G1 X112.479 Y106.502 E27.60398
G1 X113.041 Y107.305 E27.64962
G1 X113.739 Y107.927 E27.69315
G1 X114.586 Y108.37 E27.73766
G1 X115.484 Y108.592 E27.78074
G1 X116.48 Y108.595 E27.82711
G1 F2700 E22.82711
G0 F6000 X116.438 Y108.338
G0 X113.843 Y107.777
G0 X113.843 Y109.859
G0 X111.761 Y109.499
G1 F2700 E27.82711
G1 F1200 X111.153 Y108.89 E27.86718
G0 F6000 X111.153 Y108.325
G1 F1200 X112.327 Y109.499 E27.94449
G0 F6000 X112.893 Y109.499
G1 F1200 X111.153 Y107.759 E28.05908
G0 F6000 X111.153 Y107.193
G1 F1200 X113.458 Y109.499 E28.2109
G0 F6000 X114.024 Y109.499
G1 F1200 X111.153 Y106.628 E28.39996
G0 F6000 X111.153 Y106.062
G1 F1200 X114.59 Y109.499 E28.62629
G0 F6000 X115.155 Y109.499
G1 F1200 X113.888 Y108.231 E28.70976
G0 F6000 X114.103 Y107.823
G0 X114.978 Y108.199
G0 X114.868 Y108.645
G1 F1200 X115.721 Y109.499 E28.76596
G0 F6000 X116.287 Y109.499
G1 F1200 X115.585 Y108.796 E28.81222
G0 F6000 X116.147 Y108.794
G1 F1200 X116.852 Y109.499 E28.85865
G0 F6000 X117.418 Y109.499
G1 F1200 X116.672 Y108.753 E28.90777
G0 F6000 X117.127 Y108.642
G1 F1200 X117.984 Y109.499 E28.96421
G0 F6000 X118.549 Y109.499
G1 F1200 X117.56 Y108.509 E29.02937
G0 F6000 X117.931 Y108.315
G1 F1200 X119.115 Y109.499 E29.10734
G0 F6000 X119.681 Y109.499
G1 F1200 X118.303 Y108.121 E29.19808
G0 F6000 X118.615 Y107.867
G1 F1200 X120.247 Y109.499 E29.30555
G0 F6000 X120.812 Y109.499
G1 F1200 X118.914 Y107.601 E29.43054
G0 F6000 X119.19 Y107.311
G1 F1200 X120.833 Y108.954 E29.53873
G0 F6000 X120.833 Y108.388
G1 F1200 X119.421 Y106.976 E29.63171
G0 F6000 X119.653 Y106.642
G1 F1200 X120.833 Y107.823 E29.70945
G0 F6000 X120.833 Y107.257
G1 F1200 X119.819 Y106.242 E29.77626
G0 F6000 X119.974 Y105.831
G1 F1200 X120.833 Y106.691 E29.83286
G0 F6000 X120.833 Y106.126
G1 F1200 X120.073 Y105.365 E29.88294
G0 F6000 X120.133 Y104.859
G1 F1200 X120.833 Y105.56 E29.92907
G0 F6000 X120.833 Y104.994
G1 F1200 X120.11 Y104.271 E29.97668
G0 F6000 X120.022 Y103.618
G1 F1200 X120.833 Y104.429 E30.03008
G0 F6000 X120.833 Y103.863
G1 F1200 X119.662 Y102.692 E30.1072
G0 F6000 X119.276 Y102.938
G0 X119.552 Y103.391
G0 X121.194 Y103.391
G0 X120.833 Y102.732
G1 F1200 X117.921 Y99.819 E30.29899
G0 F6000 X117.355 Y99.819
G1 F1200 X120.833 Y103.297 E30.52802
G0 F6000 X121.294 Y103.297
G0 X121.294 Y102.166
G0 X120.833 Y102.166
G1 F1200 X118.487 Y99.819 E30.68254
G0 F6000 X119.052 Y99.819
G1 F1200 X120.833 Y101.6 E30.79982
G0 F6000 X120.833 Y101.034
G1 F1200 X119.618 Y99.819 E30.87983
G0 F6000 X120.184 Y99.819
G1 F1200 X120.833 Y100.469 E30.9226
G0 F6000 X120.833 Y99.903
G1 F1200 X120.749 Y99.819 E30.92814
G1 F2700 E25.92814
G0 F6000 X120.749 Y99.359
G0 X117.8 Y99.459
G0 X117.337 Y101.119
G0 X118.014 Y101.044
G1 F2700 E30.92814
G1 F1200 X116.789 Y99.819 E31.0088
G0 F6000 X116.224 Y99.819
G1 F1200 X117.065 Y100.66 E31.06419
G0 F6000 X116.36 Y100.52
G1 F1200 X115.658 Y99.819 E31.11038
G0 F6000 X115.092 Y99.819
G1 F1200 X115.797 Y100.523 E31.15677
G0 F6000 X115.28 Y100.572
G1 F1200 X114.527 Y99.819 E31.20636
G0 F6000 X113.961 Y99.819
G1 F1200 X114.826 Y100.684 E31.26332
G0 F6000 X114.398 Y100.822
G1 F1200 X113.395 Y99.819 E31.32937
G0 F6000 X112.83 Y99.819
G1 F1200 X114.026 Y101.015 E31.40813
G0 F6000 X113.654 Y101.209
G1 F1200 X112.264 Y99.819 E31.49966
G0 F6000 X111.698 Y99.819
G1 F1200 X113.349 Y101.47 E31.60838
G0 F6000 X113.05 Y101.736
