;FLAVOR:Marlin
;TIME:14637
;Filament used: 15.1274m
;Layer height: 0.28
;MINX:31.5
;MINY:21.5
;MINZ:0.28
;MAXX:203.5
;MAXY:213.5
;MAXZ:5.88
;Generated with Cura_SteamEngine 5.3.1
M140 S50
M105
M190 S50
M104 S200
M105
M109 S200
M82 ;absolute extrusion mode
; Ender 3 Custom Start G-code
G92 E0 ; Reset Extruder
G28 ; Home all axes
G1 Z2.0 F3000 ; Move Z Axis up little to prevent scratching of Heat Bed
G1 X0.1 Y20 Z0.3 F5000.0 ; Move to start position
G1 X0.1 Y200.0 Z0.3 F1500.0 E15 ; Draw the first line
G1 X0.4 Y200.0 Z0.3 F5000.0 ; Move to side a little
G1 X0.4 Y20 Z0.3 F1500.0 E30 ; Draw the second line
G92 E0 ; Reset Extruder
G1 Z2.0 F3000 ; Move Z Axis up little to prevent scratching of Heat Bed
G1 X5 Y20 Z0.3 F5000.0 ; Move over to prevent blob squish
G92 E0
G92 E0
G1 F2700 E-5
;LAYER_COUNT:21
;LAYER:0
M107
G0 F6000 X34.288 Y26.471 Z0.28
;TYPE:SKIRT
G1 F2700 E0
G1 F1200 X34.855 Y25.767 E0.04209
G1 X35.481 Y25.117 E0.08411
G1 X36.162 Y24.524 E0.12616
G1 X36.894 Y23.994 E0.16824
G1 X37.669 Y23.531 E0.21028
G1 X38.482 Y23.138 E0.25233
G1 X39.327 Y22.818 E0.2944
G1 X40.196 Y22.575 E0.33642
G1 X41.084 Y22.409 E0.37848
G1 X42.223 Y22.313 E0.43171
G1 X42.83 Y22.3 E0.45998
G1 X191.939 Y22.301 E7.40312
G1 X192.637 Y22.311 E7.43562
G1 X193.539 Y22.364 E7.47769
G1 X194.432 Y22.496 E7.51973
G1 X195.31 Y22.707 E7.56178
G1 X196.166 Y22.995 E7.60383
G1 X196.993 Y23.357 E7.64587
G1 X197.785 Y23.792 E7.68794
G1 X198.536 Y24.294 E7.73
G1 X199.239 Y24.861 E7.77206
G1 X199.889 Y25.488 E7.81411
G1 X200.481 Y26.17 E7.85616
G1 X201.011 Y26.901 E7.89821
G1 X201.473 Y27.677 E7.94026
G1 X201.866 Y28.49 E7.98231
G1 X202.184 Y29.335 E8.02435
G1 X202.427 Y30.205 E8.06641
G1 X202.592 Y31.093 E8.10847
G1 X202.687 Y32.223 E8.16127
G1 X202.7 Y32.83 E8.18954
G1 X202.699 Y201.89 E16.06168
G1 X202.69 Y202.617 E16.09554
G1 X202.639 Y203.519 E16.13761
G1 X202.508 Y204.413 E16.17968
G1 X202.299 Y205.291 E16.2217
G1 X202.013 Y206.148 E16.26377
G1 X201.652 Y206.976 E16.30583
G1 X201.22 Y207.768 E16.34784
G1 X200.719 Y208.52 E16.38992
G1 X200.153 Y209.224 E16.43198
G1 X199.528 Y209.875 E16.474
G1 X198.847 Y210.469 E16.51608
G1 X198.116 Y211 E16.55815
G1 X197.342 Y211.464 E16.60017
G1 X196.529 Y211.858 E16.64224
G1 X195.685 Y212.178 E16.68427
G1 X194.815 Y212.423 E16.72636
G1 X193.928 Y212.589 E16.76838
G1 X192.777 Y212.687 E16.82217
G1 X192.17 Y212.7 E16.85044
G1 X43.075 Y212.699 E23.79292
G1 X42.377 Y212.69 E23.82543
G1 X41.476 Y212.639 E23.86745
G1 X40.582 Y212.507 E23.90953
G1 X39.704 Y212.298 E23.95156
G1 X38.847 Y212.011 E23.99364
G1 X38.02 Y211.65 E24.03566
G1 X37.227 Y211.217 E24.07773
G1 X36.476 Y210.716 E24.11977
G1 X35.772 Y210.15 E24.16183
G1 X35.121 Y209.524 E24.20388
G1 X34.528 Y208.843 E24.24593
G1 X33.998 Y208.112 E24.28797
G1 X33.534 Y207.337 E24.33003
G1 X33.14 Y206.524 E24.3721
G1 X32.82 Y205.68 E24.41413
G1 X32.576 Y204.81 E24.45621
G1 X32.41 Y203.922 E24.49827
G1 X32.313 Y202.767 E24.55224
G1 X32.3 Y202.158 E24.58061
G1 X32.301 Y33.036 E32.45563
G1 X32.31 Y32.371 E32.4866
G1 X32.362 Y31.469 E32.52867
G1 X32.494 Y30.576 E32.57071
G1 X32.704 Y29.698 E32.61274
G1 X32.991 Y28.841 E32.65483
G1 X33.353 Y28.014 E32.69686
G1 X33.786 Y27.222 E32.73889
G1 X34.288 Y26.471 E32.78096
G0 F6000 X33.976 Y26.22
G1 F1200 X34.543 Y25.516 E32.82305
G1 X35.218 Y24.815 E32.86836
G1 X35.899 Y24.222 E32.91041
G1 X36.659 Y23.67 E32.95415
G1 X37.495 Y23.171 E32.99948
G1 X38.34 Y22.764 E33.04316
G1 X39.185 Y22.444 E33.08523
G1 X40.122 Y22.182 E33.13053
G1 X41.05 Y22.01 E33.17448
G1 X42.189 Y21.914 E33.22771
G1 X42.83 Y21.9 E33.25756
G1 X191.945 Y21.901 E40.20098
G1 X192.66 Y21.912 E40.23428
G1 X193.597 Y21.968 E40.27799
G1 X194.49 Y22.1 E40.32002
G1 X195.438 Y22.328 E40.36542
G1 X196.294 Y22.616 E40.40747
G1 X197.186 Y23.006 E40.45281
G1 X197.978 Y23.441 E40.49488
G1 X198.758 Y23.961 E40.53853
G1 X199.517 Y24.573 E40.58393
G1 X200.167 Y25.2 E40.62599
G1 X200.805 Y25.935 E40.67131
G1 X201.355 Y26.696 E40.71503
G1 X201.817 Y27.472 E40.75708
G1 X202.24 Y28.349 E40.80242
G1 X202.569 Y29.227 E40.84608
G1 X202.82 Y30.132 E40.88981
G1 X202.991 Y31.059 E40.9337
G1 X203.086 Y32.189 E40.98651
G1 X203.1 Y32.83 E41.01636
G1 X203.099 Y201.895 E48.88874
G1 X203.089 Y202.64 E48.92343
G1 X203.035 Y203.577 E48.96713
G1 X202.904 Y204.471 E49.0092
G1 X202.688 Y205.384 E49.05289
G1 X202.38 Y206.308 E49.09824
G1 X202.019 Y207.136 E49.1403
G1 X201.553 Y207.99 E49.18561
G1 X201.031 Y208.771 E49.22935
G1 X200.465 Y209.475 E49.27141
G1 X199.817 Y210.152 E49.31505
G1 X199.082 Y210.793 E49.36046
G1 X198.351 Y211.324 E49.40253
G1 X197.548 Y211.807 E49.44616
G1 X196.671 Y212.232 E49.49154
G1 X195.827 Y212.552 E49.53357
G1 X194.889 Y212.816 E49.57895
G1 X193.962 Y212.988 E49.62285
G1 X192.811 Y213.086 E49.67664
G1 X192.179 Y213.1 E49.70607
G1 X43.07 Y213.099 E56.64921
G1 X42.354 Y213.089 E56.68256
G1 X41.418 Y213.035 E56.72621
G1 X40.524 Y212.903 E56.76829
G1 X39.611 Y212.687 E56.81198
G1 X38.687 Y212.378 E56.85735
G1 X37.86 Y212.017 E56.89936
G1 X37.005 Y211.55 E56.94473
G1 X36.225 Y211.028 E56.98843
G1 X35.521 Y210.462 E57.03049
G1 X34.819 Y209.787 E57.07584
G1 X34.226 Y209.106 E57.11789
G1 X33.674 Y208.347 E57.16159
G1 X33.174 Y207.511 E57.20695
G1 X32.766 Y206.666 E57.25064
G1 X32.446 Y205.822 E57.29267
G1 X32.183 Y204.884 E57.33803
G1 X32.011 Y203.955 E57.38203
G1 X31.913 Y202.776 E57.43711
G1 X31.9 Y202.158 E57.4659
G1 X31.901 Y33.031 E65.34116
G1 X31.911 Y32.348 E65.37297
G1 X31.966 Y31.411 E65.41667
G1 X32.098 Y30.518 E65.4587
G1 X32.315 Y29.605 E65.5024
G1 X32.612 Y28.714 E65.54614
G1 X33.002 Y27.822 E65.59147
G1 X33.453 Y27 E65.63513
G1 X33.976 Y26.22 E65.67885
G0 F6000 X33.664 Y25.969
G1 F1200 X34.231 Y25.265 E65.72095
G1 X34.955 Y24.513 E65.76955
G1 X35.636 Y23.92 E65.8116
G1 X36.424 Y23.346 E65.857
G1 X37.321 Y22.811 E65.90563
G1 X38.198 Y22.39 E65.95093
G1 X39.043 Y22.07 E65.993
G1 X40.049 Y21.789 E66.04164
G1 X41.016 Y21.611 E66.08742
G1 X42.155 Y21.515 E66.14065
G1 X42.83 Y21.5 E66.17208
G1 X191.951 Y21.501 E73.11578
G1 X192.684 Y21.513 E73.14992
G1 X193.655 Y21.572 E73.19522
G1 X194.584 Y21.711 E73.23896
G1 X195.532 Y21.939 E73.28436
G1 X196.454 Y22.249 E73.32965
G1 X197.379 Y22.655 E73.37669
G1 X198.171 Y23.09 E73.41876
G1 X198.98 Y23.628 E73.464
G1 X199.795 Y24.285 E73.51275
G1 X200.445 Y24.912 E73.5548
G1 X201.107 Y25.673 E73.60177
G1 X201.699 Y26.491 E73.64879
G1 X202.161 Y27.267 E73.69084
G1 X202.615 Y28.209 E73.73953
G1 X202.944 Y29.087 E73.78319
G1 X203.213 Y30.059 E73.83015
G1 X203.39 Y31.025 E73.87588
G1 X203.485 Y32.155 E73.92869
G1 X203.5 Y32.83 E73.96013
G1 X203.499 Y201.9 E81.83273
G1 X203.488 Y202.663 E81.86826
G1 X203.431 Y203.635 E81.9136
G1 X203.3 Y204.529 E81.95568
G1 X203.077 Y205.476 E82.00098
G1 X202.747 Y206.468 E82.04966
G1 X202.386 Y207.296 E82.09172
G1 X201.886 Y208.212 E82.14031
G1 X201.343 Y209.022 E82.18572
G1 X200.777 Y209.726 E82.22778
G1 X200.106 Y210.429 E82.27303
G1 X199.317 Y211.117 E82.32178
G1 X198.586 Y211.648 E82.36385
G1 X197.754 Y212.15 E82.4091
G1 X196.813 Y212.606 E82.45779
G1 X195.969 Y212.926 E82.49982
G1 X194.997 Y213.201 E82.54686
G1 X193.996 Y213.387 E82.59426
G1 X192.845 Y213.485 E82.64805
G1 X192.188 Y213.5 E82.67865
G1 X43.064 Y213.499 E89.62249
G1 X42.331 Y213.488 E89.65663
G1 X41.36 Y213.431 E89.70192
G1 X40.466 Y213.299 E89.744
G1 X39.484 Y213.066 E89.79099
G1 X38.527 Y212.745 E89.838
G1 X37.7 Y212.384 E89.88001
G1 X36.813 Y211.901 E89.92704
G1 X35.974 Y211.34 E89.97404
G1 X35.27 Y210.774 E90.0161
G1 X34.517 Y210.05 E90.06474
G1 X33.924 Y209.369 E90.10679
G1 X33.331 Y208.552 E90.1538
G1 X32.814 Y207.685 E90.2008
G1 X32.392 Y206.808 E90.24612
G1 X32.072 Y205.964 E90.28815
G1 X31.798 Y204.992 E90.33517
G1 X31.612 Y203.988 E90.38272
G1 X31.514 Y202.809 E90.43781
G1 X31.5 Y202.158 E90.46813
G1 X31.501 Y33.025 E98.34367
G1 X31.512 Y32.325 E98.37627
G1 X31.57 Y31.353 E98.42161
G1 X31.702 Y30.46 E98.46364
G1 X31.926 Y29.513 E98.50896
G1 X32.245 Y28.554 E98.55602
G1 X32.635 Y27.662 E98.60135
G1 X33.102 Y26.808 E98.64667
G1 X33.664 Y25.969 E98.69369
G1 F2700 E93.69369
;MESH:case1-Fusion004solid.stl
G0 F6000 X41.835 Y33.3
G0 X191.9 Y201.9
;TYPE:WALL-INNER
G1 F2700 E98.69369
G1 F1200 X191.9 Y33.1 E106.55373
G1 X43.1 Y33.1 E113.48248
G1 X43.1 Y201.9 E121.34252
G1 X191.9 Y201.9 E128.27127
G0 F6000 X192.3 Y202.3
;TYPE:WALL-OUTER
G1 F1200 X192.3 Y32.7 E136.16855
G1 X42.7 Y32.7 E143.13456
G1 X42.7 Y202.3 E151.03184
G1 X192.3 Y202.3 E157.99784
G0 F6000 X192.03 Y202.03
G0 X191.8 Y201.54
G0 X191.54 Y201.54
;TYPE:SKIN
G1 F1200 X43.46 Y201.54 E164.89307
G1 X43.46 Y33.46 E172.71958
G1 X191.54 Y33.46 E179.6148
G1 X191.54 Y201.54 E187.44131
G1 F2700 E182.44131
G0 F6000 X191.8 Y201.54
G0 X44.078 Y201.8
G0 X44.078 Y201.339
G1 F2700 E187.44131
G1 F1200 X43.659 Y200.92 E187.4689
G0 F6000 X43.659 Y200.354
G1 F1200 X44.644 Y201.339 E187.53377
G0 F6000 X45.21 Y201.339
G1 F1200 X43.659 Y199.788 E187.6359
G0 F6000 X43.659 Y199.223
G1 F1200 X45.775 Y201.339 E187.77525
G0 F6000 X46.341 Y201.339
G1 F1200 X43.659 Y198.657 E187.95186
G0 F6000 X43.659 Y198.091
G1 F1200 X46.907 Y201.339 E188.16575
G0 F6000 X47.473 Y201.339
G1 F1200 X43.659 Y197.526 E188.41687
G0 F6000 X43.659 Y196.96
G1 F1200 X48.038 Y201.339 E188.70524
G0 F6000 X48.604 Y201.339
G1 F1200 X43.659 Y196.394 E189.03087
G0 F6000 X43.659 Y195.828
G1 F1200 X49.17 Y201.339 E189.39378
G0 F6000 X49.735 Y201.339
G1 F1200 X43.659 Y195.263 E189.7939
G0 F6000 X43.659 Y194.697
G1 F1200 X50.301 Y201.339 E190.23129
G0 F6000 X50.867 Y201.339
G1 F1200 X43.659 Y194.131 E190.70594
G0 F6000 X43.659 Y193.566
G1 F1200 X51.432 Y201.339 E191.21781
G0 F6000 X51.998 Y201.339
G1 F1200 X43.659 Y193 E191.76695
G0 F6000 X43.659 Y192.434
G1 F1200 X52.564 Y201.339 E192.35336
G0 F6000 X53.129 Y201.339
G1 F1200 X43.659 Y191.869 E192.97697
G0 F6000 X43.659 Y191.303
G1 F1200 X53.695 Y201.339 E193.63786
G0 F6000 X54.261 Y201.339
G1 F1200 X43.659 Y190.737 E194.33602
G0 F6000 X43.659 Y190.172
G1 F1200 X54.826 Y201.339 E195.07139
G0 F6000 X55.392 Y201.339
G1 F1200 X43.659 Y189.606 E195.84402
G0 F6000 X43.659 Y189.04
G1 F1200 X55.958 Y201.339 E196.65393
G0 F6000 X56.523 Y201.339
G1 F1200 X43.659 Y188.475 E197.50105
G0 F6000 X43.659 Y187.909
G1 F1200 X57.089 Y201.339 E198.38544
G0 F6000 X57.655 Y201.339
G1 F1200 X43.659 Y187.343 E199.3071
G0 F6000 X43.659 Y186.778
G1 F1200 X58.221 Y201.339 E200.266
G0 F6000 X58.786 Y201.339
G1 F1200 X43.659 Y186.212 E201.26214
G0 F6000 X43.659 Y185.646
G1 F1200 X59.352 Y201.339 E202.29555
G0 F6000 X59.918 Y201.339
G1 F1200 X43.659 Y185.08 E203.36623
G0 F6000 X43.659 Y184.515
G1 F1200 X60.483 Y201.339 E204.47412
G0 F6000 X61.049 Y201.339
G1 F1200 X43.659 Y183.949 E205.61928
G0 F6000 X43.659 Y183.383
G1 F1200 X61.615 Y201.339 E206.80171
G0 F6000 X62.18 Y201.339
G1 F1200 X43.659 Y182.818 E208.02135
G0 F6000 X43.659 Y182.252
G1 F1200 X62.746 Y201.339 E209.27827
G0 F6000 X63.312 Y201.339
G1 F1200 X43.659 Y181.686 E210.57245
G0 F6000 X43.659 Y181.121
G1 F1200 X63.877 Y201.339 E211.90384
G0 F6000 X64.443 Y201.339
G1 F1200 X43.659 Y180.555 E213.2725
G0 F6000 X43.659 Y179.989
G1 F1200 X65.009 Y201.339 E214.67844
G0 F6000 X65.574 Y201.339
G1 F1200 X43.659 Y179.424 E216.12158
G0 F6000 X43.659 Y178.858
G1 F1200 X66.14 Y201.339 E217.60199
G0 F6000 X66.706 Y201.339
G1 F1200 X43.659 Y178.292 E219.11967
G0 F6000 X43.659 Y177.727
G1 F1200 X67.272 Y201.339 E220.6746
G0 F6000 X67.837 Y201.339
G1 F1200 X43.659 Y177.161 E222.26676
G0 F6000 X43.659 Y176.595
G1 F1200 X68.403 Y201.339 E223.89619
G0 F6000 X68.969 Y201.339
G1 F1200 X43.659 Y176.029 E225.5629
G0 F6000 X43.659 Y175.464
G1 F1200 X69.534 Y201.339 E227.26681
G0 F6000 X70.1 Y201.339
G1 F1200 X43.659 Y174.898 E229.008
G0 F6000 X43.659 Y174.332
G1 F1200 X70.666 Y201.339 E230.78645
G0 F6000 X71.231 Y201.339
G1 F1200 X43.659 Y173.767 E232.60212
G0 F6000 X43.659 Y173.201
G1 F1200 X71.797 Y201.339 E234.45505
G0 F6000 X72.363 Y201.339
G1 F1200 X43.659 Y172.635 E236.34526
G0 F6000 X43.659 Y172.07
G1 F1200 X72.928 Y201.339 E238.27267
G0 F6000 X73.494 Y201.339
G1 F1200 X43.659 Y171.504 E240.23736
G0 F6000 X43.659 Y170.938
G1 F1200 X74.06 Y201.339 E242.23932
G0 F6000 X74.625 Y201.339
G1 F1200 X43.659 Y170.373 E244.27848
G0 F6000 X43.659 Y169.807
G1 F1200 X75.191 Y201.339 E246.35492
G0 F6000 X75.757 Y201.339
G1 F1200 X43.659 Y169.241 E248.46863
G0 F6000 X43.659 Y168.676
G1 F1200 X76.322 Y201.339 E250.61954
G0 F6000 X76.888 Y201.339
G1 F1200 X43.659 Y168.11 E252.80773
G0 F6000 X43.659 Y167.544
G1 F1200 X77.454 Y201.339 E255.03318
G0 F6000 X78.02 Y201.339
G1 F1200 X43.659 Y166.979 E257.29588
G0 F6000 X43.659 Y166.413
G1 F1200 X78.585 Y201.339 E259.59582
G0 F6000 X79.151 Y201.339
G1 F1200 X43.659 Y165.847 E261.93303
G0 F6000 X43.659 Y165.281
G1 F1200 X79.717 Y201.339 E264.30751
G0 F6000 X80.282 Y201.339
G1 F1200 X43.659 Y164.716 E266.7192
G0 F6000 X43.659 Y164.15
G1 F1200 X80.848 Y201.339 E269.16816
G0 F6000 X81.414 Y201.339
G1 F1200 X43.659 Y163.584 E271.65439
G0 F6000 X43.659 Y163.019
G1 F1200 X81.979 Y201.339 E274.17782
G0 F6000 X82.545 Y201.339
G1 F1200 X43.659 Y162.453 E276.73853
G0 F6000 X43.659 Y161.887
G1 F1200 X83.111 Y201.339 E279.33651
G0 F6000 X83.676 Y201.339
G1 F1200 X43.659 Y161.322 E281.9717
G0 F6000 X43.659 Y160.756
G1 F1200 X84.242 Y201.339 E284.64416
G0 F6000 X84.808 Y201.339
G1 F1200 X43.659 Y160.19 E287.35389
G0 F6000 X43.659 Y159.625
G1 F1200 X85.373 Y201.339 E290.10083
G0 F6000 X85.939 Y201.339
G1 F1200 X43.659 Y159.059 E292.88504
G0 F6000 X43.659 Y158.493
G1 F1200 X86.505 Y201.339 E295.70653
G0 F6000 X87.071 Y201.339
G1 F1200 X43.659 Y157.928 E298.56525
G0 F6000 X43.659 Y157.362
G1 F1200 X87.636 Y201.339 E301.46121
G0 F6000 X88.202 Y201.339
G1 F1200 X43.659 Y156.796 E304.39444
G0 F6000 X43.659 Y156.231
G1 F1200 X88.768 Y201.339 E307.36491
G0 F6000 X89.333 Y201.339
G1 F1200 X43.659 Y155.665 E310.37262
G0 F6000 X43.659 Y155.099
G1 F1200 X89.899 Y201.339 E313.41761
G0 F6000 X90.465 Y201.339
G1 F1200 X43.659 Y154.533 E316.49986
G0 F6000 X43.659 Y153.968
G1 F1200 X91.03 Y201.339 E319.61932
G0 F6000 X91.596 Y201.339
G1 F1200 X43.659 Y153.402 E322.77605
G0 F6000 X43.659 Y152.836
G1 F1200 X92.162 Y201.339 E325.97006
G0 F6000 X92.727 Y201.339
G1 F1200 X43.659 Y152.271 E329.20127
G0 F6000 X43.659 Y151.705
G1 F1200 X93.293 Y201.339 E332.46976
G0 F6000 X93.859 Y201.339
G1 F1200 X43.659 Y151.139 E335.77551
G0 F6000 X43.659 Y150.574
G1 F1200 X94.424 Y201.339 E339.11847
G0 F6000 X94.99 Y201.339
G1 F1200 X43.659 Y150.008 E342.49871
G0 F6000 X43.659 Y149.442
G1 F1200 X95.556 Y201.339 E345.91621
G0 F6000 X96.121 Y201.339
G1 F1200 X43.659 Y148.877 E349.37093
G0 F6000 X43.659 Y148.311
G1 F1200 X96.687 Y201.339 E352.86291
G0 F6000 X97.253 Y201.339
G1 F1200 X43.659 Y147.745 E356.39217
G0 F6000 X43.659 Y147.18
G1 F1200 X97.819 Y201.339 E359.95866
G0 F6000 X98.384 Y201.339
G1 F1200 X43.659 Y146.614 E363.5624
G0 F6000 X43.659 Y146.048
G1 F1200 X98.95 Y201.339 E367.2034
G0 F6000 X99.516 Y201.339
G1 F1200 X43.659 Y145.482 E370.88168
G0 F6000 X43.659 Y144.917
G1 F1200 X100.081 Y201.339 E374.59717
G0 F6000 X100.647 Y201.339
G1 F1200 X43.659 Y144.351 E378.34992
G0 F6000 X43.659 Y143.785
G1 F1200 X101.213 Y201.339 E382.13995
G0 F6000 X101.778 Y201.339
G1 F1200 X43.659 Y143.22 E385.96719
G0 F6000 X43.659 Y142.654
G1 F1200 X102.344 Y201.339 E389.8317
G0 F6000 X102.91 Y201.339
G1 F1200 X43.659 Y142.088 E393.73348
G0 F6000 X43.659 Y141.523
G1 F1200 X103.475 Y201.339 E397.67246
G0 F6000 X104.041 Y201.339
G1 F1200 X43.659 Y140.957 E401.64872
G0 F6000 X43.659 Y140.391
G1 F1200 X104.607 Y201.339 E405.66225
G0 F6000 X105.172 Y201.339
G1 F1200 X43.659 Y139.826 E409.71299
G0 F6000 X43.659 Y139.26
G1 F1200 X105.738 Y201.339 E413.80099
G0 F6000 X106.304 Y201.339
G1 F1200 X43.659 Y138.694 E417.92627
G0 F6000 X43.659 Y138.129
G1 F1200 X106.869 Y201.339 E422.08876
G0 F6000 X107.435 Y201.339
G1 F1200 X43.659 Y137.563 E426.28852
G0 F6000 X43.659 Y136.997
G1 F1200 X108.001 Y201.339 E430.52555
G0 F6000 X108.567 Y201.339
G1 F1200 X43.659 Y136.432 E434.79982
G0 F6000 X43.659 Y135.866
G1 F1200 X109.132 Y201.339 E439.11133
G0 F6000 X109.698 Y201.339
G1 F1200 X43.659 Y135.3 E443.46011
