;FLAVOR:Marlin
;TIME:3911
;Filament used: 3.73885m
;Layer height: 0.28
;MINX:2.785
;MINY:86.294
;MINZ:0.28
;MAXX:218.374
;MAXY:167.727
;MAXZ:1.4
;Generated with Cura_SteamEngine 5.3.1
M140 S50
M105
M190 S50
M104 S200
M105
M109 S200
M82 ;absolute extrusion mode
; Ender 3 Custom Start G-code
G92 E0 ; Reset Extruder
G28 ; Home all axes
G1 Z2.0 F3000 ; Move Z Axis up little to prevent scratching of Heat Bed
G1 X0.1 Y20 Z0.3 F5000.0 ; Move to start position
G1 X0.1 Y200.0 Z0.3 F1500.0 E15 ; Draw the first line
G1 X0.4 Y200.0 Z0.3 F5000.0 ; Move to side a little
G1 X0.4 Y20 Z0.3 F1500.0 E30 ; Draw the second line
G92 E0 ; Reset Extruder
G1 Z2.0 F3000 ; Move Z Axis up little to prevent scratching of Heat Bed
G1 X5 Y20 Z0.3 F5000.0 ; Move over to prevent blob squish
G92 E0
G92 E0
G1 F2700 E-5
;LAYER_COUNT:5
;LAYER:0
M107
G0 F6000 X19.319 Y87.601 Z0.28
;TYPE:SKIRT
G1 F2700 E0
G1 F1200 X19.785 Y87.501 E0.02219
G1 X20.303 Y87.404 E0.04673
G1 X20.806 Y87.323 E0.07046
G1 X21.295 Y87.256 E0.09344
G1 X21.805 Y87.199 E0.11733
G1 X22.334 Y87.154 E0.14206
G1 X22.857 Y87.123 E0.16645
G1 X23.341 Y87.106 E0.189
G1 X24.399 Y87.094 E0.23827
G1 X193.214 Y87.095 E8.099
G1 X193.915 Y87.105 E8.13165
G1 X194.817 Y87.158 E8.17372
G1 X195.624 Y87.274 E8.21169
G1 X196.127 Y87.367 E8.2355
G1 X196.973 Y87.541 E8.27572
G1 X197.811 Y87.74 E8.31583
G1 X198.281 Y87.867 E8.3385
G1 X198.769 Y88.012 E8.3622
G1 X199.249 Y88.168 E8.38571
G1 X199.718 Y88.333 E8.40886
G1 X200.188 Y88.511 E8.43226
G1 X200.629 Y88.691 E8.45444
G1 X201.114 Y88.905 E8.47912
G1 X201.584 Y89.126 E8.50331
G1 X202.013 Y89.339 E8.52561
G1 X202.446 Y89.568 E8.54842
G1 X202.913 Y89.832 E8.5734
G1 X203.356 Y90.097 E8.59743
G1 X203.787 Y90.369 E8.62116
G1 X204.197 Y90.643 E8.64413
G1 X204.599 Y90.926 E8.66702
G1 X204.988 Y91.214 E8.68956
G1 X205.394 Y91.531 E8.71354
G1 X205.792 Y91.858 E8.73753
G1 X206.169 Y92.183 E8.7607
G1 X206.523 Y92.504 E8.78296
G1 X206.904 Y92.868 E8.80749
G1 X207.257 Y93.223 E8.8308
G1 X207.597 Y93.582 E8.85383
G1 X207.929 Y93.95 E8.87691
G1 X208.249 Y94.323 E8.89979
G1 X208.56 Y94.703 E8.92265
G1 X208.887 Y95.123 E8.94744
G1 X209.189 Y95.534 E8.97119
G1 X209.475 Y95.944 E8.99447
G1 X209.753 Y96.364 E9.01792
G1 X210.026 Y96.8 E9.04187
G1 X210.281 Y97.231 E9.06519
G1 X210.526 Y97.67 E9.0886
G1 X210.761 Y98.116 E9.11208
G1 X210.993 Y98.586 E9.13648
G1 X211.199 Y99.031 E9.15932
G1 X211.396 Y99.485 E9.18236
G1 X211.58 Y99.939 E9.20517
G1 X211.761 Y100.418 E9.22901
G1 X211.928 Y100.898 E9.25268
G1 X212.081 Y101.378 E9.27614
G1 X212.216 Y101.838 E9.29846
G1 X212.351 Y102.346 E9.32294
G1 X212.473 Y102.858 E9.34744
G1 X212.579 Y103.359 E9.37129
G1 X212.673 Y103.865 E9.39525
G1 X212.75 Y104.339 E9.41761
G1 X212.805 Y104.739 E9.43642
G1 X212.859 Y105.213 E9.45863
G1 X212.909 Y105.768 E9.48458
G1 X212.944 Y106.32 E9.51033
G1 X212.962 Y106.825 E9.53386
G1 X212.967 Y107.332 E9.55747
G1 X212.947 Y108.21 E9.59837
G1 X212.793 Y111.182 E9.73694
G1 X212.737 Y113.751 E9.85659
G1 X212.753 Y116.285 E9.97459
G1 X212.841 Y118.817 E10.09256
G1 X213.002 Y121.377 E10.212
G1 X213.232 Y123.882 E10.32913
G1 X213.535 Y126.409 E10.44764
G1 X213.904 Y128.885 E10.56421
G1 X214.355 Y131.42 E10.6841
G1 X214.868 Y133.901 E10.80207
G1 X215.455 Y136.373 E10.92038
G1 X216.114 Y138.843 E11.03942
G1 X216.821 Y141.265 E11.1569
G1 X216.953 Y141.76 E11.18076
G1 X217.08 Y142.289 E11.20609
G1 X217.187 Y142.787 E11.22981
G1 X217.267 Y143.213 E11.24999
G1 X217.35 Y143.727 E11.27424
G1 X217.426 Y144.288 E11.3006
G1 X217.481 Y144.784 E11.32383
G1 X217.52 Y145.238 E11.34505
G1 X217.551 Y145.747 E11.3688
G1 X217.569 Y146.251 E11.39228
G1 X217.574 Y146.762 E11.41608
G1 X217.567 Y147.249 E11.43875
G1 X217.548 Y147.744 E11.46182
G1 X217.515 Y148.267 E11.48622
G1 X217.466 Y148.807 E11.51147
G1 X217.41 Y149.287 E11.53397
G1 X217.345 Y149.753 E11.55588
G1 X217.263 Y150.254 E11.57952
G1 X217.161 Y150.788 E11.60484
G1 X217.057 Y151.263 E11.62748
G1 X216.942 Y151.735 E11.6501
G1 X216.807 Y152.236 E11.67426
G1 X216.672 Y152.694 E11.69649
G1 X216.532 Y153.131 E11.71786
G1 X216.35 Y153.649 E11.74343
G1 X216.155 Y154.161 E11.76894
G1 X215.955 Y154.649 E11.7935
G1 X215.771 Y155.066 E11.81472
G1 X215.574 Y155.486 E11.83632
G1 X215.344 Y155.949 E11.86039
G1 X215.099 Y156.412 E11.88478
G1 X214.856 Y156.844 E11.90786
G1 X214.589 Y157.292 E11.93215
G1 X214.316 Y157.724 E11.95594
G1 X214.046 Y158.129 E11.97861
G1 X213.765 Y158.53 E12.00141
G1 X213.445 Y158.962 E12.02644
G1 X213.15 Y159.339 E12.04873
G1 X212.85 Y159.704 E12.07073
G1 X212.518 Y160.09 E12.09444
G1 X212.154 Y160.492 E12.11969
G1 X211.797 Y160.865 E12.14374
G1 X211.137 Y161.509 E12.18667
G1 X210.714 Y161.892 E12.21324
G1 X210.31 Y162.237 E12.23798
G1 X209.944 Y162.535 E12.25996
G1 X209.581 Y162.817 E12.28136
G1 X209.147 Y163.136 E12.30644
G1 X208.697 Y163.449 E12.33197
G1 X208.317 Y163.701 E12.3532
G1 X207.951 Y163.932 E12.37335
G1 X207.502 Y164.199 E12.39768
G1 X207.048 Y164.454 E12.42192
G1 X206.58 Y164.701 E12.44656
G1 X206.152 Y164.913 E12.46881
G1 X205.732 Y165.11 E12.49041
G1 X205.25 Y165.322 E12.51493
G1 X204.722 Y165.536 E12.54145
G1 X204.247 Y165.714 E12.56507
G1 X203.787 Y165.875 E12.58777
G1 X203.323 Y166.024 E12.61046
G1 X202.833 Y166.167 E12.63423
G1 X202.327 Y166.302 E12.65861
G1 X201.843 Y166.419 E12.6818
G1 X201.059 Y166.586 E12.71913
G1 X200.327 Y166.729 E12.75385
G1 X199.434 Y166.863 E12.7959
G1 X198.66 Y166.914 E12.83202
G1 X198.053 Y166.927 E12.86029
G1 X28.87 Y166.926 E20.73816
G1 X27.808 Y166.909 E20.78762
G1 X27.332 Y166.89 E20.8098
G1 X26.83 Y166.857 E20.83323
G1 X26.327 Y166.812 E20.85674
G1 X25.824 Y166.755 E20.88031
G1 X25.359 Y166.69 E20.90218
G1 X24.843 Y166.604 E20.92654
G1 X24.313 Y166.502 E20.95167
G1 X23.819 Y166.394 E20.97521
G1 X23.369 Y166.284 E20.99678
G1 X22.901 Y166.158 E21.01935
G1 X22.4 Y166.01 E21.04368
G1 X21.877 Y165.84 E21.06928
G1 X21.387 Y165.666 E21.0935
G1 X20.912 Y165.484 E21.11718
G1 X20.49 Y165.31 E21.13844
G1 X20.066 Y165.124 E21.16
G1 X19.603 Y164.908 E21.18379
G1 X19.136 Y164.675 E21.20809
G1 X18.708 Y164.448 E21.23065
G1 X18.268 Y164.201 E21.25414
G1 X17.823 Y163.936 E21.27826
G1 X17.384 Y163.659 E21.30243
G1 X16.985 Y163.393 E21.32476
G1 X16.581 Y163.109 E21.34776
G1 X16.175 Y162.809 E21.37126
G1 X15.761 Y162.486 E21.39571
G1 X15.368 Y162.163 E21.4194
G1 X14.989 Y161.836 E21.44271
G1 X14.643 Y161.522 E21.46446
G1 X14.286 Y161.181 E21.48745
G1 X13.907 Y160.802 E21.51241
G1 X13.517 Y160.391 E21.53879
G1 X13.186 Y160.021 E21.56191
G1 X12.586 Y159.302 E21.60552
G1 X12.249 Y158.867 E21.63114
G1 X11.953 Y158.462 E21.6545
G1 X11.685 Y158.077 E21.67634
G1 X11.414 Y157.668 E21.69919
G1 X11.142 Y157.235 E21.723
G1 X10.883 Y156.798 E21.74665
G1 X10.634 Y156.351 E21.77048
G1 X10.398 Y155.903 E21.79405
G1 X10.167 Y155.437 E21.81827
G1 X9.965 Y155.001 E21.84065
G1 X9.775 Y154.565 E21.86279
G1 X9.587 Y154.104 E21.88598
G1 X9.392 Y153.584 E21.91184
G1 X9.224 Y153.098 E21.93578
G1 X9.077 Y152.639 E21.95822
G1 X8.944 Y152.186 E21.98021
G1 X8.813 Y151.694 E22.00391
G1 X8.686 Y151.165 E22.02925
G1 X8.58 Y150.671 E22.05277
G1 X8.5 Y150.246 E22.07291
G1 X8.416 Y149.726 E22.09744
G1 X8.34 Y149.164 E22.12384
G1 X8.284 Y148.659 E22.1475
G1 X8.246 Y148.211 E22.16844
G1 X8.217 Y147.724 E22.19116
G1 X8.198 Y147.207 E22.21525
G1 X8.192 Y146.686 E22.23951
G1 X8.212 Y145.815 E22.28008
G1 X8.366 Y142.843 E22.41865
G1 X8.422 Y140.275 E22.53826
G1 X8.406 Y137.741 E22.65625
G1 X8.318 Y135.209 E22.77422
G1 X8.158 Y132.666 E22.89287
G1 X7.927 Y130.14 E23.01098
G1 X7.623 Y127.613 E23.1295
G1 X7.253 Y125.122 E23.24676
G1 X6.8 Y122.577 E23.36713
G1 X6.3 Y120.158 E23.48215
G1 X5.702 Y117.636 E23.60284
G1 X5.053 Y115.205 E23.72
G1 X4.337 Y112.753 E23.83895
G1 X4.207 Y112.264 E23.86251
G1 X4.08 Y111.736 E23.8878
G1 X3.972 Y111.234 E23.91171
G1 X3.892 Y110.808 E23.93189
G1 X3.809 Y110.294 E23.95613
G1 X3.733 Y109.733 E23.98249
G1 X3.677 Y109.224 E24.00634
G1 X3.639 Y108.775 E24.02732
G1 X3.61 Y108.29 E24.04994
G1 X3.591 Y107.774 E24.07399
G1 X3.585 Y107.251 E24.09834
G1 X3.592 Y106.769 E24.12079
G1 X3.611 Y106.275 E24.14381
G1 X3.644 Y105.752 E24.16821
G1 X3.693 Y105.21 E24.19355
G1 X3.749 Y104.731 E24.21601
G1 X3.814 Y104.267 E24.23782
G1 X3.896 Y103.766 E24.26146
G1 X3.997 Y103.236 E24.28659
G1 X4.103 Y102.751 E24.3097
G1 X4.22 Y102.274 E24.33257
G1 X4.351 Y101.788 E24.35601
G1 X4.498 Y101.292 E24.3801
G1 X4.651 Y100.821 E24.40316
G1 X4.817 Y100.35 E24.42641
G1 X5.005 Y99.855 E24.45107
G1 X5.213 Y99.349 E24.47654
G1 X5.394 Y98.94 E24.49737
G1 X5.594 Y98.514 E24.51928
G1 X5.82 Y98.061 E24.54285
G1 X6.057 Y97.613 E24.56645
G1 X6.304 Y97.174 E24.58991
G1 X6.579 Y96.716 E24.61479
G1 X6.868 Y96.26 E24.63992
G1 X7.142 Y95.849 E24.66292
G1 X7.413 Y95.464 E24.68485
G1 X7.724 Y95.046 E24.70911
G1 X8.013 Y94.677 E24.73093
G1 X8.313 Y94.312 E24.75293
G1 X8.647 Y93.924 E24.77677
G1 X9.01 Y93.524 E24.80192
G1 X9.371 Y93.147 E24.82623
G1 X9.702 Y92.816 E24.84803
G1 X10.04 Y92.494 E24.86976
G1 X10.43 Y92.142 E24.89423
G1 X10.82 Y91.807 E24.91817
G1 X11.232 Y91.471 E24.94292
G1 X11.605 Y91.183 E24.96486
G1 X12.015 Y90.882 E24.98855
G1 X12.442 Y90.585 E25.01277
G1 X12.846 Y90.318 E25.03532
G1 X13.286 Y90.042 E25.0595
G1 X13.732 Y89.778 E25.08364
G1 X14.133 Y89.554 E25.10502
G1 X14.576 Y89.32 E25.12835
G1 X15.048 Y89.086 E25.15288
G1 X15.523 Y88.866 E25.17726
G1 X15.966 Y88.674 E25.19974
G1 X16.445 Y88.481 E25.22379
G1 X16.915 Y88.305 E25.24716
G1 X17.372 Y88.146 E25.26969
G1 X17.842 Y87.995 E25.29267
G1 X18.344 Y87.848 E25.31703
G1 X18.841 Y87.716 E25.34098
G1 X19.319 Y87.601 E25.36387
G0 F6000 X19.235 Y87.21
G1 F1200 X19.711 Y87.108 E25.38654
G1 X20.239 Y87.009 E25.41155
G1 X20.752 Y86.927 E25.43574
G1 X21.251 Y86.858 E25.4592
G1 X21.771 Y86.8 E25.48356
G1 X22.31 Y86.755 E25.50875
G1 X22.843 Y86.723 E25.53361
G1 X23.336 Y86.706 E25.55658
G1 X24.399 Y86.694 E25.60608
G1 X193.22 Y86.695 E33.46709
G1 X193.938 Y86.706 E33.50053
G1 X194.874 Y86.762 E33.54419
G1 X195.697 Y86.881 E33.58291
G1 X196.208 Y86.975 E33.60711
G1 X197.065 Y87.152 E33.64786
G1 X197.915 Y87.354 E33.68854
G1 X198.395 Y87.484 E33.71169
G1 X198.893 Y87.632 E33.73588
G1 X199.382 Y87.791 E33.75983
G1 X199.86 Y87.959 E33.78342
G1 X200.339 Y88.141 E33.80728
G1 X200.79 Y88.325 E33.82996
G1 X201.284 Y88.543 E33.8551
G1 X201.762 Y88.768 E33.8797
G1 X202.2 Y88.985 E33.90247
G1 X202.643 Y89.22 E33.92582
G1 X203.118 Y89.489 E33.95123
G1 X203.569 Y89.759 E33.97571
G1 X204.009 Y90.036 E33.99992
G1 X204.427 Y90.316 E34.02335
G1 X204.837 Y90.605 E34.04671
G1 X205.234 Y90.899 E34.06971
G1 X205.648 Y91.222 E34.09416
G1 X206.053 Y91.555 E34.11857
G1 X206.438 Y91.887 E34.14225
G1 X206.799 Y92.215 E34.16496
G1 X207.188 Y92.586 E34.18999
G1 X207.547 Y92.948 E34.21373
G1 X207.894 Y93.314 E34.23721
G1 X208.233 Y93.69 E34.26079
G1 X208.559 Y94.07 E34.2841
G1 X208.876 Y94.457 E34.30739
G1 X209.209 Y94.886 E34.33268
G1 X209.517 Y95.305 E34.3569
G1 X209.809 Y95.723 E34.38064
G1 X210.092 Y96.152 E34.40457
G1 X210.37 Y96.596 E34.42896
G1 X210.63 Y97.036 E34.45276
G1 X210.88 Y97.484 E34.47665
G1 X211.12 Y97.939 E34.5006
G1 X211.356 Y98.418 E34.52547
G1 X211.566 Y98.872 E34.54876
G1 X211.767 Y99.335 E34.57226
G1 X211.954 Y99.798 E34.59551
G1 X212.139 Y100.287 E34.61986
G1 X212.309 Y100.777 E34.64401
G1 X212.465 Y101.265 E34.66787
G1 X212.603 Y101.735 E34.69067
G1 X212.74 Y102.253 E34.71562
G1 X212.864 Y102.775 E34.74061
G1 X212.972 Y103.286 E34.76493
G1 X213.068 Y103.801 E34.78932
G1 X213.146 Y104.285 E34.81215
G1 X213.202 Y104.694 E34.83137
G1 X213.257 Y105.177 E34.85401
G1 X213.308 Y105.743 E34.88047
G1 X213.344 Y106.306 E34.90674
G1 X213.362 Y106.821 E34.93073
G1 X213.367 Y107.341 E34.95495
G1 X213.346 Y108.231 E34.9964
G1 X213.193 Y111.191 E35.13442
G1 X213.137 Y113.76 E35.25407
G1 X213.153 Y116.271 E35.37099
G1 X213.241 Y118.803 E35.48896
G1 X213.4 Y121.34 E35.60733
G1 X213.629 Y123.834 E35.72395
G1 X213.931 Y126.35 E35.84195
G1 X214.298 Y128.815 E35.95799
G1 X214.747 Y131.339 E36.07736
G1 X215.26 Y133.82 E36.19533
G1 X215.841 Y136.27 E36.31258
G1 X216.498 Y138.731 E36.43119
G1 X217.207 Y141.162 E36.5491
G1 X217.342 Y141.667 E36.57344
G1 X217.471 Y142.205 E36.5992
G1 X217.58 Y142.713 E36.6234
G1 X217.662 Y143.149 E36.64405
G1 X217.746 Y143.673 E36.66877
G1 X217.824 Y144.244 E36.6956
G1 X217.88 Y144.75 E36.71931
G1 X217.919 Y145.214 E36.74099
G1 X217.951 Y145.733 E36.7652
G1 X217.969 Y146.247 E36.78915
G1 X217.974 Y146.768 E36.81341
G1 X217.967 Y147.264 E36.83651
G1 X217.947 Y147.769 E36.86004
G1 X217.913 Y148.303 E36.88496
G1 X217.863 Y148.853 E36.91067
G1 X217.806 Y149.342 E36.9336
G1 X217.74 Y149.818 E36.95597
G1 X217.656 Y150.329 E36.98009
G1 X217.552 Y150.874 E37.00592
G1 X217.446 Y151.358 E37.02899
G1 X217.328 Y151.839 E37.05206
G1 X217.191 Y152.349 E37.07665
G1 X217.053 Y152.816 E37.09932
G1 X216.909 Y153.264 E37.12123
G1 X216.724 Y153.791 E37.14724
G1 X216.525 Y154.313 E37.17325
G1 X216.321 Y154.81 E37.19827
G1 X216.133 Y155.236 E37.21995
G1 X215.932 Y155.664 E37.24197
G1 X215.698 Y156.136 E37.2665
G1 X215.448 Y156.608 E37.29137
G1 X215.2 Y157.049 E37.31493
G1 X214.927 Y157.506 E37.33972
G1 X214.649 Y157.946 E37.36395
G1 X214.374 Y158.359 E37.38706
G1 X214.093 Y158.76 E37.40986
G1 X213.76 Y159.209 E37.43589
G1 X213.459 Y159.593 E37.45861
G1 X213.153 Y159.965 E37.48103
G1 X212.815 Y160.358 E37.50517
G1 X212.443 Y160.769 E37.53098
G1 X212.076 Y161.151 E37.55565
G1 X211.405 Y161.806 E37.59931
G1 X210.974 Y162.196 E37.62638
G1 X210.563 Y162.547 E37.65155
G1 X210.189 Y162.851 E37.67399
G1 X209.818 Y163.139 E37.69586
G1 X209.375 Y163.464 E37.72144
G1 X208.918 Y163.782 E37.74737
G1 X208.155 Y164.276 E37.78969
G1 X207.698 Y164.548 E37.81446
G1 X207.235 Y164.808 E37.83918
G1 X206.758 Y165.059 E37.86428
G1 X206.322 Y165.275 E37.88694
G1 X205.893 Y165.476 E37.909
G1 X205.4 Y165.693 E37.93408
G1 X204.862 Y165.911 E37.96111
G1 X204.379 Y166.092 E37.98513
G1 X203.909 Y166.256 E38.00831
G1 X203.435 Y166.408 E38.03148
G1 X202.936 Y166.553 E38.05568
G1 X202.421 Y166.691 E38.08051
G1 X201.926 Y166.81 E38.10421
G1 X201.136 Y166.979 E38.14183
G1 X200.386 Y167.125 E38.17741
G1 X199.493 Y167.259 E38.21946
G1 X198.669 Y167.314 E38.25791
G1 X198.053 Y167.327 E38.2866
G1 X28.864 Y167.326 E46.16475
G1 X27.792 Y167.309 E46.21467
G1 X27.306 Y167.289 E46.23732
G1 X26.794 Y167.255 E46.26122
G1 X26.282 Y167.209 E46.28515
G1 X25.769 Y167.151 E46.30919
G1 X25.293 Y167.085 E46.33157
G1 X24.767 Y166.997 E46.3564
G1 X24.228 Y166.893 E46.38196
G1 X23.724 Y166.783 E46.40598
G1 X23.265 Y166.67 E46.428
G1 X22.788 Y166.542 E46.45099
G1 X22.276 Y166.39 E46.47586
G1 X21.743 Y166.217 E46.50195
G1 X21.244 Y166.04 E46.52661
G1 X20.76 Y165.854 E46.55075
G1 X20.329 Y165.676 E46.57247
G1 X19.897 Y165.486 E46.59444
G1 X19.424 Y165.266 E46.61873
G1 X18.949 Y165.028 E46.64347
G1 X18.512 Y164.797 E46.66649
G1 X18.063 Y164.545 E46.69046
G1 X17.618 Y164.28 E46.71458
G1 X17.162 Y163.992 E46.73969
G1 X16.755 Y163.72 E46.76249
G1 X16.343 Y163.431 E46.78592
G1 X15.929 Y163.124 E46.80992
G1 X15.507 Y162.795 E46.83484
G1 X15.107 Y162.466 E46.85895
G1 X14.72 Y162.132 E46.88276
G1 X14.367 Y161.811 E46.90497
G1 X14.003 Y161.464 E46.92839
G1 X13.617 Y161.077 E46.95384
G1 X13.219 Y160.658 E46.98075
G1 X12.879 Y160.277 E47.00453
G1 X12.27 Y159.547 E47.0488
G1 X11.926 Y159.103 E47.07495
G1 X11.625 Y158.691 E47.09871
G1 X11.352 Y158.298 E47.12099
G1 X11.075 Y157.881 E47.1443
G1 X10.798 Y157.439 E47.16859
G1 X10.534 Y156.993 E47.19272
G1 X10.28 Y156.537 E47.21703
G1 X10.04 Y156.081 E47.24102
G1 X9.804 Y155.605 E47.26576
G1 X9.598 Y155.161 E47.28856
G1 X9.405 Y154.716 E47.31114
G1 X9.212 Y154.244 E47.33489
G1 X9.014 Y153.715 E47.36119
G1 X8.843 Y153.22 E47.38557
G1 X8.693 Y152.752 E47.40846
G1 X8.557 Y152.289 E47.43093
G1 X8.424 Y151.787 E47.45511
G1 X8.295 Y151.249 E47.48087
G1 X8.187 Y150.745 E47.50487
G1 X8.105 Y150.31 E47.52548
G1 X8.02 Y149.78 E47.55048
G1 X7.942 Y149.208 E47.57736
G1 X7.885 Y148.693 E47.60149
G1 X7.847 Y148.235 E47.62289
G1 X7.817 Y147.739 E47.64602
G1 X7.798 Y147.212 E47.67058
G1 X7.792 Y146.677 E47.69549
G1 X7.813 Y145.794 E47.73662
