;FLAVOR:Marlin
;TIME:7562
;Filament used: 7.76689m
;Layer height: 0.28
;MINX:17.956
;MINY:20.145
;MINZ:0.28
;MAXX:213.989
;MAXY:153.75
;MAXZ:1.4
;Generated with Cura_SteamEngine 5.3.1
M140 S50
M105
M190 S50
M104 S200
M105
M109 S200
M82 ;absolute extrusion mode
; Ender 3 Custom Start G-code
G92 E0 ; Reset Extruder
G28 ; Home all axes
G1 Z2.0 F3000 ; Move Z Axis up little to prevent scratching of Heat Bed
G1 X0.1 Y20 Z0.3 F5000.0 ; Move to start position
G1 X0.1 Y200.0 Z0.3 F1500.0 E15 ; Draw the first line
G1 X0.4 Y200.0 Z0.3 F5000.0 ; Move to side a little
G1 X0.4 Y20 Z0.3 F1500.0 E30 ; Draw the second line
G92 E0 ; Reset Extruder
G1 Z2.0 F3000 ; Move Z Axis up little to prevent scratching of Heat Bed
G1 X5 Y20 Z0.3 F5000.0 ; Move over to prevent blob squish
G92 E0
G92 E0
G1 F2700 E-5
;LAYER_COUNT:5
;LAYER:0
M107
G0 F6000 X24.136 Y41.176 Z0.28
;TYPE:SKIRT
G1 F2700 E0
G1 F1200 X24.949 Y40.784 E0.04203
G1 X25.794 Y40.466 E0.08407
G1 X26.664 Y40.223 E0.12613
G1 X27.53 Y40.062 E0.16715
G1 X28.574 Y39.915 E0.21624
G1 X181.933 Y21.086 E7.4109
G1 X182.53 Y21.022 E7.43885
G1 X183.423 Y20.966 E7.48052
G1 X184.616 Y20.945 E7.53608
G1 X186.12 Y20.945 E7.60611
G1 X186.961 Y20.956 E7.64527
G1 X187.863 Y21.009 E7.68735
G1 X188.756 Y21.142 E7.72939
G1 X189.634 Y21.353 E7.77144
G1 X190.49 Y21.64 E7.81348
G1 X191.317 Y22.003 E7.85553
G1 X192.109 Y22.437 E7.89758
G1 X192.859 Y22.94 E7.93963
G1 X193.562 Y23.507 E7.98169
G1 X194.212 Y24.133 E8.02371
G1 X194.805 Y24.815 E8.06579
G1 X195.334 Y25.547 E8.10785
G1 X195.797 Y26.323 E8.14992
G1 X196.189 Y27.136 E8.19195
G1 X196.618 Y28.34 E8.25147
G1 X196.848 Y29.141 E8.29027
G1 X209.657 Y76.942 E10.59461
G1 X209.837 Y77.655 E10.62885
G1 X210.012 Y78.498 E10.66895
G1 X210.203 Y79.662 E10.72387
G1 X210.671 Y82.278 E10.84762
G1 X211.18 Y84.728 E10.96413
G1 X211.767 Y87.196 E11.08226
G1 X212.645 Y90.422 E11.23794
G1 X212.778 Y90.877 E11.26001
G1 X212.994 Y91.754 E11.30207
G1 X213.131 Y92.646 E11.34409
G1 X213.189 Y93.548 E11.38618
G1 X213.167 Y94.45 E11.4282
G1 X213.065 Y95.348 E11.47028
G1 X212.878 Y96.257 E11.51349
G1 X212.735 Y96.821 E11.54058
G1 X199.873 Y144.823 E13.85461
G1 X199.683 Y145.498 E13.88726
G1 X199.401 Y146.355 E13.92927
G1 X199.043 Y147.185 E13.97136
G1 X198.613 Y147.979 E14.0134
G1 X198.115 Y148.732 E14.05544
G1 X197.552 Y149.438 E14.09749
G1 X196.929 Y150.092 E14.13955
G1 X196.25 Y150.688 E14.18162
G1 X195.522 Y151.222 E14.22366
G1 X194.749 Y151.689 E14.26571
G1 X193.938 Y152.086 E14.30776
G1 X193.094 Y152.409 E14.34984
G1 X192.226 Y152.657 E14.39187
G1 X191.339 Y152.827 E14.43393
G1 X190.046 Y152.932 E14.49433
G1 X188.965 Y152.95 E14.54467
G1 X187.304 Y152.949 E14.62202
G1 X186.676 Y152.94 E14.65126
G1 X185.774 Y152.887 E14.69334
G1 X184.611 Y152.765 E14.74779
G1 X31.284 Y133.937 E21.94096
G1 X30.628 Y133.847 E21.97179
G1 X29.739 Y133.685 E22.01387
G1 X28.869 Y133.445 E22.05589
G1 X28.023 Y133.129 E22.09795
G1 X27.208 Y132.739 E22.14002
G1 X26.431 Y132.278 E22.18209
G1 X25.698 Y131.751 E22.22412
G1 X25.014 Y131.161 E22.26619
G1 X24.385 Y130.513 E22.30824
G1 X23.816 Y129.812 E22.35028
G1 X23.312 Y129.063 E22.39232
G1 X22.875 Y128.272 E22.43439
G1 X22.51 Y127.446 E22.47644
G1 X22.22 Y126.591 E22.51848
G1 X22.006 Y125.713 E22.56056
G1 X21.871 Y124.82 E22.60262
G1 X21.815 Y123.91 E22.64507
G1 X21.801 Y123.058 E22.68475
G1 X21.8 Y104.678 E23.5406
G1 X21.763 Y102.072 E23.66196
G1 X21.654 Y99.506 E23.78155
G1 X21.476 Y96.999 E23.89858
G1 X21.224 Y94.45 E24.01785
G1 X20.904 Y91.951 E24.13517
G1 X20.51 Y89.446 E24.25324
G1 X20.044 Y86.939 E24.37198
G1 X19.518 Y84.487 E24.48875
G1 X19.227 Y83.302 E24.54557
G1 X19.03 Y82.453 E24.58615
G1 X18.865 Y81.565 E24.62821
G1 X18.771 Y80.454 E24.68013
G1 X18.756 Y79.815 E24.70989
G1 X18.757 Y50.694 E26.06589
G1 X18.767 Y50.011 E26.09769
G1 X18.82 Y49.109 E26.13977
G1 X18.953 Y48.216 E26.18181
G1 X19.164 Y47.338 E26.22385
G1 X19.452 Y46.482 E26.26591
G1 X19.815 Y45.655 E26.30796
G1 X20.249 Y44.863 E26.35002
G1 X20.752 Y44.113 E26.39207
G1 X21.319 Y43.41 E26.43412
G1 X21.946 Y42.76 E26.47617
G1 X22.628 Y42.168 E26.51823
G1 X23.36 Y41.639 E26.56028
G1 X24.136 Y41.176 E26.60236
G0 F6000 X23.931 Y40.832
G1 F1200 X24.808 Y40.41 E26.64768
G1 X25.686 Y40.081 E26.69133
G1 X26.591 Y39.83 E26.73507
G1 X27.474 Y39.666 E26.77689
G1 X28.525 Y39.518 E26.82631
G1 X181.89 Y20.688 E34.02125
G1 X182.505 Y20.623 E34.05005
G1 X183.416 Y20.566 E34.09255
G1 X184.609 Y20.545 E34.14811
G1 X186.125 Y20.545 E34.2187
G1 X186.984 Y20.557 E34.2587
G1 X187.922 Y20.613 E34.30246
G1 X188.815 Y20.746 E34.3445
G1 X189.727 Y20.964 E34.38816
G1 X190.651 Y21.274 E34.43354
G1 X191.509 Y21.652 E34.4772
G1 X192.332 Y22.105 E34.52094
G1 X193.082 Y22.608 E34.56299
G1 X193.839 Y23.219 E34.60829
G1 X194.514 Y23.871 E34.65199
G1 X195.107 Y24.553 E34.69407
G1 X195.678 Y25.342 E34.73943
G1 X196.141 Y26.118 E34.7815
G1 X196.566 Y27.002 E34.82717
G1 X196.995 Y28.206 E34.88669
G1 X197.234 Y29.037 E34.92695
G1 X210.045 Y76.844 E37.23159
G1 X210.229 Y77.574 E37.26665
G1 X210.407 Y78.433 E37.30749
G1 X210.597 Y79.592 E37.36218
G1 X211.063 Y82.197 E37.48541
G1 X211.572 Y84.647 E37.60193
G1 X212.153 Y87.091 E37.7189
G1 X213.029 Y90.31 E37.87424
G1 X213.166 Y90.781 E37.89708
G1 X213.389 Y91.693 E37.9408
G1 X213.53 Y92.62 E37.98446
G1 X213.589 Y93.558 E38.02822
G1 X213.567 Y94.46 E38.07024
G1 X213.457 Y95.429 E38.11565
G1 X213.266 Y96.355 E38.15967
G1 X213.121 Y96.925 E38.18706
G1 X200.258 Y144.931 E40.50127
G1 X200.063 Y145.623 E40.53475
G1 X199.781 Y146.48 E40.57676
G1 X199.395 Y147.375 E40.62215
G1 X198.947 Y148.2 E40.66586
G1 X198.449 Y148.953 E40.7079
G1 X197.842 Y149.714 E40.75323
G1 X197.193 Y150.393 E40.79696
G1 X196.487 Y151.011 E40.84065
G1 X195.759 Y151.545 E40.88269
G1 X194.925 Y152.048 E40.92804
G1 X194.081 Y152.46 E40.97178
G1 X193.204 Y152.794 E41.01548
G1 X192.336 Y153.042 E41.05751
G1 X191.371 Y153.226 E41.10325
G1 X190.078 Y153.331 E41.16366
G1 X188.972 Y153.35 E41.21517
G1 X187.298 Y153.349 E41.29312
G1 X186.653 Y153.339 E41.32315
G1 X185.732 Y153.285 E41.36611
G1 X184.562 Y153.162 E41.42089
G1 X31.23 Y134.333 E48.6143
G1 X30.556 Y134.241 E48.64598
G1 X29.667 Y134.079 E48.68806
G1 X28.729 Y133.82 E48.73337
G1 X27.85 Y133.49 E48.77709
G1 X27.035 Y133.1 E48.81916
G1 X26.197 Y132.603 E48.86453
G1 X25.464 Y132.076 E48.90656
G1 X24.727 Y131.44 E48.95189
G1 X24.074 Y130.765 E48.99562
G1 X23.505 Y130.064 E49.03767
G1 X22.98 Y129.286 E49.08137
G1 X22.509 Y128.434 E49.1267
G1 X22.144 Y127.608 E49.16875
G1 X21.831 Y126.686 E49.21409
G1 X21.61 Y125.773 E49.25783
G1 X21.475 Y124.88 E49.29988
G1 X21.415 Y123.917 E49.34481
G1 X21.401 Y123.058 E49.38482
G1 X21.4 Y104.678 E50.24067
G1 X21.363 Y102.078 E50.36175
G1 X21.254 Y99.523 E50.48083
G1 X21.077 Y97.027 E50.59734
G1 X20.827 Y94.501 E50.71554
G1 X20.507 Y92.002 E50.83285
G1 X20.115 Y89.508 E50.95041
G1 X19.651 Y87.012 E51.06862
G1 X19.127 Y84.571 E51.18488
G1 X18.837 Y83.392 E51.24141
G1 X18.637 Y82.526 E51.2828
G1 X18.466 Y81.599 E51.32669
G1 X18.372 Y80.488 E51.37861
G1 X18.356 Y79.815 E51.40995
G1 X18.357 Y50.688 E52.76623
G1 X18.368 Y49.988 E52.79883
G1 X18.424 Y49.05 E52.84258
G1 X18.557 Y48.157 E52.88462
G1 X18.785 Y47.21 E52.92998
G1 X19.073 Y46.354 E52.97204
G1 X19.464 Y45.463 E53.01734
G1 X19.917 Y44.64 E53.06109
G1 X20.42 Y43.89 E53.10314
G1 X21.031 Y43.132 E53.14847
G1 X21.658 Y42.482 E53.19052
G1 X22.366 Y41.866 E53.23422
G1 X23.155 Y41.295 E53.27957
G1 X23.931 Y40.832 E53.32165
G0 F6000 X23.726 Y40.488
G1 F1200 X24.668 Y40.035 E53.37032
G1 X25.546 Y39.706 E53.41398
G1 X26.518 Y39.437 E53.46094
G1 X27.418 Y39.27 E53.50357
G1 X28.476 Y39.121 E53.55332
G1 X181.848 Y20.29 E60.74859
G1 X182.48 Y20.224 E60.77818
G1 X183.409 Y20.166 E60.82152
G1 X184.602 Y20.145 E60.87708
G1 X186.131 Y20.145 E60.94828
G1 X187.008 Y20.158 E60.98912
G1 X187.981 Y20.217 E61.03451
G1 X188.874 Y20.35 E61.07655
G1 X189.82 Y20.575 E61.12183
G1 X190.812 Y20.908 E61.17055
G1 X191.67 Y21.286 E61.21421
G1 X192.555 Y21.773 E61.26125
G1 X193.305 Y22.276 E61.3033
G1 X194.117 Y22.931 E61.35187
G1 X194.792 Y23.583 E61.39557
G1 X195.431 Y24.318 E61.44092
G1 X196.022 Y25.137 E61.48795
G1 X196.485 Y25.913 E61.53003
G1 X196.927 Y26.829 E61.57739
G1 X197.372 Y28.072 E61.63886
G1 X197.62 Y28.933 E61.68059
G1 X210.433 Y76.746 E63.98552
G1 X210.621 Y77.493 E64.02138
G1 X210.802 Y78.368 E64.06299
G1 X210.991 Y79.522 E64.11744
G1 X211.455 Y82.116 E64.24015
G1 X211.964 Y84.566 E64.35666
G1 X212.539 Y86.986 E64.47249
G1 X213.413 Y90.198 E64.62749
G1 X213.555 Y90.686 E64.65116
G1 X213.778 Y91.598 E64.69487
G1 X213.929 Y92.595 E64.74183
G1 X213.989 Y93.568 E64.78722
G1 X213.967 Y94.47 E64.82923
G1 X213.849 Y95.51 E64.87797
G1 X213.654 Y96.454 E64.92286
G1 X213.507 Y97.029 E64.95049
G1 X200.643 Y145.039 E67.2649
G1 X200.443 Y145.748 E67.2992
G1 X200.161 Y146.605 E67.34121
G1 X199.747 Y147.566 E67.38993
G1 X199.281 Y148.421 E67.43527
G1 X198.783 Y149.174 E67.47731
G1 X198.155 Y149.963 E67.52427
G1 X197.456 Y150.694 E67.57136
G1 X196.724 Y151.334 E67.61664
G1 X195.966 Y151.888 E67.66036
G1 X195.132 Y152.391 E67.70571
G1 X194.223 Y152.834 E67.75279
G1 X193.314 Y153.179 E67.79807
G1 X192.446 Y153.427 E67.8401
G1 X191.403 Y153.625 E67.88954
G1 X190.11 Y153.73 E67.94994
G1 X188.979 Y153.75 E68.00261
G1 X187.292 Y153.749 E68.08117
G1 X186.63 Y153.738 E68.112
G1 X185.69 Y153.683 E68.15584
G1 X184.513 Y153.559 E68.21095
G1 X31.176 Y134.729 E75.4046
G1 X30.484 Y134.635 E75.43712
G1 X29.595 Y134.473 E75.4792
G1 X28.623 Y134.206 E75.52613
G1 X27.677 Y133.851 E75.57318
G1 X26.862 Y133.461 E75.61525
G1 X25.963 Y132.928 E75.66392
G1 X25.23 Y132.401 E75.70596
G1 X24.466 Y131.743 E75.75291
G1 X23.763 Y131.017 E75.79996
G1 X23.173 Y130.288 E75.84363
G1 X22.648 Y129.51 E75.88734
G1 X22.143 Y128.596 E75.93596
G1 X21.765 Y127.737 E75.97966
G1 X21.442 Y126.78 E76.02669
G1 X21.214 Y125.833 E76.07205
G1 X21.079 Y124.94 E76.1141
G1 X21.015 Y123.924 E76.16151
G1 X21.001 Y123.058 E76.20184
G1 X21 Y104.678 E77.05768
G1 X20.963 Y102.084 E77.17848
G1 X20.854 Y99.54 E77.29705
G1 X20.678 Y97.055 E77.41305
G1 X20.43 Y94.552 E77.53018
G1 X20.11 Y92.053 E77.64749
G1 X19.72 Y89.57 E77.76453
G1 X19.258 Y87.085 E77.88222
G1 X18.736 Y84.655 E77.99795
G1 X18.447 Y83.482 E78.05421
G1 X18.244 Y82.599 E78.09639
G1 X18.067 Y81.633 E78.14212
G1 X17.973 Y80.522 E78.19404
G1 X17.956 Y79.815 E78.22697
G1 X17.957 Y50.682 E79.58353
G1 X17.969 Y49.964 E79.61696
G1 X18.028 Y48.991 E79.66236
G1 X18.161 Y48.098 E79.7044
G1 X18.396 Y47.116 E79.75141
G1 X18.694 Y46.226 E79.79512
G1 X19.098 Y45.302 E79.84207
G1 X19.585 Y44.417 E79.88911
G1 X20.088 Y43.667 E79.93116
G1 X20.743 Y42.854 E79.97978
G1 X21.395 Y42.18 E80.02344
G1 X22.103 Y41.564 E80.06714
G1 X22.95 Y40.951 E80.11583
G1 X23.726 Y40.488 E80.1579
G1 F2700 E75.1579
;MESH:case4-Side1.stl(1)
G0 F6000 X29.578 Y49.4
G0 X199.174 Y79.545
;TYPE:WALL-INNER
G1 F2700 E80.1579
G1 F1200 X186.367 Y31.745 E82.46218
G1 X183.74 Y31.745 E82.5845
G1 X29.556 Y50.676 E89.81787
G1 X29.556 Y79.545 E91.16213
G1 X199.174 Y79.545 E99.06025
G0 F6000 X199.695 Y79.945
;TYPE:WALL-OUTER
G1 F1200 X186.674 Y31.345 E101.40309
G1 X183.716 Y31.345 E101.54082
G1 X29.156 Y50.322 E108.79183
G1 X29.156 Y79.945 E110.1712
G1 X199.695 Y79.945 E118.11221
G0 F6000 X199.356 Y79.685
G0 X198.704 Y79.445
G0 X198.704 Y79.185
;TYPE:SKIN
G1 F1200 X29.916 Y79.185 E125.97169
G1 X29.916 Y50.995 E127.28433
G1 X183.767 Y32.105 E134.50208
G1 X186.092 Y32.105 E134.61034
G1 X198.704 Y79.185 E136.87988
G1 F2700 E131.87988
G0 F6000 X198.704 Y79.445
G0 X198.944 Y79.369
G0 X186.238 Y31.914
G0 X185.605 Y31.845
G0 X185.605 Y32.304
G1 F2700 E136.87988
G1 F1200 X186.059 Y32.758 E136.90977
G0 F6000 X186.266 Y33.531
G1 F1200 X185.039 Y32.304 E136.99057
G0 F6000 X184.474 Y32.304
G1 F1200 X186.473 Y34.304 E137.12224
G0 F6000 X186.681 Y35.077
G1 F1200 X183.908 Y32.304 E137.30485
G0 F6000 X183.39 Y32.352
G1 F1200 X186.887 Y35.849 E137.53513
G0 F6000 X187.094 Y36.622
G1 F1200 X182.886 Y32.414 E137.81224
G0 F6000 X182.383 Y32.476
G1 F1200 X187.301 Y37.395 E138.13613
G0 F6000 X187.508 Y38.167
G1 F1200 X181.879 Y32.538 E138.50681
G0 F6000 X181.375 Y32.6
G1 F1200 X187.715 Y38.94 E138.92431
G0 F6000 X187.922 Y39.713
G1 F1200 X180.871 Y32.661 E139.38866
G0 F6000 X180.368 Y32.724
G1 F1200 X188.13 Y40.486 E139.8998
G0 F6000 X188.336 Y41.258
G1 F1200 X179.863 Y32.785 E140.45776
G0 F6000 X179.36 Y32.847
G1 F1200 X188.543 Y42.031 E141.06251
G0 F6000 X188.75 Y42.804
G1 F1200 X178.856 Y32.909 E141.71408
G0 F6000 X178.352 Y32.971
G1 F1200 X188.957 Y43.576 E142.41244
G0 F6000 X189.164 Y44.349
G1 F1200 X177.848 Y33.033 E143.15762
G0 F6000 X177.345 Y33.095
G1 F1200 X189.371 Y45.121 E143.94955
G0 F6000 X189.578 Y45.894
G1 F1200 X176.841 Y33.156 E144.78834
G0 F6000 X176.337 Y33.219
G1 F1200 X189.785 Y46.666 E145.67388
G0 F6000 X189.992 Y47.439
G1 F1200 X175.833 Y33.28 E146.60627
G0 F6000 X175.329 Y33.342
G1 F1200 X190.199 Y48.212 E147.58549
G0 F6000 X190.406 Y48.984
G1 F1200 X174.825 Y33.404 E148.61149
G0 F6000 X174.322 Y33.466
G1 F1200 X190.613 Y49.757 E149.68428
G0 F6000 X190.82 Y50.53
G1 F1200 X173.818 Y33.528 E150.80389
G0 F6000 X173.313 Y33.589
G1 F1200 X191.027 Y51.302 E151.97035
G0 F6000 X191.234 Y52.075
G1 F1200 X172.81 Y33.651 E153.18361
G0 F6000 X172.306 Y33.713
G1 F1200 X191.441 Y52.848 E154.44368
G0 F6000 X191.648 Y53.621
G1 F1200 X171.802 Y33.775 E155.75057
G0 F6000 X171.298 Y33.837
G1 F1200 X191.855 Y54.393 E157.10425
G0 F6000 X192.062 Y55.166
G1 F1200 X170.795 Y33.899 E158.50472
G0 F6000 X170.291 Y33.96
G1 F1200 X192.269 Y55.939 E159.95204
G0 F6000 X192.475 Y56.711
G1 F1200 X169.787 Y34.023 E161.44609
G0 F6000 X169.283 Y34.084
G1 F1200 X192.683 Y57.484 E162.98702
G0 F6000 X192.89 Y58.257
G1 F1200 X168.78 Y34.146 E164.57473
G0 F6000 X168.275 Y34.208
G1 F1200 X193.097 Y59.029 E166.20927
G0 F6000 X193.303 Y59.802
G1 F1200 X167.772 Y34.27 E167.89056
G0 F6000 X167.268 Y34.332
G1 F1200 X193.511 Y60.575 E169.61871
G0 F6000 X193.718 Y61.347
G1 F1200 X166.764 Y34.394 E171.39365
G0 F6000 X166.26 Y34.455
G1 F1200 X193.924 Y62.12 E173.2154
G0 F6000 X194.131 Y62.892
G1 F1200 X165.757 Y34.518 E175.08388
G0 F6000 X165.252 Y34.579
G1 F1200 X194.339 Y63.665 E176.99927
G0 F6000 X194.546 Y64.438
G1 F1200 X164.749 Y34.641 E178.96146
G0 F6000 X164.245 Y34.703
G1 F1200 X194.752 Y65.21 E180.97039
G0 F6000 X194.959 Y65.983
G1 F1200 X163.741 Y34.765 E183.02615
G0 F6000 X163.237 Y34.827
G1 F1200 X195.167 Y66.756 E185.12876
G0 F6000 X195.373 Y67.528
G1 F1200 X162.734 Y34.889 E187.2781
G0 F6000 X162.23 Y34.95
G1 F1200 X195.58 Y68.301 E189.47429
G0 F6000 X195.787 Y69.074
G1 F1200 X161.726 Y35.013 E191.71726
G0 F6000 X161.222 Y35.074
G1 F1200 X195.994 Y69.846 E194.00706
G0 F6000 X196.201 Y70.619
G1 F1200 X160.719 Y35.136 E196.34364
G0 F6000 X160.214 Y35.198
G1 F1200 X196.408 Y71.392 E198.72708
G0 F6000 X196.615 Y72.165
G1 F1200 X159.71 Y35.259 E201.15737
G0 F6000 X159.207 Y35.322
G1 F1200 X196.822 Y72.937 E203.63438
G0 F6000 X197.029 Y73.71
G1 F1200 X158.703 Y35.383 E206.15824
G0 F6000 X158.199 Y35.445
G1 F1200 X197.236 Y74.483 E208.72893
G0 F6000 X197.443 Y75.255
G1 F1200 X157.695 Y35.507 E211.3464
G0 F6000 X157.191 Y35.569
G1 F1200 X197.65 Y76.028 E214.0107
G0 F6000 X197.857 Y76.8
G1 F1200 X156.687 Y35.631 E216.72178
G0 F6000 X156.184 Y35.693
G1 F1200 X198.064 Y77.573 E219.47965
G0 F6000 X198.271 Y78.346
G1 F1200 X155.68 Y35.754 E222.28437
G0 F6000 X155.176 Y35.817
G1 F1200 X198.344 Y78.984 E225.12703
G0 F6000 X197.778 Y78.984
G1 F1200 X154.672 Y35.878 E227.96563
G0 F6000 X154.169 Y35.94
G1 F1200 X197.212 Y78.984 E230.80012
G0 F6000 X196.647 Y78.984
G1 F1200 X153.664 Y36.002 E233.63059
G0 F6000 X153.161 Y36.064
G1 F1200 X196.081 Y78.984 E236.45694
G0 F6000 X195.515 Y78.984
G1 F1200 X152.657 Y36.126 E239.27922
G0 F6000 X152.153 Y36.188
G1 F1200 X194.95 Y78.984 E242.09744
G0 F6000 X194.384 Y78.984
G1 F1200 X151.649 Y36.249 E244.91161
G0 F6000 X151.146 Y36.312
G1 F1200 X193.818 Y78.984 E247.72164
G0 F6000 X193.252 Y78.984
G1 F1200 X150.642 Y36.373 E250.52761
G0 F6000 X150.138 Y36.435
G1 F1200 X192.687 Y78.984 E253.32953
G0 F6000 X192.121 Y78.984
