;FLAVOR:Marlin
;TIME:5600
;Filament used: 5.01743m
;Layer height: 0.28
;MINX:18.343
;MINY:40.281
;MINZ:0.28
;MAXX:214.825
;MAXY:170.427
;MAXZ:6.72
;Generated with Cura_SteamEngine 5.3.1
M140 S50
M105
M190 S50
M104 S200
M105
M109 S200
M82 ;absolute extrusion mode
; Ender 3 Custom Start G-code
G92 E0 ; Reset Extruder
G28 ; Home all axes
G1 Z2.0 F3000 ; Move Z Axis up little to prevent scratching of Heat Bed
G1 X0.1 Y20 Z0.3 F5000.0 ; Move to start position
G1 X0.1 Y200.0 Z0.3 F1500.0 E15 ; Draw the first line
G1 X0.4 Y200.0 Z0.3 F5000.0 ; Move to side a little
G1 X0.4 Y20 Z0.3 F1500.0 E30 ; Draw the second line
G92 E0 ; Reset Extruder
G1 Z2.0 F3000 ; Move Z Axis up little to prevent scratching of Heat Bed
G1 X5 Y20 Z0.3 F5000.0 ; Move over to prevent blob squish
G92 E0
G92 E0
G1 F2700 E-5
;LAYER_COUNT:24
;LAYER:0
M107
G0 F6000 X28.232 Y42.766 Z0.28
;TYPE:SKIRT
G1 F2700 E0
G1 F1200 X29.008 Y42.304 E0.04205
G1 X29.822 Y41.913 E0.0841
G1 X30.667 Y41.594 E0.12616
G1 X31.537 Y41.352 E0.16821
G1 X32.425 Y41.188 E0.21026
G1 X33.548 Y41.094 E0.26273
G1 X34.155 Y41.081 E0.291
G1 X43.118 Y41.081 E0.70836
G1 X43.965 Y41.092 E0.7478
G1 X44.867 Y41.145 E0.78987
G1 X45.76 Y41.277 E0.83191
G1 X46.638 Y41.488 E0.87395
G1 X47.494 Y41.776 E0.91601
G1 X48.322 Y42.138 E0.95809
G1 X49.114 Y42.572 E1.00014
G1 X49.864 Y43.075 E1.04219
G1 X50.567 Y43.641 E1.08422
G1 X51.38 Y44.443 E1.13739
G1 X52.247 Y45.4 E1.19752
G1 X53.999 Y47.28 E1.31718
G1 X55.792 Y49.098 E1.43608
G1 X57.63 Y50.86 E1.55464
G1 X59.489 Y52.543 E1.67141
G1 X61.452 Y54.221 E1.79166
G1 X63.42 Y55.811 E1.90947
G1 X65.418 Y57.333 E2.02642
G1 X67.514 Y58.838 E2.14657
G1 X69.573 Y60.229 E2.26228
G1 X71.742 Y61.607 E2.38193
G1 X73.951 Y62.925 E2.50171
G1 X76.134 Y64.145 E2.61816
G1 X78.384 Y65.32 E2.73635
G1 X80.69 Y66.443 E2.85579
G1 X82.976 Y67.476 E2.9726
G1 X85.369 Y68.476 E3.09336
G1 X87.691 Y69.372 E3.20925
G1 X90.106 Y70.226 E3.32853
G1 X92.512 Y71.001 E3.44623
G1 X94.95 Y71.711 E3.56447
G1 X97.43 Y72.358 E3.68382
G1 X99.918 Y72.931 E3.8027
G1 X102.353 Y73.42 E3.91835
G1 X104.906 Y73.859 E4.03897
G1 X107.364 Y74.21 E4.15459
G1 X109.933 Y74.502 E4.27498
G1 X112.469 Y74.719 E4.3935
G1 X114.961 Y74.861 E4.50973
G1 X117.531 Y74.935 E4.62945
G1 X120.064 Y74.937 E4.74739
G1 X122.594 Y74.866 E4.86525
G1 X125.138 Y74.723 E4.98389
G1 X127.668 Y74.509 E5.10212
G1 X130.2 Y74.222 E5.22078
G1 X132.694 Y73.868 E5.33807
G1 X135.217 Y73.437 E5.45726
G1 X137.718 Y72.936 E5.57603
G1 X140.141 Y72.381 E5.69177
G1 X142.638 Y71.732 E5.81191
G1 X145.085 Y71.022 E5.93055
G1 X147.47 Y70.256 E6.04719
G1 X149.886 Y69.404 E6.16648
G1 X152.273 Y68.486 E6.28557
G1 X154.605 Y67.512 E6.40324
G1 X156.928 Y66.464 E6.52191
G1 X159.19 Y65.365 E6.63901
G1 X161.438 Y64.194 E6.75704
G1 X163.658 Y62.955 E6.87542
G1 X165.874 Y61.636 E6.9955
G1 X168.008 Y60.282 E7.11319
G1 X170.092 Y58.877 E7.23022
G1 X172.179 Y57.381 E7.34979
G1 X174.17 Y55.866 E7.46628
G1 X176.177 Y54.249 E7.5863
G1 X178.095 Y52.611 E7.70374
G1 X180 Y50.889 E7.82332
G1 X181.806 Y49.161 E7.9397
G1 X183.608 Y47.337 E8.0591
G1 X185.388 Y45.43 E8.18057
G1 X186.232 Y44.487 E8.23949
G1 X186.864 Y43.841 E8.28158
G1 X187.55 Y43.254 E8.32362
G1 X188.286 Y42.73 E8.36569
G1 X189.065 Y42.273 E8.40774
G1 X189.881 Y41.886 E8.44979
G1 X190.728 Y41.574 E8.49183
G1 X191.6 Y41.337 E8.5339
G1 X192.489 Y41.179 E8.57595
G1 X193.548 Y41.094 E8.62542
G1 X194.155 Y41.081 E8.65369
G1 X203.25 Y41.082 E9.07719
G1 X203.948 Y41.091 E9.10969
G1 X204.849 Y41.142 E9.15171
G1 X205.743 Y41.274 E9.19379
G1 X206.621 Y41.483 E9.23582
G1 X207.478 Y41.77 E9.2779
G1 X208.305 Y42.131 E9.31992
G1 X209.098 Y42.564 E9.36199
G1 X209.849 Y43.065 E9.40403
G1 X210.553 Y43.631 E9.44609
G1 X211.204 Y44.257 E9.48815
G1 X211.797 Y44.938 E9.53019
G1 X212.327 Y45.669 E9.57224
G1 X212.791 Y46.444 E9.6143
G1 X213.185 Y47.257 E9.65637
G1 X213.505 Y48.101 E9.6984
G1 X213.749 Y48.971 E9.74047
G1 X213.915 Y49.859 E9.78254
G1 X214.012 Y51.004 E9.83604
G1 X214.025 Y51.611 E9.86431
G1 X214.024 Y100.733 E12.15164
G1 X214.013 Y101.44 E12.18456
G1 X213.959 Y102.341 E12.22659
G1 X213.825 Y103.234 E12.26864
G1 X213.604 Y104.143 E12.3122
G1 X212.779 Y106.966 E12.44915
G1 X212.128 Y109.465 E12.5694
G1 X211.568 Y111.887 E12.68515
G1 X211.062 Y114.414 E12.80515
G1 X210.628 Y116.939 E12.92445
G1 X210.274 Y119.416 E13.04096
G1 X209.989 Y121.92 E13.15831
G1 X209.769 Y124.491 E13.27847
G1 X209.626 Y126.986 E13.39484
G1 X209.553 Y129.554 E13.51446
G1 X209.552 Y130.934 E13.57872
G1 X209.543 Y131.132 E13.58795
G1 X209.542 Y158.831 E14.87773
G1 X209.532 Y159.558 E14.91159
G1 X209.48 Y160.46 E14.95366
G1 X209.348 Y161.353 E14.99569
G1 X209.137 Y162.232 E15.03778
G1 X208.85 Y163.088 E15.07982
G1 X208.488 Y163.915 E15.12186
G1 X208.054 Y164.707 E15.16391
G1 X207.552 Y165.458 E15.20598
G1 X206.986 Y166.161 E15.248
G1 X206.359 Y166.812 E15.29009
G1 X205.678 Y167.404 E15.3321
G1 X204.947 Y167.934 E15.37415
G1 X204.171 Y168.397 E15.41622
G1 X203.358 Y168.79 E15.45827
G1 X202.513 Y169.11 E15.50035
G1 X201.644 Y169.353 E15.54236
G1 X200.756 Y169.518 E15.58442
G1 X199.62 Y169.614 E15.6375
G1 X199.013 Y169.627 E15.66578
G1 X29.918 Y169.626 E23.53955
G1 X29.22 Y169.617 E23.57205
G1 X28.319 Y169.566 E23.61407
G1 X27.425 Y169.434 E23.65615
G1 X26.547 Y169.225 E23.69818
G1 X25.69 Y168.938 E23.74026
G1 X24.863 Y168.577 E23.78228
G1 X24.07 Y168.144 E23.82435
G1 X23.319 Y167.643 E23.86639
G1 X22.615 Y167.077 E23.90845
G1 X21.964 Y166.451 E23.9505
G1 X21.371 Y165.77 E23.99255
G1 X20.841 Y165.039 E24.0346
G1 X20.377 Y164.264 E24.07666
G1 X19.983 Y163.451 E24.11872
G1 X19.663 Y162.607 E24.16075
G1 X19.419 Y161.737 E24.20283
G1 X19.253 Y160.849 E24.24489
G1 X19.156 Y159.694 E24.29886
G1 X19.143 Y159.085 E24.32723
G1 X19.144 Y131.461 E25.61352
G1 X19.156 Y130.752 E25.64654
G1 X19.212 Y129.851 E25.68857
G1 X19.346 Y128.958 E25.73062
G1 X19.565 Y128.063 E25.77352
G1 X20.392 Y125.235 E25.91072
G1 X21.038 Y122.752 E26.03019
G1 X21.6 Y120.321 E26.14637
G1 X22.106 Y117.794 E26.26638
G1 X22.54 Y115.269 E26.38568
G1 X22.894 Y112.792 E26.50219
G1 X23.179 Y110.288 E26.61954
G1 X23.399 Y107.717 E26.73969
G1 X23.542 Y105.222 E26.85606
G1 X23.615 Y102.654 E26.97568
G1 X23.616 Y101.274 E27.03994
G1 X23.625 Y101.076 E27.04917
G1 X23.626 Y51.802 E29.34358
G1 X23.636 Y51.137 E29.37454
G1 X23.69 Y50.235 E29.41662
G1 X23.823 Y49.342 E29.45866
G1 X24.034 Y48.464 E29.50071
G1 X24.323 Y47.608 E29.54278
G1 X24.686 Y46.781 E29.58483
G1 X25.12 Y45.99 E29.62684
G1 X25.623 Y45.239 E29.66893
G1 X26.191 Y44.537 E29.71098
G1 X26.818 Y43.887 E29.75303
G1 X27.5 Y43.295 E29.79509
G1 X28.232 Y42.766 E29.83714
G0 F6000 X28.027 Y42.422
G1 F1200 X28.803 Y41.96 E29.87919
G1 X29.649 Y41.552 E29.92293
G1 X30.56 Y41.209 E29.96826
G1 X31.464 Y40.959 E30.01193
G1 X32.392 Y40.789 E30.05586
G1 X33.539 Y40.694 E30.10945
G1 X34.146 Y40.681 E30.13772
G1 X43.123 Y40.681 E30.55573
G1 X43.988 Y40.693 E30.59601
G1 X44.925 Y40.749 E30.63972
G1 X45.818 Y40.881 E30.68175
G1 X46.766 Y41.109 E30.72716
G1 X47.654 Y41.409 E30.7708
G1 X48.482 Y41.771 E30.81288
G1 X49.306 Y42.221 E30.8566
G1 X50.115 Y42.763 E30.90194
G1 X50.818 Y43.329 E30.94397
G1 X51.676 Y44.174 E31.00004
G1 X52.54 Y45.127 E31.05994
G1 X54.292 Y47.007 E31.1796
G1 X56.069 Y48.809 E31.29744
G1 X57.907 Y50.571 E31.416
G1 X59.749 Y52.239 E31.53172
G1 X61.712 Y53.917 E31.65196
G1 X63.662 Y55.493 E31.76871
G1 X65.651 Y57.008 E31.88514
G1 X67.747 Y58.513 E32.00529
G1 X69.787 Y59.891 E32.11992
G1 X71.947 Y61.263 E32.23907
G1 X74.156 Y62.581 E32.35885
G1 X76.319 Y63.79 E32.47423
G1 X78.559 Y64.96 E32.59191
G1 X80.855 Y66.078 E32.71082
G1 X83.141 Y67.112 E32.82765
G1 X85.513 Y68.103 E32.94735
G1 X87.832 Y68.998 E33.0631
G1 X90.229 Y69.845 E33.18148
G1 X92.635 Y70.62 E33.29918
G1 X95.058 Y71.326 E33.41669
G1 X97.52 Y71.968 E33.53517
G1 X100.008 Y72.541 E33.65405
G1 X102.428 Y73.027 E33.76899
G1 X104.963 Y73.463 E33.88876
G1 X107.421 Y73.814 E34.00438
G1 X109.967 Y74.103 E34.12369
G1 X112.503 Y74.321 E34.24221
G1 X114.973 Y74.461 E34.35741
G1 X117.543 Y74.535 E34.47713
G1 X120.053 Y74.537 E34.59401
G1 X122.583 Y74.466 E34.71186
G1 X125.104 Y74.325 E34.82943
G1 X127.634 Y74.111 E34.94766
G1 X130.144 Y73.826 E35.06529
G1 X132.638 Y73.472 E35.18258
G1 X135.136 Y73.045 E35.30059
G1 X137.629 Y72.546 E35.41898
G1 X140.052 Y71.991 E35.53472
G1 X142.537 Y71.345 E35.65428
G1 X144.963 Y70.641 E35.77191
G1 X147.348 Y69.875 E35.88855
G1 X149.746 Y69.03 E36.00694
G1 X152.129 Y68.113 E36.12583
G1 X154.441 Y67.147 E36.24251
G1 X156.754 Y66.103 E36.36067
G1 X159.015 Y65.005 E36.47771
G1 X161.253 Y63.839 E36.59522
G1 X163.453 Y62.611 E36.71254
G1 X165.669 Y61.292 E36.83262
G1 X167.784 Y59.95 E36.94926
G1 X169.868 Y58.545 E37.06629
G1 X171.946 Y57.056 E37.18533
G1 X173.928 Y55.548 E37.30129
G1 X175.917 Y53.945 E37.42024
G1 X177.835 Y52.307 E37.53769
G1 X179.723 Y50.6 E37.65621
G1 X181.529 Y48.872 E37.7726
G1 X183.323 Y47.056 E37.89146
G1 X185.09 Y45.163 E38.01204
G1 X185.946 Y44.207 E38.07179
G1 X186.578 Y43.561 E38.11388
G1 X187.318 Y42.928 E38.15922
G1 X188.054 Y42.404 E38.20129
G1 X188.863 Y41.928 E38.245
G1 X189.743 Y41.511 E38.29034
G1 X190.623 Y41.188 E38.33399
G1 X191.53 Y40.943 E38.37774
G1 X192.457 Y40.78 E38.42157
G1 X193.539 Y40.694 E38.47211
G1 X194.155 Y40.681 E38.5008
G1 X203.255 Y40.682 E38.92453
G1 X203.971 Y40.692 E38.95787
G1 X204.907 Y40.746 E39.00153
G1 X205.801 Y40.878 E39.04361
G1 X206.714 Y41.094 E39.0873
G1 X207.638 Y41.403 E39.13266
G1 X208.465 Y41.764 E39.17468
G1 X209.32 Y42.231 E39.22005
G1 X210.1 Y42.753 E39.26375
G1 X210.804 Y43.319 E39.30581
G1 X211.506 Y43.994 E39.35116
G1 X212.099 Y44.675 E39.39321
G1 X212.651 Y45.434 E39.43691
G1 X213.151 Y46.27 E39.48227
G1 X213.559 Y47.115 E39.52596
G1 X213.879 Y47.959 E39.56799
G1 X214.142 Y48.897 E39.61335
G1 X214.314 Y49.825 E39.6573
G1 X214.411 Y50.97 E39.71081
G1 X214.425 Y51.611 E39.74066
G1 X214.424 Y100.739 E42.02827
G1 X214.412 Y101.464 E42.06203
G1 X214.355 Y102.4 E42.10569
G1 X214.214 Y103.328 E42.1494
G1 X213.988 Y104.255 E42.19383
G1 X213.163 Y107.078 E42.33078
G1 X212.515 Y109.566 E42.4505
G1 X211.958 Y111.977 E42.56572
G1 X211.454 Y114.493 E42.6852
G1 X211.022 Y117.007 E42.80398
G1 X210.67 Y119.473 E42.91997
G1 X210.388 Y121.954 E43.03624
G1 X210.167 Y124.525 E43.1564
G1 X210.026 Y126.997 E43.27169
G1 X209.953 Y129.565 E43.39132
G1 X209.952 Y130.952 E43.4559
G1 X209.943 Y131.15 E43.46513
G1 X209.942 Y158.837 E44.75435
G1 X209.931 Y159.581 E44.789
G1 X209.876 Y160.518 E44.83271
G1 X209.744 Y161.411 E44.87474
G1 X209.526 Y162.325 E44.9185
G1 X209.229 Y163.215 E44.96218
G1 X208.839 Y164.107 E45.00752
G1 X208.387 Y164.929 E45.0512
G1 X207.864 Y165.709 E45.09493
G1 X207.298 Y166.412 E45.13695
G1 X206.621 Y167.114 E45.18236
G1 X205.913 Y167.728 E45.226
G1 X205.152 Y168.278 E45.26972
G1 X204.376 Y168.741 E45.3118
G1 X203.5 Y169.164 E45.3571
G1 X202.655 Y169.484 E45.39917
G1 X201.717 Y169.746 E45.44452
G1 X200.79 Y169.917 E45.48841
G1 X199.654 Y170.013 E45.5415
G1 X199.022 Y170.027 E45.57093
G1 X29.913 Y170.026 E53.44536
G1 X29.197 Y170.016 E53.4787
G1 X28.261 Y169.962 E53.52236
G1 X27.367 Y169.83 E53.56444
G1 X26.454 Y169.614 E53.60812
G1 X25.53 Y169.305 E53.65349
G1 X24.703 Y168.944 E53.69551
G1 X23.848 Y168.477 E53.74087
G1 X23.068 Y167.955 E53.78457
G1 X22.364 Y167.389 E53.82664
G1 X21.662 Y166.714 E53.87198
G1 X21.069 Y166.033 E53.91403
G1 X20.517 Y165.274 E53.95773
G1 X20.017 Y164.438 E54.00309
G1 X19.609 Y163.593 E54.04678
G1 X19.289 Y162.749 E54.08881
G1 X19.026 Y161.811 E54.13418
G1 X18.854 Y160.882 E54.17817
G1 X18.756 Y159.703 E54.23326
G1 X18.743 Y159.085 E54.26204
G1 X18.744 Y131.454 E55.54866
G1 X18.757 Y130.727 E55.58251
G1 X18.816 Y129.792 E55.62614
G1 X18.957 Y128.863 E55.66989
G1 X19.181 Y127.951 E55.71362
G1 X20.008 Y125.123 E55.85082
G1 X20.651 Y122.651 E55.96976
G1 X21.21 Y120.231 E56.08541
G1 X21.714 Y117.715 E56.20489
G1 X22.146 Y115.201 E56.32367
G1 X22.498 Y112.735 E56.43966
G1 X22.78 Y110.254 E56.55593
G1 X23.001 Y107.683 E56.67609
G1 X23.142 Y105.211 E56.79138
G1 X23.215 Y102.643 E56.91101
G1 X23.216 Y101.256 E56.97559
G1 X23.225 Y101.058 E56.98482
G1 X23.226 Y51.796 E59.27867
G1 X23.237 Y51.113 E59.31047
G1 X23.294 Y50.176 E59.35418
G1 X23.427 Y49.283 E59.39622
G1 X23.655 Y48.336 E59.44158
G1 X23.944 Y47.48 E59.48365
G1 X24.335 Y46.589 E59.52896
G1 X24.769 Y45.798 E59.57097
G1 X25.312 Y44.987 E59.61642
G1 X25.903 Y44.259 E59.66008
G1 X26.53 Y43.609 E59.70213
G1 X27.238 Y42.993 E59.74583
G1 X28.027 Y42.422 E59.79118
G0 F6000 X27.822 Y42.078
G1 F1200 X28.598 Y41.616 E59.83324
G1 X29.508 Y41.178 E59.88026
G1 X30.453 Y40.823 E59.92727
G1 X31.357 Y40.573 E59.97094
G1 X32.359 Y40.39 E60.01837
G1 X33.53 Y40.294 E60.07308
G1 X34.137 Y40.281 E60.10135
G1 X43.129 Y40.281 E60.52006
G1 X44.012 Y40.294 E60.56118
G1 X44.983 Y40.353 E60.60647
G1 X45.912 Y40.492 E60.65021
G1 X46.86 Y40.72 E60.69562
G1 X47.814 Y41.042 E60.7425
G1 X48.642 Y41.404 E60.78458
G1 X49.498 Y41.87 E60.82996
G1 X50.366 Y42.451 E60.8786
G1 X51.069 Y43.017 E60.92062
G1 X51.972 Y43.905 E60.9796
G1 X52.833 Y44.854 E61.03926
G1 X54.585 Y46.734 E61.15892
G1 X56.346 Y48.52 E61.27571
G1 X58.183 Y50.283 E61.39427
G1 X60.009 Y51.935 E61.50893
G1 X61.972 Y53.613 E61.62918
G1 X63.904 Y55.175 E61.74487
G1 X65.884 Y56.683 E61.86076
G1 X67.98 Y58.188 E61.98091
G1 X70.001 Y59.553 E62.09447
G1 X72.152 Y60.919 E62.21312
G1 X74.361 Y62.237 E62.3329
G1 X76.504 Y63.435 E62.44722
G1 X78.734 Y64.6 E62.56437
G1 X81.03 Y65.718 E62.68329
G1 X83.295 Y66.743 E62.79905
G1 X85.657 Y67.73 E62.91825
G1 X87.973 Y68.624 E63.03385
G1 X90.352 Y69.464 E63.15133
G1 X92.758 Y70.239 E63.26903
G1 X95.166 Y70.941 E63.38583
G1 X97.61 Y71.578 E63.50343
G1 X100.098 Y72.151 E63.62231
G1 X102.503 Y72.634 E63.73654
G1 X105.02 Y73.067 E63.85546
G1 X107.478 Y73.418 E63.97108
G1 X110.001 Y73.704 E64.08931
G1 X112.537 Y73.923 E64.20784
G1 X114.985 Y74.061 E64.32201
G1 X117.555 Y74.135 E64.44173
G1 X120.042 Y74.137 E64.55753
G1 X122.572 Y74.066 E64.67539
G1 X125.07 Y73.927 E64.79188
G1 X127.6 Y73.713 E64.91011
G1 X130.088 Y73.43 E65.02671
G1 X132.582 Y73.076 E65.144
G1 X135.055 Y72.653 E65.26083
G1 X137.54 Y72.156 E65.37883
G1 X139.963 Y71.601 E65.49458
G1 X142.436 Y70.958 E65.61356
G1 X144.841 Y70.26 E65.73017
G1 X147.226 Y69.494 E65.84681
G1 X149.606 Y68.656 E65.96431
G1 X151.985 Y67.74 E66.08301
G1 X154.276 Y66.782 E66.19864
G1 X156.589 Y65.738 E66.31681
G1 X158.84 Y64.645 E66.43332
G1 X161.068 Y63.484 E66.55031
G1 X163.248 Y62.267 E66.66657
G1 X165.464 Y60.948 E66.78665
G1 X167.56 Y59.618 E66.90224
G1 X169.644 Y58.213 E67.01927
G1 X171.713 Y56.731 E67.13778
G1 X173.686 Y55.23 E67.25321
G1 X175.657 Y53.641 E67.3711
G1 X177.575 Y52.003 E67.48855
G1 X179.446 Y50.311 E67.60601
G1 X181.252 Y48.583 E67.7224
G1 X183.038 Y46.775 E67.84074
G1 X184.792 Y44.896 E67.96043
G1 X185.66 Y43.927 E68.021
G1 X186.292 Y43.281 E68.06309
G1 X187.086 Y42.602 E68.11173
G1 X187.851 Y42.059 E68.15542
G1 X188.66 Y41.583 E68.19912
G1 X189.605 Y41.135 E68.24782
G1 X190.485 Y40.812 E68.29147
G1 X191.461 Y40.549 E68.33854
G1 X192.425 Y40.381 E68.3841
G1 X193.531 Y40.294 E68.43576
G1 X194.155 Y40.281 E68.46482
G1 X203.261 Y40.282 E68.88884
G1 X203.994 Y40.293 E68.92297
G1 X204.965 Y40.35 E68.96826
G1 X205.859 Y40.482 E69.01034
G1 X206.841 Y40.715 E69.05734
G1 X207.798 Y41.036 E69.10434
G1 X208.625 Y41.397 E69.14636
G1 X209.512 Y41.88 E69.19339
G1 X210.351 Y42.441 E69.24038
G1 X211.055 Y43.007 E69.28245
G1 X211.808 Y43.731 E69.33109
G1 X212.401 Y44.412 E69.37313
G1 X212.994 Y45.229 E69.42014
G1 X213.511 Y46.096 E69.46715
G1 X213.933 Y46.973 E69.51246
G1 X214.253 Y47.817 E69.55449
G1 X214.527 Y48.789 E69.60152
G1 X214.713 Y49.791 E69.64897
G1 X214.81 Y50.936 E69.70248
G1 X214.825 Y51.611 E69.73392
G1 X214.824 Y100.746 E72.02185
G1 X214.811 Y101.488 E72.05641
G1 X214.754 Y102.424 E72.10007
G1 X214.603 Y103.423 E72.14712
G1 X214.372 Y104.367 E72.19237
G1 X213.547 Y107.19 E72.32932
G1 X212.902 Y109.667 E72.4485
G1 X212.348 Y112.067 E72.5632
G1 X211.846 Y114.572 E72.68216
G1 X211.416 Y117.075 E72.80042
G1 X211.066 Y119.53 E72.91589
G1 X210.787 Y121.988 E73.03108
