;FLAVOR:Marlin
;TIME:10558
;Filament used: 9.87286m
;Layer height: 0.28
;MINX:20.747
;MINY:26.484
;MINZ:0.28
;MAXX:218.747
;MAXY:88.484
;MAXZ:22.12
;Generated with Cura_SteamEngine 5.3.1
M140 S50
M105
M190 S50
M104 S200
M105
M109 S200
M82 ;absolute extrusion mode
; Ender 3 Custom Start G-code
G92 E0 ; Reset Extruder
G28 ; Home all axes
G1 Z2.0 F3000 ; Move Z Axis up little to prevent scratching of Heat Bed
G1 X0.1 Y20 Z0.3 F5000.0 ; Move to start position
G1 X0.1 Y200.0 Z0.3 F1500.0 E15 ; Draw the first line
G1 X0.4 Y200.0 Z0.3 F5000.0 ; Move to side a little
G1 X0.4 Y20 Z0.3 F1500.0 E30 ; Draw the second line
G92 E0 ; Reset Extruder
G1 Z2.0 F3000 ; Move Z Axis up little to prevent scratching of Heat Bed
G1 X5 Y20 Z0.3 F5000.0 ; Move over to prevent blob squish
G92 E0
G92 E0
G1 F2700 E-5
;LAYER_COUNT:79
;LAYER:0
M107
G0 F6000 X25.409 Y29.508 Z0.28
;TYPE:SKIRT
G1 F2700 E0
G1 F1200 X26.141 Y28.978 E0.04208
G1 X26.916 Y28.515 E0.08412
G1 X27.729 Y28.122 E0.12617
G1 X28.574 Y27.802 E0.16824
G1 X29.443 Y27.559 E0.21026
G1 X30.331 Y27.393 E0.25232
G1 X31.47 Y27.297 E0.30555
G1 X32.077 Y27.284 E0.33382
G1 X207.186 Y27.285 E8.48763
G1 X207.884 Y27.295 E8.52013
G1 X208.786 Y27.348 E8.5622
G1 X209.679 Y27.48 E8.60424
G1 X210.557 Y27.691 E8.64628
G1 X211.413 Y27.979 E8.68834
G1 X212.24 Y28.341 E8.73038
G1 X213.032 Y28.776 E8.77245
G1 X213.783 Y29.278 E8.81451
G1 X214.486 Y29.845 E8.85657
G1 X215.136 Y30.472 E8.89862
G1 X215.728 Y31.154 E8.94067
G1 X216.258 Y31.885 E8.98272
G1 X216.72 Y32.661 E9.02477
G1 X217.113 Y33.474 E9.06682
G1 X217.431 Y34.319 E9.10886
G1 X217.674 Y35.189 E9.15092
G1 X217.839 Y36.077 E9.19298
G1 X217.934 Y37.207 E9.24578
G1 X217.947 Y37.814 E9.27405
G1 X217.946 Y76.874 E11.09285
G1 X217.937 Y77.601 E11.1267
G1 X217.886 Y78.503 E11.16877
G1 X217.755 Y79.397 E11.21084
G1 X217.546 Y80.275 E11.25287
G1 X217.26 Y81.132 E11.29494
G1 X216.899 Y81.96 E11.337
G1 X216.467 Y82.752 E11.37901
G1 X215.966 Y83.504 E11.42108
G1 X215.4 Y84.208 E11.46314
G1 X214.775 Y84.859 E11.50517
G1 X214.094 Y85.453 E11.54725
G1 X213.363 Y85.984 E11.58932
G1 X212.589 Y86.448 E11.63134
G1 X211.776 Y86.842 E11.6734
G1 X210.932 Y87.162 E11.71543
G1 X210.062 Y87.407 E11.75752
G1 X209.175 Y87.573 E11.79954
G1 X208.024 Y87.671 E11.85333
G1 X207.417 Y87.684 E11.8816
G1 X32.322 Y87.683 E20.03476
G1 X31.624 Y87.674 E20.06726
G1 X30.723 Y87.623 E20.10928
G1 X29.829 Y87.491 E20.15136
G1 X28.951 Y87.282 E20.19339
G1 X28.094 Y86.995 E20.23547
G1 X27.267 Y86.634 E20.27749
G1 X26.474 Y86.201 E20.31956
G1 X25.723 Y85.7 E20.3616
G1 X25.019 Y85.134 E20.40366
G1 X24.368 Y84.508 E20.44572
G1 X23.775 Y83.827 E20.48776
G1 X23.245 Y83.096 E20.52981
G1 X22.781 Y82.321 E20.57187
G1 X22.387 Y81.508 E20.61394
G1 X22.067 Y80.664 E20.65597
G1 X21.823 Y79.794 E20.69804
G1 X21.657 Y78.906 E20.7401
G1 X21.56 Y77.751 E20.79408
G1 X21.547 Y77.142 E20.82244
G1 X21.548 Y38.02 E22.64412
G1 X21.557 Y37.355 E22.67509
G1 X21.609 Y36.453 E22.71716
G1 X21.741 Y35.56 E22.7592
G1 X21.951 Y34.682 E22.80123
G1 X22.238 Y33.825 E22.84332
G1 X22.6 Y32.998 E22.88535
G1 X23.033 Y32.206 E22.92738
G1 X23.535 Y31.455 E22.96945
G1 X24.102 Y30.751 E23.01154
G1 X24.728 Y30.101 E23.05356
G1 X25.409 Y29.508 E23.09561
G0 F6000 X25.146 Y29.206
G1 F1200 X25.906 Y28.654 E23.13934
G1 X26.742 Y28.155 E23.18468
G1 X27.587 Y27.748 E23.22835
G1 X28.432 Y27.428 E23.27043
G1 X29.369 Y27.166 E23.31573
G1 X30.297 Y26.994 E23.35968
G1 X31.436 Y26.898 E23.4129
G1 X32.077 Y26.884 E23.44276
G1 X207.192 Y26.885 E31.59684
G1 X207.907 Y26.896 E31.63014
G1 X208.844 Y26.952 E31.67385
G1 X209.737 Y27.084 E31.71588
G1 X210.685 Y27.312 E31.76129
G1 X211.541 Y27.6 E31.80334
G1 X212.433 Y27.99 E31.84867
G1 X213.225 Y28.425 E31.89075
G1 X214.005 Y28.945 E31.9344
G1 X214.764 Y29.557 E31.9798
G1 X215.414 Y30.184 E32.02185
G1 X216.052 Y30.919 E32.06717
G1 X216.602 Y31.68 E32.11089
G1 X217.064 Y32.456 E32.15295
G1 X217.487 Y33.333 E32.19828
G1 X217.816 Y34.211 E32.24194
G1 X218.067 Y35.116 E32.28567
G1 X218.238 Y36.043 E32.32957
G1 X218.333 Y37.173 E32.38237
G1 X218.347 Y37.814 E32.41223
G1 X218.346 Y76.879 E34.23126
G1 X218.336 Y77.624 E34.26595
G1 X218.282 Y78.561 E34.30965
G1 X218.151 Y79.455 E34.35173
G1 X217.935 Y80.368 E34.39541
G1 X217.627 Y81.292 E34.44076
G1 X217.266 Y82.12 E34.48282
G1 X216.8 Y82.974 E34.52813
G1 X216.278 Y83.755 E34.57187
G1 X215.712 Y84.459 E34.61393
G1 X215.064 Y85.136 E34.65757
G1 X214.329 Y85.777 E34.70298
G1 X213.598 Y86.308 E34.74505
G1 X212.795 Y86.791 E34.78868
G1 X211.918 Y87.216 E34.83406
G1 X211.074 Y87.536 E34.87609
G1 X210.136 Y87.8 E34.92147
G1 X209.209 Y87.972 E34.96537
G1 X208.058 Y88.07 E35.01916
G1 X207.426 Y88.084 E35.04859
G1 X32.317 Y88.083 E43.2024
G1 X31.601 Y88.073 E43.23575
G1 X30.665 Y88.019 E43.2794
G1 X29.771 Y87.887 E43.32148
G1 X28.858 Y87.671 E43.36517
G1 X27.934 Y87.362 E43.41054
G1 X27.107 Y87.001 E43.45255
G1 X26.252 Y86.534 E43.49792
G1 X25.472 Y86.012 E43.54162
G1 X24.768 Y85.446 E43.58368
G1 X24.066 Y84.771 E43.62903
G1 X23.473 Y84.09 E43.67108
G1 X22.921 Y83.331 E43.71478
G1 X22.421 Y82.495 E43.76014
G1 X22.013 Y81.65 E43.80383
G1 X21.693 Y80.806 E43.84586
G1 X21.43 Y79.868 E43.89122
G1 X21.258 Y78.939 E43.93521
G1 X21.16 Y77.76 E43.9903
G1 X21.147 Y77.142 E44.01909
G1 X21.148 Y38.015 E45.841
G1 X21.158 Y37.332 E45.87281
G1 X21.213 Y36.395 E45.91652
G1 X21.345 Y35.502 E45.95855
G1 X21.562 Y34.589 E46.00225
G1 X21.859 Y33.698 E46.04598
G1 X22.249 Y32.806 E46.09131
G1 X22.7 Y31.984 E46.13497
G1 X23.223 Y31.204 E46.1787
G1 X23.79 Y30.5 E46.22079
G1 X24.465 Y29.799 E46.2661
G1 X25.146 Y29.206 E46.30815
G0 F6000 X24.883 Y28.904
G1 F1200 X25.671 Y28.33 E46.35355
G1 X26.568 Y27.795 E46.40218
G1 X27.445 Y27.374 E46.44748
G1 X28.29 Y27.054 E46.48955
G1 X29.296 Y26.773 E46.53819
G1 X30.263 Y26.595 E46.58397
G1 X31.402 Y26.499 E46.6372
G1 X32.077 Y26.484 E46.66864
G1 X207.198 Y26.485 E54.823
G1 X207.931 Y26.497 E54.85714
G1 X208.902 Y26.556 E54.90244
G1 X209.831 Y26.695 E54.94618
G1 X210.779 Y26.923 E54.99158
G1 X211.701 Y27.233 E55.03687
G1 X212.626 Y27.639 E55.08391
G1 X213.418 Y28.074 E55.12598
G1 X214.227 Y28.612 E55.17122
G1 X215.042 Y29.269 E55.21997
G1 X215.692 Y29.896 E55.26202
G1 X216.354 Y30.657 E55.30899
G1 X216.946 Y31.475 E55.35601
G1 X217.408 Y32.251 E55.39806
G1 X217.862 Y33.193 E55.44675
G1 X218.191 Y34.071 E55.49041
G1 X218.46 Y35.043 E55.53737
G1 X218.637 Y36.009 E55.5831
G1 X218.732 Y37.139 E55.63591
G1 X218.747 Y37.814 E55.66735
G1 X218.746 Y76.884 E57.48661
G1 X218.735 Y77.647 E57.52214
G1 X218.678 Y78.619 E57.56748
G1 X218.547 Y79.513 E57.60955
G1 X218.324 Y80.46 E57.65485
G1 X217.994 Y81.452 E57.70353
G1 X217.633 Y82.28 E57.74559
G1 X217.133 Y83.196 E57.79419
G1 X216.59 Y84.006 E57.8396
G1 X216.024 Y84.71 E57.88166
G1 X215.353 Y85.413 E57.92691
G1 X214.564 Y86.101 E57.97566
G1 X213.833 Y86.632 E58.01773
G1 X213.001 Y87.134 E58.06297
G1 X212.06 Y87.59 E58.11166
G1 X211.216 Y87.91 E58.15369
G1 X210.244 Y88.185 E58.20073
G1 X209.243 Y88.371 E58.24814
G1 X208.092 Y88.469 E58.30193
G1 X207.435 Y88.484 E58.33253
G1 X32.311 Y88.483 E66.48704
G1 X31.578 Y88.472 E66.52117
G1 X30.607 Y88.415 E66.56646
G1 X29.713 Y88.283 E66.60854
G1 X28.731 Y88.05 E66.65554
G1 X27.774 Y87.729 E66.70254
G1 X26.947 Y87.368 E66.74456
G1 X26.06 Y86.885 E66.79159
G1 X25.221 Y86.324 E66.83858
G1 X24.517 Y85.758 E66.88065
G1 X23.764 Y85.034 E66.92929
G1 X23.171 Y84.353 E66.97133
G1 X22.578 Y83.536 E67.01834
G1 X22.061 Y82.669 E67.06535
G1 X21.639 Y81.792 E67.11066
G1 X21.319 Y80.948 E67.15269
G1 X21.045 Y79.976 E67.19972
G1 X20.859 Y78.972 E67.24726
G1 X20.761 Y77.793 E67.30235
G1 X20.747 Y77.142 E67.33267
G1 X20.748 Y38.009 E69.15487
G1 X20.759 Y37.309 E69.18747
G1 X20.817 Y36.337 E69.23281
G1 X20.949 Y35.444 E69.27484
G1 X21.173 Y34.497 E69.32016
G1 X21.492 Y33.538 E69.36722
G1 X21.882 Y32.646 E69.41255
G1 X22.349 Y31.792 E69.45787
G1 X22.911 Y30.953 E69.50489
G1 X23.478 Y30.249 E69.54698
G1 X24.202 Y29.497 E69.59559
G1 X24.883 Y28.904 E69.63764
G1 F2700 E64.63764
;MESH:case4-LCDCap.stl
G0 F6000 X32.161 Y36.819
G0 X32.347 Y76.884
;TYPE:WALL-INNER
G1 F2700 E69.63764
G1 F1200 X207.147 Y76.884 E77.77706
G1 X207.147 Y38.084 E79.58375
G1 X32.347 Y38.084 E87.72317
G1 X32.347 Y76.884 E89.52986
G0 F6000 X31.947 Y77.284
;TYPE:WALL-OUTER
G1 F1200 X207.547 Y77.284 E97.70653
G1 X207.547 Y37.684 E99.55047
G1 X31.947 Y37.684 E107.72715
G1 X31.947 Y77.284 E109.57109
G0 F6000 X32.217 Y77.014
G0 X32.447 Y76.524
G0 X32.707 Y76.524
;TYPE:SKIN
G1 F1200 X32.707 Y38.444 E111.34425
G1 X206.787 Y38.444 E119.45015
G1 X206.787 Y76.524 E121.22331
G1 X32.707 Y76.524 E129.3292
G0 F6000 X33.33 Y76.322
G1 F1200 X32.906 Y75.898 E129.35713
G0 F6000 X32.906 Y75.333
G1 F1200 X33.896 Y76.322 E129.42229
G0 F6000 X34.462 Y76.322
G1 F1200 X32.906 Y74.767 E129.52472
G0 F6000 X32.906 Y74.201
G1 F1200 X35.027 Y76.322 E129.66439
G0 F6000 X35.593 Y76.322
G1 F1200 X32.906 Y73.635 E129.84133
G0 F6000 X32.906 Y73.07
G1 F1200 X36.159 Y76.322 E130.05552
G0 F6000 X36.725 Y76.322
G1 F1200 X32.906 Y72.504 E130.30697
G0 F6000 X32.906 Y71.938
G1 F1200 X37.29 Y76.322 E130.59567
G0 F6000 X37.856 Y76.322
G1 F1200 X32.906 Y71.373 E130.9216
G0 F6000 X32.906 Y70.807
G1 F1200 X38.422 Y76.322 E131.2848
G0 F6000 X38.987 Y76.322
G1 F1200 X32.906 Y70.241 E131.68525
G0 F6000 X32.906 Y69.676
G1 F1200 X39.553 Y76.322 E132.12293
G0 F6000 X40.119 Y76.322
G1 F1200 X32.906 Y69.11 E132.59789
G0 F6000 X32.906 Y68.544
G1 F1200 X40.684 Y76.322 E133.11008
G0 F6000 X41.25 Y76.322
G1 F1200 X32.906 Y67.979 E133.65951
G0 F6000 X32.906 Y67.413
G1 F1200 X41.816 Y76.322 E134.24622
G0 F6000 X42.381 Y76.322
G1 F1200 X32.906 Y66.847 E134.87017
G0 F6000 X32.906 Y66.282
G1 F1200 X42.947 Y76.322 E135.53135
G0 F6000 X43.513 Y76.322
G1 F1200 X32.906 Y65.716 E136.22981
G0 F6000 X32.906 Y65.15
G1 F1200 X44.078 Y76.322 E136.9655
G0 F6000 X44.644 Y76.322
G1 F1200 X32.906 Y64.585 E137.73844
G0 F6000 X32.906 Y64.019
G1 F1200 X45.21 Y76.322 E138.54864
G0 F6000 X45.775 Y76.322
G1 F1200 X32.906 Y63.453 E139.39609
G0 F6000 X32.906 Y62.887
G1 F1200 X46.341 Y76.322 E140.2808
G0 F6000 X46.907 Y76.322
G1 F1200 X32.906 Y62.322 E141.20276
G0 F6000 X32.906 Y61.756
G1 F1200 X47.473 Y76.322 E142.16199
G0 F6000 X48.038 Y76.322
G1 F1200 X32.906 Y61.19 E143.15846
G0 F6000 X32.906 Y60.625
G1 F1200 X48.604 Y76.322 E144.19217
G0 F6000 X49.17 Y76.322
G1 F1200 X32.906 Y60.059 E145.26315
G0 F6000 X32.906 Y59.493
G1 F1200 X49.735 Y76.322 E146.37136
G0 F6000 X50.301 Y76.322
G1 F1200 X32.906 Y58.928 E147.51682
G0 F6000 X32.906 Y58.362
G1 F1200 X50.867 Y76.322 E148.69955
G0 F6000 X51.432 Y76.322
G1 F1200 X32.906 Y57.796 E149.91952
G0 F6000 X32.906 Y57.231
G1 F1200 X51.998 Y76.322 E151.17673
G0 F6000 X52.564 Y76.322
G1 F1200 X32.906 Y56.665 E152.47121
G0 F6000 X32.906 Y56.099
G1 F1200 X53.129 Y76.322 E153.80293
G0 F6000 X53.695 Y76.322
G1 F1200 X32.906 Y55.534 E155.17188
G0 F6000 X32.906 Y54.968
G1 F1200 X54.261 Y76.322 E156.57811
G0 F6000 X54.826 Y76.322
G1 F1200 X32.906 Y54.402 E158.02158
G0 F6000 X32.906 Y53.836
G1 F1200 X55.392 Y76.322 E159.50233
G0 F6000 X55.958 Y76.322
G1 F1200 X32.906 Y53.271 E161.02031
G0 F6000 X32.906 Y52.705
G1 F1200 X56.523 Y76.322 E162.57553
G0 F6000 X57.089 Y76.322
G1 F1200 X32.906 Y52.139 E164.16802
G0 F6000 X32.906 Y51.574
G1 F1200 X57.655 Y76.322 E165.79775
G0 F6000 X58.221 Y76.322
G1 F1200 X32.906 Y51.008 E167.46475
G0 F6000 X32.906 Y50.442
G1 F1200 X58.786 Y76.322 E169.16899
G0 F6000 X59.352 Y76.322
G1 F1200 X32.906 Y49.877 E170.91048
G0 F6000 X32.906 Y49.311
G1 F1200 X59.918 Y76.322 E172.68923
G0 F6000 X60.483 Y76.322
G1 F1200 X32.906 Y48.745 E174.50522
G0 F6000 X32.906 Y48.18
G1 F1200 X61.049 Y76.322 E176.35845
G0 F6000 X61.615 Y76.322
G1 F1200 X32.906 Y47.614 E178.24896
G0 F6000 X32.906 Y47.048
G1 F1200 X62.18 Y76.322 E180.1767
G0 F6000 X62.746 Y76.322
G1 F1200 X32.906 Y46.483 E182.14168
G0 F6000 X32.906 Y45.917
G1 F1200 X63.312 Y76.322 E184.14394
G0 F6000 X63.877 Y76.322
G1 F1200 X32.906 Y45.351 E186.18343
G0 F6000 X32.906 Y44.786
G1 F1200 X64.443 Y76.322 E188.26016
G0 F6000 X65.009 Y76.322
G1 F1200 X32.906 Y44.22 E190.37417
G0 F6000 X32.906 Y43.654
G1 F1200 X65.574 Y76.322 E192.52541
G0 F6000 X66.14 Y76.322
G1 F1200 X32.906 Y43.088 E194.71393
G0 F6000 X32.906 Y42.523
G1 F1200 X66.706 Y76.322 E196.93968
G0 F6000 X67.272 Y76.322
G1 F1200 X32.906 Y41.957 E199.20271
G0 F6000 X32.906 Y41.391
G1 F1200 X67.837 Y76.322 E201.50297
G0 F6000 X68.403 Y76.322
G1 F1200 X32.906 Y40.826 E203.84048
G0 F6000 X32.906 Y40.26
G1 F1200 X68.969 Y76.322 E206.21526
G0 F6000 X69.534 Y76.322
G1 F1200 X32.906 Y39.694 E208.62727
G0 F6000 X32.906 Y39.129
G1 F1200 X70.1 Y76.322 E211.07653
G0 F6000 X70.666 Y76.322
G1 F1200 X32.987 Y38.644 E213.55772
G0 F6000 X33.552 Y38.644
G1 F1200 X71.231 Y76.322 E216.03891
G0 F6000 X71.797 Y76.322
G1 F1200 X34.118 Y38.644 E218.52011
G0 F6000 X34.684 Y38.644
G1 F1200 X72.363 Y76.322 E221.0013
G0 F6000 X72.928 Y76.322
G1 F1200 X35.249 Y38.644 E223.4825
G0 F6000 X35.815 Y38.644
G1 F1200 X73.494 Y76.322 E225.96369
G0 F6000 X74.06 Y76.322
G1 F1200 X36.381 Y38.644 E228.44488
G0 F6000 X36.947 Y38.644
G1 F1200 X74.625 Y76.322 E230.92604
G0 F6000 X75.191 Y76.322
G1 F1200 X37.512 Y38.644 E233.40724
G0 F6000 X38.078 Y38.644
G1 F1200 X75.757 Y76.322 E235.88843
G0 F6000 X76.322 Y76.322
G1 F1200 X38.644 Y38.644 E238.36959
G0 F6000 X39.209 Y38.644
G1 F1200 X76.888 Y76.322 E240.85078
G0 F6000 X77.454 Y76.322
G1 F1200 X39.775 Y38.644 E243.33198
G0 F6000 X40.341 Y38.644
G1 F1200 X78.02 Y76.322 E245.81317
G0 F6000 X78.585 Y76.322
G1 F1200 X40.906 Y38.644 E248.29436
G0 F6000 X41.472 Y38.644
G1 F1200 X79.151 Y76.322 E250.77556
G0 F6000 X79.717 Y76.322
G1 F1200 X42.038 Y38.644 E253.25675
G0 F6000 X42.603 Y38.644
G1 F1200 X80.282 Y76.322 E255.73795
G0 F6000 X80.848 Y76.322
G1 F1200 X43.169 Y38.644 E258.21914
G0 F6000 X43.735 Y38.644
G1 F1200 X81.414 Y76.322 E260.70033
G0 F6000 X81.979 Y76.322
G1 F1200 X44.3 Y38.644 E263.18153
G0 F6000 X44.866 Y38.644
G1 F1200 X82.545 Y76.322 E265.66272
G0 F6000 X83.111 Y76.322
G1 F1200 X45.432 Y38.644 E268.14391
G0 F6000 X45.998 Y38.644
G1 F1200 X83.676 Y76.322 E270.62507
G0 F6000 X84.242 Y76.322
G1 F1200 X46.563 Y38.644 E273.10627
G0 F6000 X47.129 Y38.644
G1 F1200 X84.808 Y76.322 E275.58746
G0 F6000 X85.373 Y76.322
G1 F1200 X47.695 Y38.644 E278.06862
G0 F6000 X48.26 Y38.644
G1 F1200 X85.939 Y76.322 E280.54982
G0 F6000 X86.505 Y76.322
G1 F1200 X48.826 Y38.644 E283.03101
G0 F6000 X49.392 Y38.644
G1 F1200 X87.071 Y76.322 E285.5122
G0 F6000 X87.636 Y76.322
G1 F1200 X49.957 Y38.644 E287.9934
G0 F6000 X50.523 Y38.644
G1 F1200 X88.202 Y76.322 E290.47459
G0 F6000 X88.768 Y76.322
G1 F1200 X51.089 Y38.644 E292.95578
G0 F6000 X51.654 Y38.644
G1 F1200 X89.333 Y76.322 E295.43698
G0 F6000 X89.899 Y76.322
G1 F1200 X52.22 Y38.644 E297.91817
G0 F6000 X52.786 Y38.644
G1 F1200 X90.465 Y76.322 E300.39936
G0 F6000 X91.03 Y76.322
G1 F1200 X53.351 Y38.644 E302.88056
G0 F6000 X53.917 Y38.644
G1 F1200 X91.596 Y76.322 E305.36175
G0 F6000 X92.162 Y76.322
G1 F1200 X54.483 Y38.644 E307.84294
G0 F6000 X55.048 Y38.644
G1 F1200 X92.727 Y76.322 E310.32414
G0 F6000 X93.293 Y76.322
G1 F1200 X55.614 Y38.644 E312.80533
G0 F6000 X56.18 Y38.644
G1 F1200 X93.859 Y76.322 E315.28653
G0 F6000 X94.424 Y76.322
G1 F1200 X56.746 Y38.644 E317.76769
G0 F6000 X57.311 Y38.644
G1 F1200 X94.99 Y76.322 E320.24888
G0 F6000 X95.556 Y76.322
G1 F1200 X57.877 Y38.644 E322.73007
G0 F6000 X58.443 Y38.644
G1 F1200 X96.121 Y76.322 E325.21123
G0 F6000 X96.687 Y76.322
G1 F1200 X59.008 Y38.644 E327.69243
G0 F6000 X59.574 Y38.644
G1 F1200 X97.253 Y76.322 E330.17362
G0 F6000 X97.819 Y76.322
G1 F1200 X60.14 Y38.644 E332.65481
G0 F6000 X60.705 Y38.644
G1 F1200 X98.384 Y76.322 E335.13601
G0 F6000 X98.95 Y76.322
G1 F1200 X61.271 Y38.644 E337.6172
G0 F6000 X61.837 Y38.644
G1 F1200 X99.516 Y76.322 E340.0984
G0 F6000 X100.081 Y76.322
G1 F1200 X62.402 Y38.644 E342.57959
G0 F6000 X62.968 Y38.644
G1 F1200 X100.647 Y76.322 E345.06078
G0 F6000 X101.213 Y76.322
G1 F1200 X63.534 Y38.644 E347.54198
G0 F6000 X64.099 Y38.644
G1 F1200 X101.778 Y76.322 E350.02317
G0 F6000 X102.344 Y76.322
