;FLAVOR:Marlin
;TIME:32665
;Filament used: 30.8357m
;Layer height: 0.28
;MINX:14.45
;MINY:46.204
;MINZ:0.28
;MAXX:216.05
;MAXY:188.793
;MAXZ:70
;POSTPROCESSED
;Generated with Cura_SteamEngine 5.3.1
M140 S50
M105
M190 S50
M104 S200
M105
M109 S200
M82 ;absolute extrusion mode
; Ender 3 Custom Start G-code
G92 E0 ; Reset Extruder
G28 ; Home all axes
G1 Z2.0 F3000 ; Move Z Axis up little to prevent scratching of Heat Bed
G1 X0.1 Y20 Z0.3 F5000.0 ; Move to start position
G1 X0.1 Y200.0 Z0.3 F1500.0 E15 ; Draw the first line
G1 X0.4 Y200.0 Z0.3 F5000.0 ; Move to side a little
G1 X0.4 Y20 Z0.3 F1500.0 E30 ; Draw the second line
G92 E0 ; Reset Extruder
G1 Z2.0 F3000 ; Move Z Axis up little to prevent scratching of Heat Bed
G1 X5 Y20 Z0.3 F5000.0 ; Move over to prevent blob squish
G92 E0
G92 E0
G1 F2700 E-5
;LAYER_COUNT:250
;LAYER:0
M107
G0 F6000 X18.146 Y46.533 Z0.28
;TYPE:SKIRT
G1 F2700 E0
G1 F1200 X19.794 Y46.204 E0.07825
G1 X210.871 Y46.204 E8.9756
G1 X212.286 Y46.552 E9.04345
G1 X213.801 Y47.338 E9.12292
G1 X214.89 Y48.503 E9.19718
G1 X215.721 Y49.9 E9.27287
G1 X216.05 Y51.548 E9.35112
G1 X216.05 Y181.625 E15.40805
G1 X215.702 Y183.04 E15.4759
G1 X214.916 Y184.555 E15.55538
G1 X213.751 Y185.644 E15.62963
G1 X212.354 Y186.475 E15.70532
G1 X210.706 Y186.804 E15.78357
G1 X139.447 Y186.804 E19.10169
G1 X138.932 Y187.274 E19.13416
G1 X137.608 Y188.087 E19.2065
G1 X135.952 Y188.612 E19.2874
G1 X135.025 Y188.793 E19.33138
G1 X133.451 Y188.793 E19.40467
G1 X132.389 Y188.571 E19.45519
G1 X130.886 Y188.081 E19.5288
G1 X129.57 Y187.281 E19.60051
G1 X129.052 Y186.804 E19.6333
G1 X73.602 Y186.804 E22.21529
G1 X72.242 Y186.472 E22.28047
G1 X72.01 Y186.564 E22.29209
G1 X70.696 Y186.804 E22.35429
G1 X36.602 Y186.804 E23.94185
G1 X35.242 Y186.472 E24.00704
G1 X35.01 Y186.564 E24.01866
G1 X33.696 Y186.804 E24.08086
G1 X19.629 Y186.804 E24.73588
G1 X18.214 Y186.456 E24.80373
G1 X16.699 Y185.67 E24.8832
G1 X15.61 Y184.505 E24.95746
G1 X14.779 Y183.108 E25.03315
G1 X14.45 Y181.46 E25.1114
G1 X14.45 Y51.383 E31.16833
G1 X14.798 Y49.968 E31.23618
G1 X15.584 Y48.453 E31.31565
G1 X16.749 Y47.364 E31.38991
G1 X18.146 Y46.533 E31.4656
G0 F6000 X18.294 Y46.911
G1 F1200 X19.832 Y46.604 E31.53863
G1 X210.825 Y46.604 E40.43206
G1 X212.143 Y46.928 E40.49526
G1 X213.556 Y47.661 E40.56938
G1 X214.566 Y48.742 E40.63827
G1 X215.343 Y50.048 E40.70903
G1 X215.65 Y51.586 E40.78206
G1 X215.65 Y181.579 E46.83508
G1 X215.326 Y182.897 E46.89828
G1 X214.593 Y184.31 E46.9724
G1 X213.512 Y185.32 E47.04129
G1 X212.206 Y186.097 E47.11205
G1 X210.668 Y186.404 E47.18508
G1 X139.291 Y186.404 E50.50869
G1 X138.687 Y186.955 E50.54676
G1 X137.44 Y187.721 E50.61491
G1 X135.875 Y188.219 E50.69138
G1 X134.984 Y188.393 E50.73365
G1 X133.495 Y188.393 E50.80299
G1 X132.471 Y188.179 E50.8517
G1 X131.055 Y187.715 E50.92108
G1 X129.81 Y186.958 E50.98893
G1 X129.208 Y186.404 E51.02702
G1 X73.652 Y186.404 E53.61394
G1 X72.424 Y186.104 E53.67281
G1 X72.249 Y186.026 E53.68173
G1 X71.938 Y186.171 E53.69771
G1 X70.662 Y186.404 E53.7581
G1 X36.652 Y186.404 E55.34175
G1 X35.424 Y186.104 E55.40062
G1 X35.249 Y186.026 E55.40954
G1 X34.938 Y186.171 E55.42551
G1 X33.662 Y186.404 E55.48591
G1 X19.675 Y186.404 E56.13721
G1 X18.357 Y186.08 E56.20041
G1 X16.944 Y185.347 E56.27453
G1 X15.934 Y184.266 E56.34341
G1 X15.157 Y182.96 E56.41418
G1 X14.85 Y181.422 E56.4872
G1 X14.85 Y51.429 E62.54022
G1 X15.174 Y50.111 E62.60342
G1 X15.907 Y48.698 E62.67754
G1 X16.988 Y47.688 E62.74643
G1 X18.294 Y46.911 E62.81719
G0 F6000 X18.442 Y47.289
G1 F1200 X19.87 Y47.004 E62.885
G1 X210.779 Y47.004 E71.77452
G1 X212 Y47.304 E71.83307
G1 X213.311 Y47.984 E71.90184
G1 X214.242 Y48.981 E71.96535
G1 X214.965 Y50.196 E72.03119
G1 X215.25 Y51.624 E72.09899
G1 X215.25 Y181.533 E78.1481
G1 X214.95 Y182.754 E78.20665
G1 X214.27 Y184.065 E78.27541
G1 X213.273 Y184.996 E78.33893
G1 X212.058 Y185.719 E78.40477
G1 X210.63 Y186.004 E78.47257
G1 X139.136 Y186.004 E81.80163
G1 X138.445 Y186.634 E81.84517
G1 X137.273 Y187.354 E81.90922
G1 X135.798 Y187.826 E81.98134
G1 X134.943 Y187.993 E82.0219
G1 X133.539 Y187.993 E82.08728
G1 X132.553 Y187.787 E82.13418
G1 X131.224 Y187.35 E82.19932
G1 X130.05 Y186.635 E82.26333
G1 X129.364 Y186.004 E82.30673
G1 X73.702 Y186.004 E84.89859
G1 X72.519 Y185.715 E84.95529
G1 X72.246 Y185.574 E84.9696
G1 X71.866 Y185.778 E84.98968
G1 X70.628 Y186.004 E85.04828
G1 X36.702 Y186.004 E86.62802
G1 X35.519 Y185.715 E86.68472
G1 X35.246 Y185.574 E86.69903
G1 X34.866 Y185.778 E86.71911
G1 X33.628 Y186.004 E86.77771
G1 X19.721 Y186.004 E87.42528
G1 X18.5 Y185.704 E87.48383
G1 X17.189 Y185.024 E87.5526
G1 X16.258 Y184.027 E87.61611
G1 X15.535 Y182.812 E87.68195
G1 X15.25 Y181.384 E87.74975
G1 X15.25 Y51.475 E93.79886
G1 X15.55 Y50.254 E93.85741
G1 X16.23 Y48.943 E93.92618
G1 X17.227 Y48.012 E93.98969
G1 X18.442 Y47.289 E94.05553
G0 F6000 X18.59 Y47.667
G1 F1200 X19.908 Y47.404 E94.11811
G1 X210.733 Y47.404 E103.00372
G1 X211.857 Y47.68 E103.05761
G1 X213.066 Y48.307 E103.12103
G1 X213.918 Y49.22 E103.17918
G1 X214.587 Y50.344 E103.24009
G1 X214.85 Y51.662 E103.30267
G1 X214.85 Y181.487 E109.34786
G1 X214.574 Y182.611 E109.40176
G1 X213.947 Y183.82 E109.46517
G1 X213.034 Y184.672 E109.52332
G1 X211.91 Y185.341 E109.58423
G1 X210.592 Y185.604 E109.64681
G1 X138.981 Y185.604 E112.98132
G1 X138.205 Y186.311 E113.0302
G1 X137.104 Y186.988 E113.09039
G1 X135.721 Y187.433 E113.15804
G1 X134.902 Y187.593 E113.19689
G1 X133.583 Y187.593 E113.25831
G1 X132.635 Y187.395 E113.30341
G1 X131.393 Y186.984 E113.36432
G1 X130.29 Y186.312 E113.42446
G1 X129.52 Y185.604 E113.47317
G1 X73.752 Y185.604 E116.06996
G1 X72.66 Y185.337 E116.12231
G1 X72.243 Y185.122 E116.14416
G1 X71.735 Y185.395 E116.17101
G1 X70.589 Y185.604 E116.22525
G1 X36.752 Y185.604 E117.80084
G1 X35.66 Y185.337 E117.85319
G1 X35.243 Y185.122 E117.87504
G1 X34.735 Y185.395 E117.90189
G1 X33.589 Y185.604 E117.95613
G1 X19.767 Y185.604 E118.59974
G1 X18.643 Y185.328 E118.65364
G1 X17.434 Y184.701 E118.71705
G1 X16.582 Y183.788 E118.7752
G1 X15.913 Y182.664 E118.83611
G1 X15.65 Y181.346 E118.89869
G1 X15.65 Y51.521 E124.94389
G1 X15.926 Y50.397 E124.99778
G1 X16.553 Y49.188 E125.0612
G1 X17.466 Y48.336 E125.11934
G1 X18.59 Y47.667 E125.18025
G0 F6000 X18.738 Y48.045
G1 F1200 X19.946 Y47.804 E125.23761
G1 X210.686 Y47.804 E134.11926
G1 X211.715 Y48.057 E134.16861
G1 X212.819 Y48.629 E134.2265
G1 X213.596 Y49.462 E134.27954
G1 X214.209 Y50.492 E134.33536
G1 X214.45 Y51.7 E134.39272
G1 X214.45 Y181.44 E140.43395
G1 X214.197 Y182.469 E140.48329
G1 X213.625 Y183.573 E140.54119
G1 X212.792 Y184.35 E140.59423
G1 X211.762 Y184.963 E140.65005
G1 X210.554 Y185.204 E140.7074
G1 X138.826 Y185.204 E144.04736
G1 X137.965 Y185.988 E144.10158
G1 X136.935 Y186.622 E144.1579
G1 X135.644 Y187.04 E144.22109
G1 X134.861 Y187.193 E144.25824
G1 X133.626 Y187.193 E144.31575
G1 X132.761 Y187.015 E144.35687
G1 X131.562 Y186.618 E144.41568
G1 X130.53 Y185.989 E144.47195
G1 X129.676 Y185.204 E144.52597
G1 X73.802 Y185.204 E147.1277
G1 X72.801 Y184.959 E147.17568
G1 X72.24 Y184.67 E147.20507
G1 X71.601 Y185.013 E147.23884
G1 X70.555 Y185.204 E147.28835
G1 X36.802 Y185.204 E148.86003
G1 X35.801 Y184.959 E148.90802
G1 X35.24 Y184.67 E148.9374
G1 X34.601 Y185.013 E148.97117
G1 X33.555 Y185.204 E149.02068
G1 X19.814 Y185.204 E149.66052
G1 X18.785 Y184.951 E149.70986
G1 X17.681 Y184.379 E149.76776
G1 X16.904 Y183.546 E149.8208
G1 X16.291 Y182.516 E149.87662
G1 X16.05 Y181.308 E149.93397
G1 X16.05 Y51.568 E155.97521
G1 X16.303 Y50.539 E156.02455
G1 X16.875 Y49.435 E156.08245
G1 X17.708 Y48.658 E156.13549
G1 X18.738 Y48.045 E156.1913
G0 F6000 X18.886 Y48.423
G1 F1200 X19.984 Y48.204 E156.24344
G1 X210.64 Y48.204 E165.12118
G1 X211.572 Y48.433 E165.16587
G1 X212.572 Y48.951 E165.21831
G1 X213.274 Y49.704 E165.26625
G1 X213.831 Y50.64 E165.31696
G1 X214.05 Y51.738 E165.3691
G1 X214.05 Y181.394 E171.40643
G1 X213.821 Y182.326 E171.45111
G1 X213.303 Y183.326 E171.50355
G1 X212.55 Y184.028 E171.55149
G1 X211.614 Y184.585 E171.60221
G1 X210.516 Y184.804 E171.65434
G1 X138.637 Y184.804 E175.00133
G1 X138.517 Y184.95 E175.01013
G1 X137.725 Y185.665 E175.05981
G1 X136.763 Y186.257 E175.11241
G1 X135.567 Y186.647 E175.17099
G1 X134.82 Y186.793 E175.20643
G1 X133.668 Y186.793 E175.26007
G1 X132.842 Y186.623 E175.29934
G1 X131.735 Y186.254 E175.35368
G1 X130.77 Y185.667 E175.40627
G1 X129.975 Y184.939 E175.45646
G1 X129.863 Y184.804 E175.46463
G1 X73.852 Y184.804 E178.07274
G1 X72.94 Y184.581 E178.11646
G1 X72.237 Y184.218 E178.1533
G1 X71.47 Y184.63 E178.19384
G1 X70.516 Y184.804 E178.23899
G1 X36.852 Y184.804 E179.80653
G1 X35.94 Y184.581 E179.85025
G1 X35.237 Y184.218 E179.88709
G1 X34.47 Y184.63 E179.92763
G1 X33.516 Y184.804 E179.97279
G1 X19.86 Y184.804 E180.60867
G1 X18.928 Y184.575 E180.65336
G1 X17.928 Y184.057 E180.7058
G1 X17.226 Y183.304 E180.75373
G1 X16.669 Y182.368 E180.80445
G1 X16.45 Y181.27 E180.85658
G1 X16.45 Y51.614 E186.89391
G1 X16.679 Y50.682 E186.9386
G1 X17.197 Y49.682 E186.99104
G1 X17.95 Y48.98 E187.03898
G1 X18.886 Y48.423 E187.08969
G0 F6000 X19.034 Y48.801
G1 F1200 X20.022 Y48.604 E187.1366
G1 X210.594 Y48.604 E196.01044
G1 X211.429 Y48.809 E196.05047
G1 X212.325 Y49.273 E196.09746
G1 X212.952 Y49.946 E196.14029
G1 X213.453 Y50.788 E196.18591
G1 X213.65 Y51.776 E196.23282
G1 X213.65 Y181.348 E202.26623
G1 X213.445 Y182.183 E202.30627
G1 X212.981 Y183.079 E202.35325
G1 X212.308 Y183.706 E202.39608
G1 X211.466 Y184.207 E202.44171
G1 X210.478 Y184.404 E202.48862
G1 X138.44 Y184.404 E205.84301
G1 X138.249 Y184.653 E205.85762
G1 X137.486 Y185.342 E205.90549
G1 X136.592 Y185.892 E205.95437
G1 X135.49 Y186.254 E206.00838
G1 X134.779 Y186.393 E206.04211
G1 X133.71 Y186.393 E206.09189
G1 X132.923 Y186.231 E206.1293
G1 X131.907 Y185.89 E206.17921
G1 X131.01 Y185.344 E206.2281
G1 X130.245 Y184.644 E206.27639
G1 X130.06 Y184.404 E206.2905
G1 X73.902 Y184.404 E208.90545
G1 X73.077 Y184.202 E208.945
G1 X72.232 Y183.766 E208.98928
G1 X71.338 Y184.247 E209.03655
G1 X70.477 Y184.404 E209.0773
G1 X36.902 Y184.404 E210.64069
G1 X36.077 Y184.202 E210.68024
G1 X35.232 Y183.766 E210.72452
G1 X34.338 Y184.247 E210.77179
G1 X33.477 Y184.404 E210.81254
G1 X19.906 Y184.404 E211.44447
G1 X19.071 Y184.199 E211.4845
G1 X18.175 Y183.735 E211.53149
G1 X17.548 Y183.062 E211.57432
G1 X17.047 Y182.22 E211.61994
G1 X16.85 Y181.232 E211.66685
G1 X16.85 Y51.66 E217.70026
G1 X17.055 Y50.825 E217.7403
G1 X17.519 Y49.929 E217.78728
G1 X18.192 Y49.302 E217.83011
G1 X19.034 Y48.801 E217.87574
G0 F6000 X19.182 Y49.179
G1 F1200 X20.06 Y49.004 E217.91742
G1 X210.548 Y49.004 E226.78734
G1 X211.286 Y49.185 E226.82273
G1 X212.078 Y49.595 E226.86425
G1 X212.63 Y50.188 E226.90198
G1 X213.075 Y50.936 E226.94251
G1 X213.25 Y51.814 E226.98419
G1 X213.25 Y181.302 E233.0137
G1 X213.069 Y182.04 E233.04908
G1 X212.659 Y182.832 E233.09061
G1 X212.066 Y183.384 E233.12833
G1 X211.318 Y183.829 E233.16886
G1 X210.44 Y184.004 E233.21055
G1 X138.237 Y184.004 E236.57262
G1 X137.981 Y184.356 E236.59289
G1 X137.247 Y185.019 E236.63894
G1 X136.422 Y185.527 E236.68406
G1 X135.413 Y185.861 E236.73355
G1 X134.738 Y185.993 E236.76558
G1 X133.752 Y185.993 E236.81149
G1 X133.004 Y185.839 E236.84705
G1 X132.078 Y185.525 E236.89258
G1 X131.25 Y185.021 E236.93771
G1 X130.515 Y184.349 E236.98409
G1 X130.263 Y184.004 E237.00398
G1 X73.952 Y184.004 E239.62606
G1 X73.216 Y183.824 E239.66134
G1 X72.488 Y183.448 E239.69949
G1 X72.244 Y183.224 E239.71491
G1 X71.947 Y183.465 E239.73272
G1 X71.206 Y183.864 E239.77191
G1 X70.438 Y184.004 E239.80826
G1 X36.952 Y184.004 E241.36751
G1 X36.216 Y183.824 E241.40279
G1 X35.488 Y183.448 E241.44095
G1 X35.244 Y183.224 E241.45637
G1 X34.947 Y183.465 E241.47418
G1 X34.206 Y183.864 E241.51337
G1 X33.438 Y184.004 E241.54972
G1 X19.952 Y184.004 E242.17768
G1 X19.214 Y183.823 E242.21307
G1 X18.422 Y183.413 E242.25459
G1 X17.87 Y182.82 E242.29232
G1 X17.425 Y182.072 E242.33285
G1 X17.25 Y181.194 E242.37453
G1 X17.25 Y51.706 E248.40404
G1 X17.431 Y50.968 E248.43942
G1 X17.841 Y50.176 E248.48095
G1 X18.434 Y49.624 E248.51867
G1 X19.182 Y49.179 E248.5592
G0 F6000 X19.33 Y49.557
G1 F1200 X20.098 Y49.404 E248.59566
G1 X210.498 Y49.404 E257.46148
G1 X211.147 Y49.563 E257.4926
G1 X211.833 Y49.918 E257.52856
G1 X212.306 Y50.427 E257.56092
G1 X212.697 Y51.084 E257.59652
G1 X212.85 Y51.852 E257.63298
G1 X212.85 Y181.252 E263.65839
G1 X212.691 Y181.901 E263.6895
G1 X212.336 Y182.587 E263.72547
G1 X211.827 Y183.06 E263.75783
G1 X211.17 Y183.451 E263.79343
G1 X210.402 Y183.604 E263.82989
G1 X138.034 Y183.604 E267.19965
G1 X137.682 Y184.087 E267.22748
G1 X137.008 Y184.696 E267.26978
G1 X136.248 Y185.164 E267.31134
G1 X135.336 Y185.468 E267.3561
G1 X134.697 Y185.593 E267.38642
G1 X133.794 Y185.593 E267.42846
G1 X133.085 Y185.447 E267.46217
G1 X132.252 Y185.162 E267.50317
G1 X131.49 Y184.698 E267.54471
G1 X130.815 Y184.081 E267.58729
G1 X130.466 Y183.604 E267.61481
G1 X74.002 Y183.604 E270.24401
G1 X73.353 Y183.445 E270.27513
G1 X72.671 Y183.093 E270.31087
G1 X72.279 Y182.68 E270.33738
G1 X71.721 Y183.133 E270.37085
G1 X71.072 Y183.482 E270.40516
G1 X70.404 Y183.604 E270.43678
G1 X37.002 Y183.604 E271.99212
G1 X36.353 Y183.445 E272.02323
G1 X35.671 Y183.093 E272.05897
G1 X35.279 Y182.68 E272.08548
G1 X34.721 Y183.133 E272.11895
G1 X34.072 Y183.482 E272.15326
G1 X33.404 Y183.604 E272.18488
G1 X20.002 Y183.604 E272.80893
G1 X19.353 Y183.445 E272.84005
G1 X18.667 Y183.09 E272.87601
G1 X18.194 Y182.581 E272.90837
G1 X17.803 Y181.924 E272.94397
G1 X17.65 Y181.156 E272.98043
G1 X17.65 Y51.756 E279.00584
G1 X17.809 Y51.107 E279.03695
G1 X18.164 Y50.421 E279.07292
G1 X18.673 Y49.948 E279.10527
G1 X19.33 Y49.557 E279.14088
G0 F6000 X19.478 Y49.935
G1 F1200 X20.136 Y49.804 E279.17212
G1 X210.448 Y49.804 E288.03384
G1 X211.008 Y49.941 E288.06068
G1 X211.588 Y50.241 E288.09109
G1 X211.982 Y50.666 E288.11808
G1 X212.319 Y51.232 E288.14875
G1 X212.45 Y51.89 E288.17999
G1 X212.45 Y181.202 E294.2013
G1 X212.313 Y181.762 E294.22814
G1 X212.013 Y182.342 E294.25855
G1 X211.588 Y182.736 E294.28554
G1 X211.022 Y183.073 E294.31621
G1 X210.364 Y183.204 E294.34745
G1 X137.831 Y183.204 E297.72489
G1 X137.383 Y183.818 E297.76028
G1 X136.769 Y184.373 E297.79882
G1 X136.076 Y184.8 E297.83672
G1 X135.259 Y185.075 E297.87686
G1 X134.656 Y185.193 E297.90547
G1 X133.836 Y185.193 E297.94366
G1 X133.166 Y185.055 E297.97551
G1 X132.424 Y184.798 E298.01207
G1 X131.73 Y184.375 E298.04992
G1 X131.117 Y183.815 E298.08858
G1 X130.669 Y183.204 E298.12386
G1 X74.052 Y183.204 E300.76018
G1 X73.492 Y183.067 E300.78703
G1 X72.916 Y182.769 E300.81723
G1 X72.542 Y182.376 E300.84249
G1 X72.249 Y181.908 E300.8682
G1 X71.916 Y182.46 E300.89822
G1 X71.499 Y182.799 E300.92324
G1 X70.941 Y183.099 E300.95274
G1 X70.365 Y183.204 E300.98001
G1 X37.052 Y183.204 E302.5312
G1 X36.492 Y183.067 E302.55804
G1 X35.916 Y182.769 E302.58824
G1 X35.542 Y182.376 E302.6135
G1 X35.249 Y181.908 E302.63921
G1 X34.916 Y182.46 E302.66923
G1 X34.499 Y182.799 E302.69426
G1 X33.941 Y183.099 E302.72376
G1 X33.365 Y183.204 E302.75102
G1 X20.052 Y183.204 E303.37093
G1 X19.492 Y183.067 E303.39777
G1 X18.912 Y182.767 E303.42818
G1 X18.518 Y182.342 E303.45516
G1 X18.181 Y181.776 E303.48584
G1 X18.05 Y181.118 E303.51708
G1 X18.05 Y51.806 E309.53839
G1 X18.187 Y51.246 E309.56523
G1 X18.487 Y50.666 E309.59564
G1 X18.912 Y50.272 E309.62262
G1 X19.478 Y49.935 E309.6533
G0 F6000 X19.626 Y50.313
G1 F1200 X20.174 Y50.204 E309.67931
G1 X210.398 Y50.204 E318.53694
G1 X210.869 Y50.319 E318.55952
G1 X211.342 Y50.564 E318.58432
G1 X211.658 Y50.905 E318.60597
G1 X211.941 Y51.38 E318.63171
G1 X212.05 Y51.928 E318.65773
G1 X212.05 Y181.152 E324.67494
G1 X211.935 Y181.623 E324.69752
G1 X211.69 Y182.096 E324.72232
G1 X211.349 Y182.412 E324.74397
G1 X210.874 Y182.695 E324.76972
G1 X210.326 Y182.804 E324.79573
G1 X137.58 Y182.804 E328.18309
G1 X137.437 Y183.065 E328.19695
G1 X137.084 Y183.549 E328.22484
G1 X136.528 Y184.052 E328.25976
G1 X135.905 Y184.435 E328.29381
G1 X135.131 Y184.696 E328.33184
