;FLAVOR:Marlin
;TIME:7379
;Filament used: 6.88819m
;Layer height: 0.28
;MINX:16.731
;MINY:41.599
;MINZ:0.28
;MAXX:217.372
;MAXY:179.65
;MAXZ:5.04
;POSTPROCESSED
;Generated with Cura_SteamEngine 5.3.1
M140 S50
M105
M190 S50
M104 S200
M105
M109 S200
M82 ;absolute extrusion mode
; Ender 3 Custom Start G-code
G92 E0 ; Reset Extruder
G28 ; Home all axes
G1 Z2.0 F3000 ; Move Z Axis up little to prevent scratching of Heat Bed
G1 X0.1 Y20 Z0.3 F5000.0 ; Move to start position
G1 X0.1 Y200.0 Z0.3 F1500.0 E15 ; Draw the first line
G1 X0.4 Y200.0 Z0.3 F5000.0 ; Move to side a little
G1 X0.4 Y20 Z0.3 F1500.0 E30 ; Draw the second line
G92 E0 ; Reset Extruder
G1 Z2.0 F3000 ; Move Z Axis up little to prevent scratching of Heat Bed
G1 X5 Y20 Z0.3 F5000.0 ; Move over to prevent blob squish
G92 E0
G92 E0
G1 F2700 E-5
;LAYER_COUNT:18
;LAYER:0
M107
G0 F6000 X33.808 Y42.893 Z0.28
;TYPE:SKIRT
G1 F2700 E0
G1 F1200 X35.271 Y41.956 E0.0809
G1 X36.789 Y41.628 E0.15321
G1 X38.455 Y41.599 E0.2308
G1 X39.988 Y42.123 E0.30624
G1 X215.038 Y143.185 E9.7182
G1 X216.078 Y144.176 E9.78509
G1 X217.015 Y145.639 E9.86599
G1 X217.343 Y147.157 E9.93831
G1 X217.372 Y148.823 E10.01589
G1 X216.848 Y150.356 E10.09133
G1 X212.288 Y158.258 E10.51615
G1 X211.686 Y158.889 E10.55676
G1 X211.341 Y159.898 E10.60641
G1 X206.787 Y167.787 E11.03057
G1 X206.185 Y168.418 E11.07118
G1 X205.841 Y169.424 E11.12069
G1 X201.286 Y177.316 E11.54499
G1 X200.295 Y178.356 E11.61188
G1 X198.832 Y179.293 E11.69278
G1 X197.314 Y179.621 E11.76509
G1 X195.648 Y179.65 E11.84268
G1 X194.115 Y179.126 E11.91812
G1 X19.065 Y78.064 E21.33008
G1 X18.025 Y77.073 E21.39697
G1 X17.088 Y75.61 E21.47787
G1 X16.76 Y74.092 E21.55018
G1 X16.731 Y72.426 E21.62777
G1 X17.255 Y70.893 E21.70321
G1 X21.816 Y62.989 E22.12813
G1 X22.418 Y62.358 E22.16874
G1 X22.762 Y61.352 E22.21825
G1 X27.316 Y53.463 E22.64241
G1 X27.918 Y52.832 E22.68301
G1 X28.262 Y51.826 E22.73252
G1 X32.817 Y43.933 E23.15686
G1 X33.808 Y42.893 E23.22375
G0 F6000 X34.062 Y43.206
G1 F1200 X35.426 Y42.332 E23.29919
G1 X36.836 Y42.027 E23.36636
G1 X38.391 Y42 E23.43878
G1 X39.825 Y42.49 E23.50934
G1 X214.797 Y143.507 E32.91711
G1 X215.765 Y144.43 E32.97939
G1 X216.639 Y145.794 E33.05483
G1 X216.944 Y147.204 E33.122
G1 X216.971 Y148.759 E33.19442
G1 X216.481 Y150.193 E33.26498
G1 X211.967 Y158.014 E33.68547
G1 X211.337 Y158.675 E33.72798
G1 X210.976 Y159.731 E33.77995
G1 X206.466 Y167.543 E34.19998
G1 X205.836 Y168.204 E34.2425
G1 X205.476 Y169.257 E34.29432
G1 X200.964 Y177.075 E34.71463
G1 X200.041 Y178.043 E34.77691
G1 X198.677 Y178.917 E34.85235
G1 X197.267 Y179.222 E34.91952
G1 X195.712 Y179.249 E34.99194
G1 X194.278 Y178.759 E35.0625
G1 X19.306 Y77.742 E44.47027
G1 X18.338 Y76.819 E44.53255
G1 X17.464 Y75.455 E44.60798
G1 X17.159 Y74.045 E44.67516
G1 X17.132 Y72.49 E44.74758
G1 X17.622 Y71.056 E44.81814
G1 X22.137 Y63.233 E45.23873
G1 X22.767 Y62.572 E45.28125
G1 X23.127 Y61.519 E45.33306
G1 X27.637 Y53.707 E45.75309
G1 X28.267 Y53.046 E45.79561
G1 X28.627 Y51.993 E45.84743
G1 X33.139 Y44.174 E46.26779
G1 X34.062 Y43.206 E46.33007
G0 F6000 X34.319 Y43.517
G1 F1200 X35.582 Y42.708 E46.39991
G1 X36.883 Y42.426 E46.46189
G1 X38.33 Y42.401 E46.52928
G1 X39.658 Y42.855 E46.59463
G1 X214.553 Y143.828 E55.99827
G1 X215.454 Y144.687 E56.05624
G1 X216.263 Y145.95 E56.12608
G1 X216.545 Y147.251 E56.18806
G1 X216.57 Y148.698 E56.25545
G1 X216.116 Y150.026 E56.3208
G1 X211.645 Y157.773 E56.7373
G1 X210.988 Y158.462 E56.78163
G1 X210.611 Y159.564 E56.83587
G1 X206.144 Y167.302 E57.25191
G1 X205.487 Y167.991 E57.29624
G1 X205.111 Y169.09 E57.35033
G1 X200.643 Y176.831 E57.76651
G1 X199.784 Y177.732 E57.82448
G1 X198.521 Y178.541 E57.89432
G1 X197.22 Y178.823 E57.95631
G1 X195.773 Y178.848 E58.02369
G1 X194.445 Y178.394 E58.08904
G1 X19.55 Y77.421 E67.49268
G1 X18.649 Y76.562 E67.55065
G1 X17.84 Y75.299 E67.62049
G1 X17.558 Y73.998 E67.68248
G1 X17.533 Y72.551 E67.74987
G1 X17.987 Y71.223 E67.81522
G1 X22.459 Y63.474 E68.23182
G1 X23.116 Y62.785 E68.27615
G1 X23.492 Y61.686 E68.33024
G1 X27.959 Y53.948 E68.74628
G1 X28.616 Y53.259 E68.79061
G1 X28.992 Y52.16 E68.84469
G1 X33.46 Y44.418 E69.26092
G1 X34.319 Y43.517 E69.31889
G0 F6000 X34.576 Y43.828
G1 F1200 X35.738 Y43.084 E69.38313
G1 X36.93 Y42.825 E69.43993
G1 X38.266 Y42.802 E69.50215
G1 X39.495 Y43.222 E69.56263
G1 X214.309 Y144.149 E78.96193
G1 X215.143 Y144.944 E79.01558
G1 X215.887 Y146.106 E79.07983
G1 X216.146 Y147.298 E79.13663
G1 X216.169 Y148.634 E79.19885
G1 X215.749 Y149.863 E79.25933
G1 X211.323 Y157.532 E79.67163
G1 X210.637 Y158.251 E79.7179
G1 X210.244 Y159.401 E79.77449
G1 X205.822 Y167.061 E80.18634
G1 X205.136 Y167.78 E80.23262
G1 X204.744 Y168.927 E80.28906
G1 X200.322 Y176.587 E80.70091
G1 X199.527 Y177.421 E80.75456
G1 X198.365 Y178.165 E80.81881
G1 X197.173 Y178.424 E80.87561
G1 X195.837 Y178.447 E80.93783
G1 X194.608 Y178.027 E80.9983
G1 X19.794 Y77.1 E90.3976
G1 X18.96 Y76.305 E90.45126
G1 X18.216 Y75.143 E90.5155
G1 X17.957 Y73.951 E90.5723
G1 X17.934 Y72.615 E90.63452
G1 X18.354 Y71.386 E90.695
G1 X22.781 Y63.715 E91.10741
G1 X23.467 Y62.996 E91.15368
G1 X23.859 Y61.849 E91.21012
G1 X28.281 Y54.189 E91.62197
G1 X28.967 Y53.47 E91.66825
G1 X29.359 Y52.323 E91.72469
G1 X33.781 Y44.662 E92.13658
G1 X34.576 Y43.828 E92.19023
G0 F6000 X34.833 Y44.139
G1 F1200 X35.894 Y43.46 E92.24888
G1 X36.977 Y43.224 E92.3005
G1 X38.205 Y43.203 E92.35769
G1 X39.328 Y43.587 E92.41295
G1 X214.065 Y144.47 E101.80812
G1 X214.832 Y145.201 E101.85746
G1 X215.511 Y146.262 E101.91611
G1 X215.747 Y147.345 E101.96773
G1 X215.768 Y148.573 E102.02492
G1 X215.384 Y149.696 E102.08018
G1 X211.001 Y157.291 E102.4885
G1 X210.245 Y158.083 E102.53948
G1 X210.222 Y158.231 E102.54646
G1 X209.879 Y159.234 E102.59582
G1 X205.5 Y166.82 E103.00368
G1 X204.838 Y167.514 E103.04834
G1 X204.749 Y167.586 E103.05367
G1 X204.722 Y167.757 E103.06173
G1 X204.379 Y168.76 E103.11109
G1 X200.001 Y176.343 E103.51881
G1 X199.27 Y177.11 E103.56815
G1 X198.209 Y177.789 E103.6268
G1 X197.126 Y178.025 E103.67842
G1 X195.898 Y178.046 E103.7356
G1 X194.775 Y177.662 E103.79087
G1 X20.038 Y76.779 E113.18604
G1 X19.271 Y76.048 E113.23538
G1 X18.592 Y74.987 E113.29403
G1 X18.356 Y73.904 E113.34565
G1 X18.335 Y72.676 E113.40283
G1 X18.719 Y71.553 E113.4581
G1 X23.103 Y63.956 E113.86652
G1 X23.765 Y63.262 E113.91118
G1 X23.854 Y63.19 E113.91651
G1 X23.881 Y63.019 E113.92457
G1 X24.224 Y62.016 E113.97393
G1 X28.603 Y54.43 E114.3818
G1 X29.265 Y53.736 E114.42646
G1 X29.354 Y53.664 E114.43179
G1 X29.381 Y53.493 E114.43985
G1 X29.724 Y52.49 E114.48921
G1 X34.102 Y44.906 E114.89697
G1 X34.833 Y44.139 E114.9463
G0 F6000 X35.087 Y44.452
G1 F1200 X36.05 Y43.836 E114.99953
G1 X37.024 Y43.623 E115.04596
G1 X38.141 Y43.604 E115.09798
G1 X39.165 Y43.954 E115.14837
G1 X213.824 Y144.792 E124.53935
G1 X214.519 Y145.455 E124.58407
G1 X215.135 Y146.418 E124.6373
G1 X215.348 Y147.392 E124.68373
G1 X215.367 Y148.509 E124.73575
G1 X215.017 Y149.533 E124.78614
G1 X210.68 Y157.047 E125.19012
G1 X210.045 Y157.713 E125.23297
G1 X209.864 Y157.842 E125.24332
G1 X209.844 Y158.102 E125.25546
G1 X209.514 Y159.067 E125.30295
G1 X205.179 Y166.576 E125.70669
G1 X204.548 Y167.238 E125.74927
G1 X204.364 Y167.369 E125.75979
G1 X204.344 Y167.628 E125.77189
G1 X204.014 Y168.593 E125.81937
G1 X199.679 Y176.102 E126.22311
G1 X199.016 Y176.797 E126.26783
G1 X198.053 Y177.413 E126.32106
G1 X197.079 Y177.626 E126.36749
G1 X195.962 Y177.645 E126.41951
G1 X194.938 Y177.295 E126.4699
G1 X20.279 Y76.457 E135.86088
G1 X19.584 Y75.794 E135.9056
G1 X18.968 Y74.831 E135.95883
G1 X18.755 Y73.857 E136.00526
G1 X18.736 Y72.74 E136.05728
G1 X19.086 Y71.716 E136.10767
G1 X23.424 Y64.2 E136.51176
G1 X24.055 Y63.538 E136.55434
G1 X24.239 Y63.407 E136.56486
G1 X24.259 Y63.148 E136.57695
G1 X24.589 Y62.183 E136.62444
G1 X28.924 Y54.674 E137.02818
G1 X29.555 Y54.012 E137.07076
G1 X29.739 Y53.881 E137.08128
G1 X29.759 Y53.622 E137.09338
G1 X30.089 Y52.657 E137.14087
G1 X34.424 Y45.147 E137.54464
G1 X35.087 Y44.452 E137.58937
G0 F6000 X35.345 Y44.761
G1 F1200 X36.204 Y44.212 E137.63684
G1 X37.072 Y44.022 E137.67821
G1 X38.077 Y44.005 E137.72501
G1 X39.002 Y44.321 E137.77053
G1 X213.58 Y145.113 E147.15717
G1 X214.21 Y145.713 E147.19768
G1 X214.759 Y146.572 E147.24515
G1 X214.949 Y147.44 E147.28653
G1 X214.966 Y148.445 E147.33333
G1 X214.65 Y149.37 E147.37885
G1 X210.359 Y156.803 E147.77849
G1 X209.755 Y157.437 E147.81927
G1 X209.461 Y157.625 E147.83552
G1 X209.466 Y157.973 E147.85172
G1 X209.149 Y158.9 E147.89734
G1 X204.858 Y166.332 E148.29695
G1 X204.258 Y166.962 E148.33746
G1 X203.961 Y167.152 E148.35387
G1 X203.966 Y167.499 E148.37003
G1 X203.649 Y168.426 E148.41565
G1 X199.358 Y175.858 E148.81526
G1 X198.758 Y176.488 E148.85577
G1 X197.899 Y177.037 E148.90324
G1 X197.031 Y177.227 E148.94461
G1 X196.026 Y177.244 E148.99142
G1 X195.101 Y176.928 E149.03693
G1 X20.523 Y76.136 E158.42357
G1 X19.893 Y75.536 E158.46408
G1 X19.344 Y74.677 E158.51155
G1 X19.154 Y73.809 E158.55293
G1 X19.137 Y72.804 E158.59973
G1 X19.453 Y71.879 E158.64525
G1 X23.745 Y64.444 E159.045
G1 X24.345 Y63.814 E159.08551
G1 X24.642 Y63.624 E159.10192
G1 X24.637 Y63.277 E159.11808
G1 X24.954 Y62.35 E159.1637
G1 X29.245 Y54.918 E159.56331
G1 X29.845 Y54.288 E159.60382
G1 X30.142 Y54.098 E159.62024
G1 X30.137 Y53.751 E159.6364
G1 X30.454 Y52.824 E159.68201
G1 X34.745 Y45.391 E160.08166
G1 X35.345 Y44.761 E160.12217
G0 F6000 X35.601 Y45.072
G1 F1200 X36.358 Y44.588 E160.16401
G1 X37.12 Y44.421 E160.20033
G1 X38.016 Y44.406 E160.24206
G1 X38.835 Y44.686 E160.28236
G1 X213.339 Y145.435 E169.66502
G1 X213.899 Y145.969 E169.70105
G1 X214.383 Y146.726 E169.74289
G1 X214.55 Y147.488 E169.77921
G1 X214.565 Y148.384 E169.82094
G1 X214.285 Y149.203 E169.86124
G1 X210.037 Y156.562 E170.2569
G1 X209.499 Y157.126 E170.2932
G1 X209.057 Y157.408 E170.31761
G1 X209.065 Y157.91 E170.34099
G1 X208.783 Y158.734 E170.38154
G1 X204.536 Y166.091 E170.7771
G1 X204.002 Y166.651 E170.81313
G1 X203.557 Y166.935 E170.83771
G1 X203.565 Y167.436 E170.86104
G1 X203.283 Y168.26 E170.9016
G1 X199.036 Y175.617 E171.29715
G1 X198.502 Y176.177 E171.33318
G1 X197.745 Y176.661 E171.37502
G1 X196.983 Y176.828 E171.41134
G1 X196.087 Y176.843 E171.45307
G1 X195.268 Y176.563 E171.49337
G1 X20.764 Y75.814 E180.87603
G1 X20.204 Y75.28 E180.91206
G1 X19.72 Y74.523 E180.9539
G1 X19.553 Y73.761 E180.99022
G1 X19.538 Y72.865 E181.03195
G1 X19.818 Y72.046 E181.07225
G1 X24.067 Y64.685 E181.46802
G1 X24.601 Y64.125 E181.50405
G1 X25.046 Y63.841 E181.52863
G1 X25.038 Y63.34 E181.55196
G1 X25.32 Y62.516 E181.59252
G1 X29.567 Y55.159 E181.98807
G1 X30.101 Y54.599 E182.0241
G1 X30.546 Y54.315 E182.04868
G1 X30.538 Y53.814 E182.07202
G1 X30.82 Y52.99 E182.11257
G1 X35.067 Y45.632 E182.50817
G1 X35.601 Y45.072 E182.5442
G0 F6000 X35.855 Y45.385
G1 F1200 X36.513 Y44.964 E182.58057
G1 X37.168 Y44.82 E182.6118
G1 X37.952 Y44.807 E182.64831
G1 X38.672 Y45.053 E182.68374
G1 X213.098 Y145.757 E192.0622
G1 X213.586 Y146.223 E192.09362
G1 X214.007 Y146.881 E192.13
G1 X214.151 Y147.536 E192.16122
G1 X214.164 Y148.32 E192.19773
G1 X213.918 Y149.04 E192.23316
G1 X209.715 Y156.321 E192.62463
G1 X209.245 Y156.813 E192.65631
G1 X208.654 Y157.191 E192.68898
G1 X208.664 Y157.848 E192.71958
G1 X208.418 Y158.567 E192.75496
G1 X204.214 Y165.85 E193.14653
G1 X203.748 Y166.338 E193.17795
G1 X203.154 Y166.718 E193.21079
G1 X203.164 Y167.374 E193.24134
G1 X202.918 Y168.093 E193.27672
G1 X198.714 Y175.376 E193.66829
G1 X198.248 Y175.864 E193.69971
G1 X197.59 Y176.285 E193.73608
G1 X196.935 Y176.429 E193.76731
G1 X196.151 Y176.442 E193.80382
G1 X195.431 Y176.196 E193.83925
G1 X21.005 Y75.492 E203.21772
G1 X20.517 Y75.026 E203.24914
G1 X20.096 Y74.368 E203.28551
G1 X19.952 Y73.713 E203.31674
G1 X19.939 Y72.929 E203.35325
G1 X20.185 Y72.209 E203.38868
G1 X24.389 Y64.926 E203.78025
G1 X24.855 Y64.438 E203.81167
G1 X25.449 Y64.058 E203.8445
G1 X25.439 Y63.402 E203.87505
G1 X25.685 Y62.683 E203.91044
G1 X29.889 Y55.4 E204.30201
G1 X30.355 Y54.912 E204.33343
G1 X30.949 Y54.532 E204.36626
G1 X30.939 Y53.876 E204.39681
G1 X31.185 Y53.157 E204.4322
G1 X35.389 Y45.873 E204.82381
G1 X35.855 Y45.385 E204.85523
G0 F6000 X36.113 Y45.694
G1 F1200 X36.667 Y45.34 E204.88584
G1 X37.216 Y45.219 E204.91202
G1 X37.891 Y45.208 E204.94345
G1 X38.505 Y45.418 E204.97367
G1 X212.854 Y146.078 E214.348
G1 X213.277 Y146.481 E214.37521
G1 X213.631 Y147.035 E214.40582
G1 X213.752 Y147.584 E214.432
G1 X213.763 Y148.259 E214.46343
G1 X213.553 Y148.873 E214.49365
G1 X209.394 Y156.077 E214.88099
G1 X208.987 Y156.504 E214.90845
G1 X208.483 Y156.826 E214.9363
G1 X208.208 Y156.911 E214.94971
G1 X208.253 Y157.153 E214.96117
G1 X208.263 Y157.786 E214.99065
G1 X208.053 Y158.4 E215.02086
G1 X203.893 Y165.606 E215.4083
G1 X203.49 Y166.029 E215.43551
G1 X202.997 Y166.344 E215.46275
G1 X202.707 Y166.433 E215.47688
G1 X202.753 Y166.679 E215.48853
G1 X202.763 Y167.312 E215.51801
G1 X202.553 Y167.926 E215.54822
G1 X198.393 Y175.132 E215.93567
G1 X197.99 Y175.555 E215.96287
G1 X197.436 Y175.909 E215.99348
G1 X196.887 Y176.03 E216.01966
G1 X196.212 Y176.041 E216.0511
G1 X195.598 Y175.831 E216.08131
G1 X21.249 Y75.171 E225.45565
G1 X20.826 Y74.768 E225.48285
G1 X20.472 Y74.214 E225.51346
G1 X20.351 Y73.665 E225.53964
G1 X20.34 Y72.99 E225.57108
G1 X20.55 Y72.376 E225.60129
G1 X24.71 Y65.17 E225.98873
G1 X25.113 Y64.747 E226.01594
G1 X25.606 Y64.432 E226.04318
G1 X25.896 Y64.343 E226.05731
G1 X25.85 Y64.097 E226.06896
G1 X25.84 Y63.464 E226.09844
G1 X26.05 Y62.85 E226.12865
G1 X30.21 Y55.644 E226.5161
G1 X30.613 Y55.221 E226.5433
G1 X31.106 Y54.906 E226.57054
G1 X31.396 Y54.817 E226.58467
G1 X31.35 Y54.571 E226.59632
G1 X31.34 Y53.938 E226.6258
G1 X31.55 Y53.324 E226.65602
G1 X35.71 Y46.117 E227.0435
G1 X36.113 Y45.694 E227.0707
G0 F6000 X36.369 Y46.005
G1 F1200 X36.821 Y45.716 E227.09568
G1 X37.264 Y45.618 E227.11681
G1 X37.827 Y45.609 E227.14303
G1 X38.342 Y45.785 E227.16837
G1 X212.613 Y146.4 E236.53851
G1 X212.966 Y146.737 E236.56124
G1 X213.255 Y147.189 E236.58622
G1 X213.353 Y147.632 E236.60734
G1 X213.362 Y148.195 E236.63356
G1 X213.186 Y148.71 E236.65891
G1 X209.072 Y155.836 E237.04205
G1 X208.731 Y156.193 E237.06504
G1 X208.268 Y156.489 E237.09063
G1 X207.892 Y156.57 E237.10854
G1 X207.669 Y156.581 E237.11893
G1 X207.77 Y156.783 E237.12945
G1 X207.853 Y157.159 E237.14738
G1 X207.862 Y157.722 E237.1736
G1 X207.686 Y158.237 E237.19894
G1 X203.571 Y165.365 E237.58219
G1 X203.234 Y165.718 E237.60491
G1 X202.782 Y166.007 E237.62989
G1 X202.377 Y166.097 E237.64921
G1 X202.169 Y166.108 E237.65891
G1 X202.27 Y166.309 E237.66939
G1 X202.353 Y166.685 E237.68732
G1 X202.362 Y167.248 E237.71353
G1 X202.186 Y167.763 E237.73888
G1 X198.071 Y174.891 E238.12212
G1 X197.734 Y175.244 E238.14485
G1 X197.282 Y175.533 E238.16983
G1 X196.839 Y175.631 E238.19096
G1 X196.276 Y175.64 E238.21718
G1 X195.761 Y175.464 E238.24252
G1 X21.49 Y74.849 E247.61266
G1 X21.137 Y74.512 E247.63538
G1 X20.848 Y74.06 E247.66037
G1 X20.75 Y73.617 E247.68149
G1 X20.741 Y73.054 E247.70771
G1 X20.917 Y72.539 E247.73305
G1 X25.032 Y65.411 E248.1163
G1 X25.369 Y65.058 E248.13903
G1 X25.821 Y64.769 E248.16401
G1 X26.226 Y64.679 E248.18333
G1 X26.434 Y64.668 E248.19303
G1 X26.333 Y64.467 E248.2035
G1 X26.25 Y64.091 E248.22143
G1 X26.241 Y63.528 E248.24765
G1 X26.417 Y63.013 E248.27299
G1 X30.532 Y55.885 E248.65624
G1 X30.869 Y55.532 E248.67896
G1 X31.321 Y55.243 E248.70394
G1 X31.726 Y55.153 E248.72326
G1 X31.934 Y55.142 E248.73296
G1 X31.833 Y54.941 E248.74344
G1 X31.75 Y54.565 E248.76137
G1 X31.741 Y54.002 E248.78759
G1 X31.917 Y53.487 E248.81293
G1 X36.032 Y46.358 E249.19622
G1 X36.369 Y46.005 E249.21894
G0 F6000 X36.627 Y46.314
G1 F1200 X36.975 Y46.092 E249.23816
G1 X37.313 Y46.017 E249.25428
G1 X37.763 Y46.01 E249.27524
G1 X38.179 Y46.152 E249.29571
G1 X212.369 Y146.721 E258.66151
G1 X212.657 Y146.995 E258.68002
G1 X212.879 Y147.343 E258.69924
G1 X212.954 Y147.681 E258.71536
G1 X212.961 Y148.131 E258.73632
G1 X212.819 Y148.547 E258.75679
G1 X208.75 Y155.595 E259.13574
