;FLAVOR:Marlin
;TIME:8368
;Filament used: 6.94881m
;Layer height: 0.28
;MINX:76.956
;MINY:57.656
;MINZ:0.28
;MAXX:170.765
;MAXY:191.89
;MAXZ:8.12
;Generated with Cura_SteamEngine 5.3.1
M140 S60
M105
M190 S60
M104 S195
M105
M109 S195
M82 ;absolute extrusion mode
; Ender 3 Custom Start G-code
G92 E0 ; Reset Extruder
G28 ; Home all axes
G1 Z2.0 F3000 ; Move Z Axis up little to prevent scratching of Heat Bed
G1 X0.1 Y20 Z0.3 F5000.0 ; Move to start position
G1 X0.1 Y200.0 Z0.3 F1500.0 E15 ; Draw the first line
G1 X0.4 Y200.0 Z0.3 F5000.0 ; Move to side a little
G1 X0.4 Y20 Z0.3 F1500.0 E30 ; Draw the second line
G92 E0 ; Reset Extruder
G1 Z2.0 F3000 ; Move Z Axis up little to prevent scratching of Heat Bed
G1 X5 Y20 Z0.3 F5000.0 ; Move over to prevent blob squish
G92 E0
G92 E0
G1 F2700 E-5
;LAYER_COUNT:29
;LAYER:0
M107
G0 F6000 X79.917 Y80.197 Z0.28
;TYPE:SKIRT
G1 F2700 E0
G1 F1200 X81.787 Y79.117 E0.10055
G1 X158.508 Y57.703 E3.80955
G1 X160.059 Y57.656 E3.88181
G1 X161.482 Y57.778 E3.94831
G1 X163.31 Y58.483 E4.03954
G1 X164.975 Y59.564 E4.13198
G1 X166.267 Y61.13 E4.22651
G1 X167.185 Y62.848 E4.31721
G1 X167.556 Y64.827 E4.41097
G1 X167.556 Y119.679 E6.96511
G1 X167.793 Y119.826 E6.97809
G1 X169.213 Y121.351 E7.07512
G1 X170.326 Y123.221 E7.17645
G1 X170.765 Y125.419 E7.28082
G1 X170.765 Y184.98 E10.05423
G1 X170.284 Y186.819 E10.14274
G1 X169.908 Y187.781 E10.19084
G1 X168.754 Y189.339 E10.28112
G1 X167.505 Y190.493 E10.3603
G1 X165.535 Y191.523 E10.46381
G1 X163.55 Y191.89 E10.55781
G1 X161.758 Y191.849 E10.64128
G1 X84.983 Y170.414 E14.35296
G1 X83.395 Y169.468 E14.43903
G1 X82.449 Y168.751 E14.4943
G1 X81.428 Y167.381 E14.57386
G1 X80.687 Y166.116 E14.64213
G1 X80.165 Y164.031 E14.74221
G1 X80.165 Y129.857 E16.33349
G1 X79.928 Y129.71 E16.34648
G1 X78.508 Y128.185 E16.44351
G1 X77.395 Y126.315 E16.54484
G1 X76.956 Y124.117 E16.64921
G1 X76.956 Y85.487 E18.44798
G1 X77.344 Y83.988 E18.52008
G1 X77.882 Y82.577 E18.5904
G1 X78.99 Y81.151 E18.67449
G1 X79.917 Y80.197 E18.73643
G0 F6000 X80.167 Y80.514
G1 F1200 X81.942 Y79.489 E18.83187
G1 X158.567 Y58.102 E22.53622
G1 X160.025 Y58.055 E22.60415
G1 X161.393 Y58.172 E22.66808
G1 X163.124 Y58.84 E22.75448
G1 X164.705 Y59.866 E22.84224
G1 X165.935 Y61.357 E22.93224
G1 X166.803 Y62.982 E23.01803
G1 X167.156 Y64.864 E23.10719
G1 X167.156 Y119.923 E25.67097
G1 X167.5 Y120.099 E25.68896
G1 X168.891 Y121.593 E25.78401
G1 X169.948 Y123.369 E25.88025
G1 X170.365 Y125.457 E25.97939
G1 X170.365 Y184.929 E28.74866
G1 X169.911 Y186.673 E28.83257
G1 X169.553 Y187.589 E28.87837
G1 X168.458 Y189.067 E28.96402
G1 X167.269 Y190.166 E29.03941
G1 X165.404 Y191.141 E29.13741
G1 X163.52 Y191.489 E29.22662
G1 X161.816 Y191.45 E29.30598
G1 X85.142 Y170.043 E33.01279
G1 X83.637 Y169.149 E33.0943
G1 X82.736 Y168.466 E33.14694
G1 X81.749 Y167.142 E33.22384
G1 X81.061 Y165.964 E33.28736
G1 X80.565 Y163.982 E33.3825
G1 X80.565 Y129.613 E34.98286
G1 X80.221 Y129.437 E35.00086
G1 X78.83 Y127.943 E35.09591
G1 X77.773 Y126.167 E35.19214
G1 X77.356 Y124.079 E35.29129
G1 X77.356 Y85.537 E37.08597
G1 X77.731 Y84.088 E37.15566
G1 X78.234 Y82.776 E37.22109
G1 X79.277 Y81.43 E37.30038
G1 X80.167 Y80.514 E37.35985
G0 F6000 X80.417 Y80.831
G1 F1200 X82.097 Y79.861 E37.45018
G1 X158.627 Y58.501 E41.14994
G1 X159.991 Y58.454 E41.21349
G1 X161.304 Y58.566 E41.27485
G1 X162.942 Y59.198 E41.3566
G1 X164.433 Y60.166 E41.43938
G1 X165.603 Y61.584 E41.52498
G1 X166.421 Y63.116 E41.60585
G1 X166.756 Y64.901 E41.69042
G1 X166.756 Y120.167 E44.26383
G1 X167.254 Y120.423 E44.28991
G1 X168.569 Y121.835 E44.37975
G1 X169.57 Y123.517 E44.47089
G1 X169.965 Y125.495 E44.56481
G1 X169.965 Y184.879 E47.32998
G1 X169.538 Y186.527 E47.40925
G1 X169.198 Y187.397 E47.45275
G1 X168.16 Y188.798 E47.53394
G1 X167.038 Y189.835 E47.60508
G1 X165.27 Y190.759 E47.69797
G1 X163.49 Y191.088 E47.78226
G1 X161.874 Y191.051 E47.85753
G1 X85.301 Y169.672 E51.55945
G1 X83.879 Y168.83 E51.6364
G1 X83.023 Y168.181 E51.68642
G1 X82.07 Y166.903 E51.76065
G1 X81.435 Y165.811 E51.81947
G1 X80.965 Y163.933 E51.90962
G1 X80.965 Y129.369 E53.51906
G1 X80.467 Y129.113 E53.54514
G1 X79.152 Y127.701 E53.63498
G1 X78.151 Y126.019 E53.72612
G1 X77.756 Y124.041 E53.82005
G1 X77.756 Y85.587 E55.61063
G1 X78.105 Y84.231 E55.67582
G1 X78.587 Y82.973 E55.73855
G1 X79.564 Y81.709 E55.81294
G1 X80.417 Y80.831 E55.86994
G0 F6000 X80.667 Y81.148
G1 F1200 X82.252 Y80.233 E55.95516
G1 X158.687 Y58.899 E59.65033
G1 X160.005 Y58.854 E59.71174
G1 X161.212 Y58.959 E59.76816
G1 X162.756 Y59.555 E59.84522
G1 X164.163 Y60.468 E59.92332
G1 X165.269 Y61.809 E60.00426
G1 X166.04 Y63.252 E60.08044
G1 X166.356 Y64.938 E60.16032
G1 X166.356 Y120.412 E62.74342
G1 X167.008 Y120.747 E62.77755
G1 X168.247 Y122.077 E62.86219
G1 X169.192 Y123.665 E62.94824
G1 X169.565 Y125.533 E63.03694
G1 X169.565 Y184.829 E65.79801
G1 X169.165 Y186.381 E65.87264
G1 X168.843 Y187.205 E65.91383
G1 X167.864 Y188.526 E65.99039
G1 X166.805 Y189.505 E66.05755
G1 X165.136 Y190.377 E66.14523
G1 X163.46 Y190.687 E66.2246
G1 X161.932 Y190.652 E66.29577
G1 X85.461 Y169.301 E69.99276
G1 X84.121 Y168.511 E70.0652
G1 X83.307 Y167.894 E70.11276
G1 X82.416 Y166.702 E70.18205
G1 X81.809 Y165.658 E70.23829
G1 X81.365 Y163.884 E70.32344
G1 X81.365 Y129.124 E71.94201
G1 X80.713 Y128.789 E71.97614
G1 X79.474 Y127.459 E72.06078
G1 X78.529 Y125.871 E72.14683
G1 X78.156 Y124.003 E72.23553
G1 X78.156 Y85.639 E74.02192
G1 X78.479 Y84.374 E74.08271
G1 X78.94 Y83.17 E74.14274
G1 X79.851 Y81.988 E74.21223
G1 X80.667 Y81.148 E74.26676
G0 F6000 X80.917 Y81.465
G1 F1200 X82.407 Y80.605 E74.34687
G1 X158.747 Y59.297 E78.03745
G1 X159.97 Y59.253 E78.09444
G1 X161.123 Y59.353 E78.14833
G1 X162.57 Y59.912 E78.22056
G1 X163.895 Y60.772 E78.29411
G1 X164.935 Y62.032 E78.37019
G1 X165.658 Y63.386 E78.44166
G1 X165.956 Y64.975 E78.51694
G1 X165.956 Y120.657 E81.10973
G1 X166.762 Y121.071 E81.15192
G1 X167.925 Y122.319 E81.23136
G1 X168.814 Y123.813 E81.31231
G1 X169.165 Y125.571 E81.39578
G1 X169.165 Y184.78 E84.1528
G1 X168.792 Y186.235 E84.22274
G1 X168.488 Y187.013 E84.26164
G1 X167.568 Y188.254 E84.33357
G1 X166.572 Y189.175 E84.39674
G1 X165.002 Y189.995 E84.47922
G1 X163.43 Y190.286 E84.55366
G1 X161.99 Y190.253 E84.62073
G1 X85.621 Y168.93 E88.3128
G1 X84.324 Y168.166 E88.38289
G1 X83.594 Y167.61 E88.42562
G1 X82.762 Y166.501 E88.49018
G1 X82.183 Y165.505 E88.54382
G1 X81.765 Y163.835 E88.62398
G1 X81.765 Y128.879 E90.25168
G1 X80.959 Y128.465 E90.29387
G1 X79.796 Y127.217 E90.37331
G1 X78.907 Y125.723 E90.45426
G1 X78.556 Y123.965 E90.53773
G1 X78.556 Y85.691 E92.31993
G1 X78.867 Y84.473 E92.37847
G1 X79.291 Y83.369 E92.43353
G1 X80.138 Y82.267 E92.49825
G1 X80.917 Y81.465 E92.55031
G0 F6000 X81.165 Y81.784
G1 F1200 X82.566 Y80.976 E92.62562
G1 X158.807 Y59.695 E96.31143
G1 X159.936 Y59.652 E96.36404
G1 X161.034 Y59.747 E96.41536
G1 X162.388 Y60.27 E96.48294
G1 X163.623 Y61.072 E96.55151
G1 X164.601 Y62.257 E96.62306
G1 X165.277 Y63.522 E96.68984
G1 X165.556 Y65.012 E96.76043
G1 X165.556 Y120.902 E99.3629
G1 X166.516 Y121.395 E99.41315
G1 X167.603 Y122.561 E99.48738
G1 X168.436 Y123.961 E99.56324
G1 X168.765 Y125.609 E99.64149
G1 X168.765 Y184.728 E102.39432
G1 X168.419 Y186.089 E102.45971
G1 X168.133 Y186.821 E102.4963
G1 X167.27 Y187.985 E102.56377
G1 X166.338 Y188.846 E102.62286
G1 X164.871 Y189.613 E102.69994
G1 X163.4 Y189.885 E102.7696
G1 X162.048 Y189.854 E102.83257
G1 X85.779 Y168.559 E106.5198
G1 X84.567 Y167.848 E106.58523
G1 X83.88 Y167.324 E106.62547
G1 X83.108 Y166.3 E106.68518
G1 X82.557 Y165.352 E106.73624
G1 X82.165 Y163.786 E106.81141
G1 X82.165 Y128.634 E108.44823
G1 X81.205 Y128.141 E108.49848
G1 X80.118 Y126.975 E108.57271
G1 X79.285 Y125.575 E108.64857
G1 X78.956 Y123.927 E108.72682
G1 X78.956 Y85.743 E110.50483
G1 X79.255 Y84.572 E110.5611
G1 X79.643 Y83.568 E110.61122
G1 X80.425 Y82.546 E110.67114
G1 X81.165 Y81.784 E110.7206
G0 F6000 X81.413 Y82.103
G1 F1200 X82.721 Y81.348 E110.79093
G1 X158.867 Y60.093 E114.47215
G1 X159.902 Y60.051 E114.52038
G1 X160.945 Y60.141 E114.56913
G1 X162.202 Y60.627 E114.63188
G1 X163.353 Y61.374 E114.69578
G1 X164.269 Y62.484 E114.76279
G1 X164.895 Y63.656 E114.82466
G1 X165.156 Y65.049 E114.89065
G1 X165.156 Y121.147 E117.50281
G1 X166.27 Y121.719 E117.56112
G1 X167.281 Y122.803 E117.63014
G1 X168.058 Y124.109 E117.7009
G1 X168.365 Y125.647 E117.77393
G1 X168.365 Y184.677 E120.52262
G1 X168.046 Y185.943 E120.58341
G1 X167.778 Y186.629 E120.6177
G1 X166.974 Y187.713 E120.68055
G1 X166.102 Y188.519 E120.73584
G1 X164.74 Y189.231 E120.8074
G1 X163.37 Y189.484 E120.87227
G1 X162.106 Y189.455 E120.93115
G1 X85.936 Y168.188 E124.61359
G1 X84.81 Y167.53 E124.67432
G1 X84.165 Y167.038 E124.71209
G1 X83.454 Y166.099 E124.76694
G1 X82.931 Y165.199 E124.81541
G1 X82.565 Y163.737 E124.88558
G1 X82.565 Y128.389 E126.53154
G1 X81.451 Y127.817 E126.58985
G1 X80.44 Y126.733 E126.65887
G1 X79.663 Y125.427 E126.72963
G1 X79.356 Y123.889 E126.80266
G1 X79.356 Y85.795 E128.57647
G1 X79.643 Y84.671 E128.63049
G1 X79.996 Y83.766 E128.67572
G1 X80.743 Y82.789 E128.73299
G1 X81.413 Y82.103 E128.77764
G0 F6000 X81.66 Y82.422
G1 F1200 X82.876 Y81.72 E128.84302
G1 X158.928 Y60.491 E132.5197
G1 X159.918 Y60.451 E132.56584
G1 X160.853 Y60.534 E132.60955
G1 X162.02 Y60.985 E132.6678
G1 X163.081 Y61.674 E132.72671
G1 X163.935 Y62.709 E132.78919
G1 X164.514 Y63.792 E132.84638
G1 X164.756 Y65.086 E132.90767
G1 X164.756 Y121.391 E135.52947
G1 X166.026 Y122.044 E135.59597
G1 X166.957 Y123.042 E135.65952
G1 X167.68 Y124.257 E135.72535
G1 X167.965 Y125.685 E135.79316
G1 X167.965 Y184.627 E138.53774
G1 X167.658 Y185.845 E138.59623
G1 X167.424 Y186.435 E138.62579
G1 X166.678 Y187.441 E138.68411
G1 X165.869 Y188.189 E138.73541
G1 X164.606 Y188.849 E138.80177
G1 X163.34 Y189.083 E138.86172
G1 X162.164 Y189.056 E138.91649
G1 X86.094 Y167.817 E142.5941
G1 X85.053 Y167.212 E142.65017
G1 X84.45 Y166.752 E142.68548
G1 X83.773 Y165.858 E142.7377
G1 X83.305 Y165.048 E142.78126
G1 X82.965 Y163.688 E142.84653
G1 X82.965 Y128.145 E144.50157
G1 X81.695 Y127.492 E144.56806
G1 X80.764 Y126.494 E144.63161
G1 X80.041 Y125.279 E144.69745
G1 X79.756 Y123.851 E144.76525
G1 X79.756 Y85.847 E146.53488
G1 X80.031 Y84.77 E146.58664
G1 X80.347 Y83.966 E146.62686
G1 X81.061 Y83.032 E146.68161
G1 X81.66 Y82.422 E146.72141
G0 F6000 X81.909 Y82.74
G1 F1200 X83.031 Y82.092 E146.78175
G1 X158.989 Y60.889 E150.45388
G1 X159.934 Y60.851 E150.49792
G1 X160.761 Y60.927 E150.53659
G1 X161.838 Y61.343 E150.59035
G1 X162.811 Y61.975 E150.64438
G1 X163.601 Y62.932 E150.70216
G1 X164.132 Y63.926 E150.75464
G1 X164.356 Y65.123 E150.81134
G1 X164.356 Y121.688 E153.44525
G1 X164.613 Y121.762 E153.4577
G1 X165.781 Y122.368 E153.51897
G1 X166.633 Y123.281 E153.57712
G1 X167.302 Y124.405 E153.63803
G1 X167.565 Y125.723 E153.70061
G1 X167.565 Y184.578 E156.44114
G1 X167.286 Y185.697 E156.49484
G1 X167.07 Y186.241 E156.5221
G1 X166.382 Y187.169 E156.57589
G1 X165.636 Y187.859 E156.62321
G1 X164.472 Y188.467 E156.68436
G1 X163.31 Y188.682 E156.73938
G1 X162.222 Y188.657 E156.79006
G1 X86.25 Y167.445 E160.46294
G1 X85.296 Y166.894 E160.51423
G1 X84.737 Y166.467 E160.54699
G1 X84.092 Y165.616 E160.59671
G1 X83.679 Y164.896 E160.63536
G1 X83.365 Y163.639 E160.69569
G1 X83.365 Y127.848 E162.36227
G1 X83.108 Y127.774 E162.37472
G1 X81.94 Y127.168 E162.43599
G1 X81.088 Y126.255 E162.49414
G1 X80.419 Y125.131 E162.55505
G1 X80.156 Y123.813 E162.61763
G1 X80.156 Y85.899 E164.38307
G1 X80.419 Y84.869 E164.43257
G1 X80.699 Y84.164 E164.46789
G1 X81.379 Y83.275 E164.52001
G1 X81.909 Y82.74 E164.55507
G0 F6000 X82.157 Y83.058
G1 F1200 X83.186 Y82.464 E164.6104
G1 X159.05 Y61.287 E168.27799
G1 X159.95 Y61.251 E168.31993
G1 X160.669 Y61.32 E168.35357
G1 X161.652 Y61.7 E168.40264
G1 X162.543 Y62.278 E168.45209
G1 X163.267 Y63.156 E168.50508
G1 X163.75 Y64.06 E168.55281
G1 X163.956 Y65.16 E168.60492
G1 X163.956 Y122.001 E171.25168
G1 X164.429 Y122.117 E171.27435
G1 X165.534 Y122.69 E171.33231
G1 X166.311 Y123.523 E171.38536
G1 X166.924 Y124.553 E171.44117
G1 X167.165 Y125.761 E171.49853
G1 X167.165 Y184.53 E174.23506
G1 X166.914 Y185.549 E174.28392
G1 X166.716 Y186.047 E174.30888
G1 X166.086 Y186.897 E174.35814
G1 X165.403 Y187.529 E174.40147
G1 X164.338 Y188.085 E174.45742
G1 X163.28 Y188.281 E174.50752
G1 X162.28 Y188.258 E174.5541
G1 X86.407 Y167.074 E178.22218
G1 X85.539 Y166.576 E178.26878
G1 X85.024 Y166.182 E178.29897
G1 X84.411 Y165.374 E178.3462
G1 X84.053 Y164.744 E178.37994
G1 X83.765 Y163.59 E178.43532
G1 X83.765 Y127.535 E180.1142
G1 X83.292 Y127.419 E180.13687
G1 X82.187 Y126.846 E180.19483
G1 X81.41 Y126.013 E180.24788
G1 X80.797 Y124.983 E180.30369
G1 X80.556 Y123.775 E180.36105
G1 X80.556 Y85.95 E182.12234
G1 X80.791 Y85.017 E182.16714
G1 X81.051 Y84.363 E182.19991
G1 X81.697 Y83.518 E182.24944
G1 X82.157 Y83.058 E182.27973
G0 F6000 X82.404 Y83.377
G1 F1200 X83.341 Y82.836 E182.33011
G1 X159.111 Y61.685 E185.99316
G1 X159.966 Y61.651 E186.03301
G1 X160.577 Y61.713 E186.0616
G1 X161.466 Y62.057 E186.10599
G1 X162.275 Y62.582 E186.1509
G1 X162.933 Y63.379 E186.19902
G1 X163.368 Y64.194 E186.24204
G1 X163.556 Y65.197 E186.28956
G1 X163.556 Y122.314 E188.94916
G1 X164.287 Y122.494 E188.98422
G1 X165.287 Y123.012 E189.03666
G1 X165.989 Y123.765 E189.0846
G1 X166.546 Y124.701 E189.13531
G1 X166.765 Y125.799 E189.18745
G1 X166.765 Y184.481 E191.91993
G1 X166.542 Y185.401 E191.96401
G1 X166.362 Y185.853 E191.98666
G1 X165.788 Y186.628 E192.03157
G1 X165.169 Y187.2 E192.07082
G1 X164.207 Y187.703 E192.12136
G1 X163.25 Y187.88 E192.16668
G1 X162.338 Y187.859 E192.20916
G1 X86.563 Y166.703 E195.8725
G1 X85.738 Y166.229 E195.9168
G1 X85.311 Y165.898 E195.94196
G1 X84.759 Y165.176 E195.98428
G1 X84.427 Y164.592 E196.01556
G1 X84.165 Y163.541 E196.066
G1 X84.165 Y127.222 E197.75716
G1 X83.434 Y127.042 E197.79222
G1 X82.434 Y126.524 E197.84466
G1 X81.732 Y125.771 E197.89259
G1 X81.175 Y124.835 E197.94331
G1 X80.956 Y123.737 E197.99545
G1 X80.956 Y86 E199.75264
G1 X81.179 Y85.115 E199.79514
G1 X81.403 Y84.56 E199.82301
G1 X81.98 Y83.801 E199.8674
G1 X82.404 Y83.377 E199.89532
G0 F6000 X82.651 Y83.696
G1 F1200 X83.496 Y83.208 E199.94076
G1 X159.172 Y62.083 E203.59927
G1 X159.982 Y62.051 E203.63702
G1 X160.484 Y62.106 E203.66053
G1 X161.281 Y62.415 E203.70034
G1 X162.007 Y62.886 E203.74063
G1 X162.599 Y63.602 E203.78389
G1 X162.986 Y64.328 E203.8222
G1 X163.156 Y65.234 E203.86512
G1 X163.156 Y122.665 E206.53935
G1 X163.358 Y122.677 E206.54877
G1 X164.144 Y122.87 E206.58646
G1 X165.04 Y123.334 E206.63345
G1 X165.667 Y124.007 E206.67628
G1 X166.168 Y124.849 E206.7219
G1 X166.365 Y125.837 E206.76881
G1 X166.365 Y184.432 E209.49724
G1 X166.153 Y185.307 E209.53916
G1 X166.01 Y185.657 E209.55677
G1 X165.492 Y186.356 E209.59728
G1 X164.936 Y186.87 E209.63254
G1 X164.073 Y187.321 E209.67788
G1 X163.22 Y187.479 E209.71827
G1 X162.396 Y187.46 E209.75665
G1 X86.719 Y166.331 E213.41526
G1 X85.937 Y165.882 E213.45725
G1 X85.598 Y165.615 E213.47734
G1 X85.107 Y164.978 E213.51479
G1 X84.801 Y164.44 E213.54361
G1 X84.565 Y163.492 E213.5891
G1 X84.565 Y126.871 E215.29433
G1 X84.363 Y126.859 E215.30375
G1 X83.577 Y126.666 E215.34144
G1 X82.681 Y126.202 E215.38842
G1 X82.054 Y125.529 E215.43125
G1 X81.553 Y124.687 E215.47687
G1 X81.356 Y123.699 E215.52378
G1 X81.356 Y86.048 E217.27697
G1 X81.55 Y85.265 E217.31454
G1 X81.755 Y84.758 E217.34
G1 X82.263 Y84.084 E217.3793
G1 X82.651 Y83.696 E217.40485
G0 F6000 X82.898 Y84.015
G1 F1200 X83.651 Y83.58 E217.44534
G1 X159.233 Y62.481 E221.09931
G1 X159.998 Y62.451 E221.13496
G1 X160.388 Y62.498 E221.15325
G1 X161.099 Y62.773 E221.18875
G1 X161.738 Y63.188 E221.22423
G1 X162.263 Y63.824 E221.26263
G1 X162.605 Y64.464 E221.29642
G1 X162.756 Y65.271 E221.33465
G1 X162.756 Y123.065 E224.02578
G1 X163.263 Y123.065 E224.04939
G1 X164.001 Y123.246 E224.08477
G1 X164.793 Y123.656 E224.1263
G1 X165.345 Y124.249 E224.16402
G1 X165.79 Y124.997 E224.20455
G1 X165.965 Y125.875 E224.24624
G1 X165.965 Y184.383 E226.97062
