;FLAVOR:Marlin
;TIME:33235
;Filament used: 30.9724m
;Layer height: 0.28
;MINX:14.45
;MINY:46.207
;MINZ:0.28
;MAXX:216.05
;MAXY:188.796
;MAXZ:70.84
;POSTPROCESSED
;Generated with Cura_SteamEngine 5.3.1
M140 S50
M105
M190 S50
M104 S200
M105
M109 S200
M82 ;absolute extrusion mode
; Ender 3 Custom Start G-code
G92 E0 ; Reset Extruder
G28 ; Home all axes
G1 Z2.0 F3000 ; Move Z Axis up little to prevent scratching of Heat Bed
G1 X0.1 Y20 Z0.3 F5000.0 ; Move to start position
G1 X0.1 Y200.0 Z0.3 F1500.0 E15 ; Draw the first line
G1 X0.4 Y200.0 Z0.3 F5000.0 ; Move to side a little
G1 X0.4 Y20 Z0.3 F1500.0 E30 ; Draw the second line
G92 E0 ; Reset Extruder
G1 Z2.0 F3000 ; Move Z Axis up little to prevent scratching of Heat Bed
G1 X5 Y20 Z0.3 F5000.0 ; Move over to prevent blob squish
G92 E0
G92 E0
G1 F2700 E-5
;LAYER_COUNT:254
;LAYER:0
M107
G0 F6000 X18.146 Y48.525 Z0.28
;TYPE:SKIRT
G1 F2700 E0
G1 F1200 X19.794 Y48.196 E0.07825
G1 X30.052 Y48.196 E0.55591
G1 X30.58 Y47.72 E0.58901
G1 X31.883 Y46.917 E0.66028
G1 X33.548 Y46.388 E0.74163
G1 X34.475 Y46.207 E0.78561
G1 X36.049 Y46.207 E0.8589
G1 X37.399 Y46.508 E0.9233
G1 X38.619 Y46.924 E0.98332
G1 X39.93 Y47.73 E1.05498
G1 X40.448 Y48.196 E1.08743
G1 X67.052 Y48.196 E2.32622
G1 X67.58 Y47.72 E2.35932
G1 X68.883 Y46.917 E2.43059
G1 X70.548 Y46.388 E2.51194
G1 X71.475 Y46.207 E2.55592
G1 X73.049 Y46.207 E2.62921
G1 X74.399 Y46.508 E2.69362
G1 X75.619 Y46.924 E2.75364
G1 X76.93 Y47.73 E2.8253
G1 X77.448 Y48.196 E2.85774
G1 X132.87 Y48.196 E5.43842
G1 X134.246 Y48.534 E5.5044
G1 X134.487 Y48.434 E5.51655
G1 X135.794 Y48.196 E5.57841
G1 X210.871 Y48.196 E9.07431
G1 X212.286 Y48.544 E9.14216
G1 X213.801 Y49.33 E9.22164
G1 X214.89 Y50.495 E9.29589
G1 X215.721 Y51.892 E9.37158
G1 X216.05 Y53.54 E9.44983
G1 X216.05 Y183.617 E15.50676
G1 X215.702 Y185.032 E15.57462
G1 X214.916 Y186.547 E15.65409
G1 X213.751 Y187.636 E15.72835
G1 X212.354 Y188.467 E15.80404
G1 X210.706 Y188.796 E15.88229
G1 X19.629 Y188.796 E24.77963
G1 X18.214 Y188.448 E24.84748
G1 X16.699 Y187.662 E24.92696
G1 X15.61 Y186.497 E25.00122
G1 X14.779 Y185.1 E25.0769
G1 X14.45 Y183.452 E25.15516
G1 X14.45 Y53.375 E31.21209
G1 X14.798 Y51.96 E31.27994
G1 X15.584 Y50.445 E31.35941
G1 X16.749 Y49.356 E31.43367
G1 X18.146 Y48.525 E31.50936
G0 F6000 X18.294 Y48.903
G1 F1200 X19.832 Y48.596 E31.58239
G1 X30.206 Y48.596 E32.06544
G1 X30.819 Y48.043 E32.10389
G1 X32.053 Y47.283 E32.17137
G1 X33.625 Y46.781 E32.24821
G1 X34.516 Y46.607 E32.29048
G1 X36.003 Y46.607 E32.35972
G1 X37.27 Y46.887 E32.42014
G1 X38.447 Y47.288 E32.47804
G1 X39.691 Y48.053 E32.54605
G1 X40.294 Y48.596 E32.58383
G1 X67.206 Y48.596 E33.83697
G1 X67.819 Y48.043 E33.87541
G1 X69.053 Y47.283 E33.94289
G1 X70.625 Y46.781 E34.01973
G1 X71.516 Y46.607 E34.062
G1 X73.003 Y46.607 E34.13125
G1 X74.27 Y46.887 E34.19167
G1 X75.447 Y47.288 E34.24957
G1 X76.691 Y48.053 E34.31757
G1 X77.294 Y48.596 E34.35535
G1 X132.824 Y48.596 E36.94106
G1 X134.046 Y48.896 E36.99965
G1 X134.24 Y48.979 E37.00948
G1 X134.559 Y48.828 E37.02591
G1 X135.833 Y48.596 E37.08621
G1 X210.825 Y48.596 E40.57815
G1 X212.143 Y48.92 E40.64135
G1 X213.556 Y49.653 E40.71547
G1 X214.566 Y50.734 E40.78436
G1 X215.343 Y52.04 E40.85512
G1 X215.65 Y53.578 E40.92815
G1 X215.65 Y183.571 E46.98117
G1 X215.326 Y184.889 E47.04437
G1 X214.593 Y186.302 E47.11849
G1 X213.512 Y187.312 E47.18738
G1 X212.206 Y188.089 E47.25814
G1 X210.668 Y188.396 E47.33117
G1 X19.675 Y188.396 E56.2246
G1 X18.357 Y188.072 E56.2878
G1 X16.944 Y187.339 E56.36192
G1 X15.934 Y186.258 E56.43081
G1 X15.157 Y184.952 E56.50157
G1 X14.85 Y183.414 E56.5746
G1 X14.85 Y53.421 E62.62762
G1 X15.174 Y52.103 E62.69082
G1 X15.907 Y50.69 E62.76494
G1 X16.988 Y49.68 E62.83383
G1 X18.294 Y48.903 E62.90459
G0 F6000 X18.442 Y49.281
G1 F1200 X17.227 Y50.004 E62.97042
G1 X16.23 Y50.935 E63.03394
G1 X15.55 Y52.246 E63.10271
G1 X15.25 Y53.467 E63.16125
G1 X15.25 Y183.376 E69.21036
G1 X15.535 Y184.804 E69.27817
G1 X16.258 Y186.019 E69.344
G1 X17.189 Y187.016 E69.40752
G1 X18.5 Y187.696 E69.47629
G1 X19.721 Y187.996 E69.53483
G1 X210.63 Y187.996 E78.42436
G1 X212.058 Y187.711 E78.49216
G1 X213.273 Y186.988 E78.558
G1 X214.27 Y186.057 E78.62151
G1 X214.95 Y184.746 E78.69028
G1 X215.25 Y183.525 E78.74883
G1 X215.25 Y53.616 E84.79794
G1 X214.965 Y52.188 E84.86574
G1 X214.242 Y50.973 E84.93158
G1 X213.311 Y49.976 E84.99509
G1 X212 Y49.296 E85.06386
G1 X210.779 Y48.996 E85.12241
G1 X135.872 Y48.996 E88.61039
G1 X134.631 Y49.222 E88.66913
G1 X134.252 Y49.427 E88.68919
G1 X133.951 Y49.284 E88.70471
G1 X132.778 Y48.996 E88.76095
G1 X77.14 Y48.996 E91.35169
G1 X76.45 Y48.374 E91.39495
G1 X75.277 Y47.653 E91.45906
G1 X74.141 Y47.266 E91.51494
G1 X72.958 Y47.007 E91.57133
G1 X71.557 Y47.007 E91.63657
G1 X70.702 Y47.174 E91.67713
G1 X69.223 Y47.649 E91.74947
G1 X68.058 Y48.366 E91.81316
G1 X67.36 Y48.996 E91.85695
G1 X40.14 Y48.996 E93.12442
G1 X39.45 Y48.374 E93.16768
G1 X38.277 Y47.653 E93.23179
G1 X37.141 Y47.266 E93.28768
G1 X35.958 Y47.007 E93.34407
G1 X34.557 Y47.007 E93.4093
G1 X33.702 Y47.174 E93.44987
G1 X32.223 Y47.649 E93.5222
G1 X31.058 Y48.366 E93.5859
G1 X30.36 Y48.996 E93.62968
G1 X19.87 Y48.996 E94.11814
G1 X18.442 Y49.281 E94.18595
G0 F6000 X18.59 Y49.659
G1 F1200 X17.466 Y50.328 E94.24685
G1 X16.553 Y51.18 E94.305
G1 X15.926 Y52.389 E94.36842
G1 X15.65 Y53.513 E94.42231
G1 X15.65 Y183.338 E100.46751
G1 X15.913 Y184.656 E100.53009
G1 X16.582 Y185.78 E100.591
G1 X17.434 Y186.693 E100.64914
G1 X18.643 Y187.32 E100.71256
G1 X19.767 Y187.596 E100.76645
G1 X210.592 Y187.596 E109.65206
G1 X211.91 Y187.333 E109.71465
G1 X213.034 Y186.664 E109.77555
G1 X213.947 Y185.812 E109.8337
G1 X214.574 Y184.603 E109.89712
G1 X214.85 Y183.479 E109.95101
G1 X214.85 Y53.654 E115.99621
G1 X214.587 Y52.336 E116.05879
G1 X213.918 Y51.212 E116.1197
G1 X213.066 Y50.299 E116.17785
G1 X211.857 Y49.672 E116.24126
G1 X210.733 Y49.396 E116.29515
G1 X135.911 Y49.396 E119.77918
G1 X134.764 Y49.605 E119.83347
G1 X134.256 Y49.879 E119.86034
G1 X133.856 Y49.672 E119.88132
G1 X132.732 Y49.396 E119.93521
G1 X76.986 Y49.396 E122.53098
G1 X76.211 Y48.697 E122.57957
G1 X75.105 Y48.017 E122.64003
G1 X74.012 Y47.645 E122.69379
G1 X72.914 Y47.407 E122.74611
G1 X71.598 Y47.407 E122.80738
G1 X70.779 Y47.567 E122.84624
G1 X69.392 Y48.015 E122.91411
G1 X68.297 Y48.689 E122.97398
G1 X67.514 Y49.396 E123.02311
G1 X39.986 Y49.396 E124.30493
G1 X39.211 Y48.697 E124.35352
G1 X38.105 Y48.017 E124.41398
G1 X37.012 Y47.645 E124.46774
G1 X35.914 Y47.407 E124.52006
G1 X34.598 Y47.407 E124.58133
G1 X33.779 Y47.567 E124.62019
G1 X32.392 Y48.015 E124.68806
G1 X31.297 Y48.689 E124.74793
G1 X30.514 Y49.396 E124.79706
G1 X19.908 Y49.396 E125.29092
G1 X18.59 Y49.659 E125.3535
G0 F6000 X18.738 Y50.037
G1 F1200 X19.946 Y49.796 E125.41086
G1 X30.668 Y49.796 E125.91012
G1 X31.536 Y49.012 E125.96458
G1 X32.565 Y48.379 E126.02084
G1 X33.856 Y47.96 E126.08404
G1 X34.639 Y47.807 E126.12119
G1 X35.872 Y47.807 E126.1786
G1 X36.883 Y48.024 E126.22675
G1 X37.933 Y48.381 E126.27839
G1 X38.972 Y49.02 E126.33519
G1 X39.832 Y49.796 E126.38912
G1 X67.668 Y49.796 E127.68529
G1 X68.536 Y49.012 E127.73975
G1 X69.565 Y48.379 E127.796
G1 X70.856 Y47.96 E127.8592
G1 X71.639 Y47.807 E127.89635
G1 X72.872 Y47.807 E127.95377
G1 X73.883 Y48.024 E128.00192
G1 X74.933 Y48.381 E128.05356
G1 X75.972 Y49.02 E128.11036
G1 X76.832 Y49.796 E128.16429
G1 X132.686 Y49.796 E130.76509
G1 X133.713 Y50.048 E130.81433
G1 X134.26 Y50.331 E130.84301
G1 X134.897 Y49.988 E130.87669
G1 X135.95 Y49.796 E130.92654
G1 X210.686 Y49.796 E134.40656
G1 X211.715 Y50.049 E134.4559
G1 X212.819 Y50.621 E134.5138
G1 X213.596 Y51.454 E134.56684
G1 X214.209 Y52.484 E134.62265
G1 X214.45 Y53.692 E134.68001
G1 X214.45 Y183.432 E140.72125
G1 X214.197 Y184.461 E140.77059
G1 X213.625 Y185.565 E140.82848
G1 X212.792 Y186.342 E140.88153
G1 X211.762 Y186.955 E140.93734
G1 X210.554 Y187.196 E140.9947
G1 X19.814 Y187.196 E149.87635
G1 X18.785 Y186.943 E149.92569
G1 X17.681 Y186.371 E149.98359
G1 X16.904 Y185.538 E150.03663
G1 X16.291 Y184.508 E150.09245
G1 X16.05 Y183.3 E150.1498
G1 X16.05 Y53.56 E156.19104
G1 X16.303 Y52.531 E156.24038
G1 X16.875 Y51.427 E156.29828
G1 X17.708 Y50.65 E156.35132
G1 X18.738 Y50.037 E156.40713
G0 F6000 X18.886 Y50.415
G1 F1200 X19.984 Y50.196 E156.45927
G1 X30.864 Y50.196 E156.96589
G1 X30.987 Y50.047 E156.97488
G1 X31.775 Y49.335 E157.02434
G1 X32.737 Y48.743 E157.07693
G1 X33.933 Y48.353 E157.13551
G1 X34.68 Y48.207 E157.17095
G1 X35.831 Y48.207 E157.22455
G1 X36.754 Y48.403 E157.26848
G1 X37.763 Y48.746 E157.31811
G1 X38.731 Y49.341 E157.37102
G1 X39.513 Y50.047 E157.42007
G1 X39.636 Y50.196 E157.42907
G1 X67.864 Y50.196 E158.74348
G1 X67.987 Y50.047 E158.75248
G1 X68.775 Y49.335 E158.80193
G1 X69.737 Y48.743 E158.85453
G1 X70.933 Y48.353 E158.91311
G1 X71.68 Y48.207 E158.94855
G1 X72.831 Y48.207 E159.00214
G1 X73.754 Y48.403 E159.04608
G1 X74.763 Y48.746 E159.0957
G1 X75.731 Y49.341 E159.14861
G1 X76.513 Y50.047 E159.19767
G1 X76.636 Y50.196 E159.20667
G1 X132.64 Y50.196 E161.81445
G1 X133.572 Y50.425 E161.85914
G1 X134.264 Y50.782 E161.89539
G1 X135.031 Y50.37 E161.93594
G1 X135.984 Y50.196 E161.98105
G1 X210.64 Y50.196 E165.45734
G1 X211.572 Y50.425 E165.50203
G1 X212.572 Y50.943 E165.55447
G1 X213.274 Y51.696 E165.60241
G1 X213.831 Y52.632 E165.65312
G1 X214.05 Y53.73 E165.70526
G1 X214.05 Y183.386 E171.74259
G1 X213.821 Y184.318 E171.78727
G1 X213.303 Y185.318 E171.83971
G1 X212.55 Y186.02 E171.88765
G1 X211.614 Y186.577 E171.93837
G1 X210.516 Y186.796 E171.9905
G1 X19.86 Y186.796 E180.86825
G1 X18.928 Y186.567 E180.91293
G1 X17.928 Y186.049 E180.96537
G1 X17.226 Y185.296 E181.01331
G1 X16.669 Y184.36 E181.06403
G1 X16.45 Y183.262 E181.11616
G1 X16.45 Y53.606 E187.15349
G1 X16.679 Y52.674 E187.19818
G1 X17.197 Y51.674 E187.25062
G1 X17.95 Y50.972 E187.29856
G1 X18.886 Y50.415 E187.34927
G0 F6000 X19.034 Y50.793
G1 F1200 X18.192 Y51.294 E187.3949
G1 X17.519 Y51.921 E187.43773
G1 X17.055 Y52.817 E187.48471
G1 X16.85 Y53.652 E187.52475
G1 X16.85 Y183.224 E193.55816
G1 X17.047 Y184.212 E193.60507
G1 X17.548 Y185.054 E193.65069
G1 X18.175 Y185.727 E193.69352
G1 X19.071 Y186.191 E193.74051
G1 X19.906 Y186.396 E193.78054
G1 X210.478 Y186.396 E202.65437
G1 X211.466 Y186.199 E202.70129
G1 X212.308 Y185.698 E202.74691
G1 X212.981 Y185.071 E202.78974
G1 X213.445 Y184.175 E202.83672
G1 X213.65 Y183.34 E202.87676
G1 X213.65 Y53.768 E208.91017
G1 X213.453 Y52.78 E208.95708
G1 X212.952 Y51.938 E209.00271
G1 X212.325 Y51.265 E209.04554
G1 X211.429 Y50.801 E209.09252
G1 X210.594 Y50.596 E209.13256
G1 X136.023 Y50.596 E212.6049
G1 X135.162 Y50.753 E212.64565
G1 X134.267 Y51.234 E212.69296
G1 X133.429 Y50.801 E212.73688
G1 X132.594 Y50.596 E212.77692
G1 X76.44 Y50.596 E215.39168
G1 X76.245 Y50.344 E215.40652
G1 X75.492 Y49.664 E215.45376
G1 X74.591 Y49.11 E215.50302
G1 X73.625 Y48.782 E215.55052
G1 X72.791 Y48.607 E215.5902
G1 X71.721 Y48.607 E215.64002
G1 X71.01 Y48.746 E215.67376
G1 X69.908 Y49.108 E215.72777
G1 X69.014 Y49.658 E215.77664
G1 X68.255 Y50.344 E215.82428
G1 X68.06 Y50.596 E215.83912
G1 X39.44 Y50.596 E217.17179
G1 X39.245 Y50.344 E217.18662
G1 X38.492 Y49.664 E217.23387
G1 X37.591 Y49.11 E217.28312
G1 X36.625 Y48.782 E217.33062
G1 X35.791 Y48.607 E217.3703
G1 X34.721 Y48.607 E217.42012
G1 X34.01 Y48.746 E217.45386
G1 X32.908 Y49.108 E217.50787
G1 X32.014 Y49.658 E217.55675
G1 X31.255 Y50.344 E217.60438
G1 X31.06 Y50.596 E217.61922
G1 X20.022 Y50.596 E218.1332
G1 X19.034 Y50.793 E218.18011
G0 F6000 X19.182 Y51.171
G1 F1200 X20.06 Y50.996 E218.22179
G1 X31.263 Y50.996 E218.74345
G1 X31.523 Y50.641 E218.76394
G1 X32.253 Y49.981 E218.80977
G1 X33.078 Y49.473 E218.85488
G1 X34.087 Y49.139 E218.90437
G1 X34.762 Y49.007 E218.9364
G1 X35.748 Y49.007 E218.98231
G1 X36.496 Y49.161 E219.01787
G1 X37.421 Y49.475 E219.06336
G1 X38.251 Y49.985 E219.10872
G1 X38.977 Y50.641 E219.15428
G1 X39.237 Y50.996 E219.17477
G1 X68.263 Y50.996 E220.52634
G1 X68.523 Y50.641 E220.54683
G1 X69.253 Y49.981 E220.59266
G1 X70.078 Y49.473 E220.63777
G1 X71.087 Y49.139 E220.68726
G1 X71.762 Y49.007 E220.71929
G1 X72.748 Y49.007 E220.7652
G1 X73.496 Y49.161 E220.80076
G1 X74.421 Y49.475 E220.84625
G1 X75.251 Y49.985 E220.89161
G1 X75.977 Y50.641 E220.93717
G1 X76.237 Y50.996 E220.95766
G1 X132.548 Y50.996 E223.57974
G1 X133.286 Y51.177 E223.61512
G1 X134.012 Y51.552 E223.65317
G1 X134.254 Y51.776 E223.66852
G1 X134.549 Y51.537 E223.6862
G1 X135.294 Y51.136 E223.7256
G1 X136.062 Y50.996 E223.76195
G1 X210.548 Y50.996 E227.23033
G1 X211.286 Y51.177 E227.26571
G1 X212.078 Y51.587 E227.30724
G1 X212.63 Y52.18 E227.34496
G1 X213.075 Y52.928 E227.38549
G1 X213.25 Y53.806 E227.42718
G1 X213.25 Y183.294 E233.45668
G1 X213.069 Y184.032 E233.49206
G1 X212.659 Y184.824 E233.53359
G1 X212.066 Y185.376 E233.57132
G1 X211.318 Y185.821 E233.61184
G1 X210.44 Y185.996 E233.65353
G1 X19.952 Y185.996 E242.52345
G1 X19.214 Y185.815 E242.55883
G1 X18.422 Y185.405 E242.60036
G1 X17.87 Y184.812 E242.63808
G1 X17.425 Y184.064 E242.67861
G1 X17.25 Y183.186 E242.7203
G1 X17.25 Y53.698 E248.7498
G1 X17.431 Y52.96 E248.78519
G1 X17.841 Y52.168 E248.82671
G1 X18.434 Y51.616 E248.86444
G1 X19.182 Y51.171 E248.90497
G0 F6000 X19.33 Y51.549
G1 F1200 X20.098 Y51.396 E248.94143
G1 X31.466 Y51.396 E249.47077
G1 X31.824 Y50.908 E249.49895
G1 X32.492 Y50.304 E249.54089
G1 X33.252 Y49.836 E249.58245
G1 X34.164 Y49.532 E249.62721
G1 X34.803 Y49.407 E249.65753
G1 X35.706 Y49.407 E249.69958
G1 X36.415 Y49.553 E249.73329
G1 X37.249 Y49.839 E249.77434
G1 X38.01 Y50.306 E249.81592
G1 X38.676 Y50.908 E249.85772
G1 X39.034 Y51.396 E249.8859
G1 X68.466 Y51.396 E251.25638
G1 X68.824 Y50.908 E251.28456
G1 X69.492 Y50.304 E251.32649
G1 X70.252 Y49.836 E251.36805
G1 X71.164 Y49.532 E251.41282
G1 X71.803 Y49.407 E251.44314
G1 X72.706 Y49.407 E251.48518
G1 X73.415 Y49.553 E251.51889
G1 X74.249 Y49.839 E251.55995
G1 X75.01 Y50.306 E251.60152
G1 X75.676 Y50.908 E251.64332
G1 X76.034 Y51.396 E251.67151
G1 X132.498 Y51.396 E254.30071
G1 X133.147 Y51.555 E254.33182
G1 X133.828 Y51.907 E254.36752
G1 X134.238 Y52.342 E254.39535
G1 X134.335 Y52.226 E254.40239
G1 X134.775 Y51.869 E254.42878
G1 X135.428 Y51.518 E254.4633
G1 X136.096 Y51.396 E254.49492
G1 X210.498 Y51.396 E257.95938
G1 X211.147 Y51.555 E257.9905
G1 X211.833 Y51.91 E258.02647
G1 X212.306 Y52.419 E258.05882
G1 X212.697 Y53.076 E258.09442
G1 X212.85 Y53.844 E258.13088
G1 X212.85 Y183.244 E264.15629
G1 X212.691 Y183.893 E264.1874
G1 X212.336 Y184.579 E264.22337
G1 X211.827 Y185.052 E264.25573
G1 X211.17 Y185.443 E264.29133
G1 X210.402 Y185.596 E264.32779
G1 X20.002 Y185.596 E273.19361
G1 X19.353 Y185.437 E273.22473
G1 X18.667 Y185.082 E273.26069
G1 X18.194 Y184.573 E273.29305
G1 X17.803 Y183.916 E273.32865
G1 X17.65 Y183.148 E273.36511
G1 X17.65 Y53.748 E279.39052
G1 X17.809 Y53.099 E279.42163
G1 X18.164 Y52.413 E279.4576
G1 X18.673 Y51.94 E279.48995
G1 X19.33 Y51.549 E279.52555
G0 F6000 X19.478 Y51.927
G1 F1200 X18.912 Y52.264 E279.55623
G1 X18.487 Y52.658 E279.58321
G1 X18.187 Y53.238 E279.61362
G1 X18.05 Y53.798 E279.64046
G1 X18.05 Y183.11 E285.66177
G1 X18.181 Y183.768 E285.69301
G1 X18.518 Y184.334 E285.72369
G1 X18.912 Y184.759 E285.75067
G1 X19.492 Y185.059 E285.78108
G1 X20.052 Y185.196 E285.80792
G1 X210.364 Y185.196 E294.66965
G1 X211.022 Y185.065 E294.70089
G1 X211.588 Y184.728 E294.73156
G1 X212.013 Y184.334 E294.75855
G1 X212.313 Y183.754 E294.78895
G1 X212.45 Y183.194 E294.8158
G1 X212.45 Y53.882 E300.83711
G1 X212.319 Y53.224 E300.86835
G1 X211.982 Y52.658 E300.89902
G1 X211.588 Y52.233 E300.92601
G1 X211.008 Y51.933 E300.95641
G1 X210.448 Y51.796 E300.98326
G1 X136.135 Y51.796 E304.44358
G1 X135.559 Y51.901 E304.47084
G1 X135.001 Y52.201 E304.50034
G1 X134.587 Y52.537 E304.52517
G1 X134.25 Y53.094 E304.55549
G1 X133.958 Y52.628 E304.58109
G1 X133.584 Y52.231 E304.60649
G1 X133.008 Y51.933 E304.63669
G1 X132.448 Y51.796 E304.66353
G1 X75.832 Y51.796 E307.29981
G1 X75.378 Y51.178 E307.33552
G1 X74.769 Y50.627 E307.37376
G1 X74.078 Y50.203 E307.41151
