;FLAVOR:Marlin
;TIME:3159
;Filament used: 1.54786m
;Layer height: 0.2
;MINX:57.7
;MINY:99.9
;MINZ:0.2
;MAXX:177.3
;MAXY:121.1
;MAXZ:14
;Generated with Cura_SteamEngine 5.3.1
M140 S60
M105
M190 S60
M104 S194
M105
M109 S194
M82 ;absolute extrusion mode
; Ender 3 Custom Start G-code
G92 E0 ; Reset Extruder
G28 ; Home all axes
G1 Z2.0 F3000 ; Move Z Axis up little to prevent scratching of Heat Bed
G1 X0.1 Y20 Z0.3 F5000.0 ; Move to start position
G1 X0.1 Y200.0 Z0.3 F1500.0 E15 ; Draw the first line
G1 X0.4 Y200.0 Z0.3 F5000.0 ; Move to side a little
G1 X0.4 Y20 Z0.3 F1500.0 E30 ; Draw the second line
G92 E0 ; Reset Extruder
G1 Z2.0 F3000 ; Move Z Axis up little to prevent scratching of Heat Bed
G1 X5 Y20 Z0.3 F5000.0 ; Move over to prevent blob squish
G92 E0
G92 E0
G1 F2700 E-5
;LAYER_COUNT:70
;LAYER:0
M107
G0 F6000 X60.794 Y101.45 Z0.2
;TYPE:SKIRT
G1 F2700 E0
G1 F1200 X62.666 Y100.338 E0.07242
G1 X64.853 Y99.9 E0.1466
G1 X170.353 Y99.9 E3.65555
G1 X172.249 Y100.366 E3.72049
G1 X174.276 Y101.419 E3.79646
G1 X175.75 Y102.994 E3.86821
G1 X176.862 Y104.866 E3.94063
G1 X177.3 Y107.053 E4.01481
G1 X177.3 Y114.153 E4.25096
G1 X176.834 Y116.049 E4.31589
G1 X175.781 Y118.076 E4.39187
G1 X174.206 Y119.55 E4.46361
G1 X172.334 Y120.662 E4.53603
G1 X170.147 Y121.1 E4.61022
G1 X64.647 Y121.1 E8.11916
G1 X62.751 Y120.634 E8.1841
G1 X60.724 Y119.581 E8.26007
G1 X59.25 Y118.006 E8.33182
G1 X58.138 Y116.134 E8.40424
G1 X57.7 Y113.947 E8.47842
G1 X57.7 Y106.847 E8.71457
G1 X58.166 Y104.951 E8.77951
G1 X59.219 Y102.924 E8.85548
G1 X60.794 Y101.45 E8.92723
G0 F6000 X61.035 Y101.772
G1 F1200 X62.812 Y100.716 E8.99598
G1 X64.891 Y100.3 E9.0665
G1 X170.307 Y100.3 E12.57265
G1 X172.106 Y100.742 E12.63426
G1 X174.031 Y101.742 E12.70641
G1 X175.428 Y103.235 E12.77442
G1 X176.484 Y105.012 E12.84317
G1 X176.9 Y107.091 E12.91369
G1 X176.9 Y114.107 E13.14704
G1 X176.458 Y115.906 E13.20866
G1 X175.458 Y117.831 E13.28081
G1 X173.965 Y119.228 E13.34881
G1 X172.188 Y120.284 E13.41756
G1 X170.109 Y120.7 E13.48808
G1 X64.693 Y120.7 E16.99423
G1 X62.894 Y120.258 E17.05585
G1 X60.969 Y119.258 E17.128
G1 X59.572 Y117.765 E17.196
G1 X58.516 Y115.988 E17.26475
G1 X58.1 Y113.909 E17.33527
G1 X58.1 Y106.893 E17.56863
G1 X58.542 Y105.094 E17.63024
G1 X59.542 Y103.169 E17.70239
G1 X61.035 Y101.772 E17.7704
G0 F6000 X61.276 Y102.094
G1 F1200 X62.958 Y101.095 E17.83546
G1 X64.93 Y100.7 E17.90235
G1 X170.26 Y100.7 E21.40564
G1 X171.964 Y101.119 E21.46401
G1 X173.786 Y102.065 E21.53229
G1 X175.106 Y103.476 E21.59655
G1 X176.105 Y105.158 E21.66162
G1 X176.5 Y107.13 E21.72851
G1 X176.5 Y114.06 E21.95901
G1 X176.081 Y115.764 E22.01737
G1 X175.135 Y117.586 E22.08565
G1 X173.724 Y118.906 E22.14991
G1 X172.042 Y119.905 E22.21498
G1 X170.07 Y120.3 E22.28187
G1 X64.74 Y120.3 E25.78516
G1 X63.036 Y119.881 E25.84353
G1 X61.214 Y118.935 E25.91181
G1 X59.894 Y117.524 E25.97607
G1 X58.895 Y115.842 E26.04114
G1 X58.5 Y113.87 E26.10803
G1 X58.5 Y106.94 E26.33852
G1 X58.919 Y105.236 E26.39689
G1 X59.865 Y103.414 E26.46517
G1 X61.276 Y102.094 E26.52943
G0 F6000 X61.517 Y102.416
G1 F1200 X63.104 Y101.473 E26.59083
G1 X64.968 Y101.1 E26.65406
G1 X170.214 Y101.1 E30.15456
G1 X171.821 Y101.495 E30.2096
G1 X173.541 Y102.388 E30.27405
G1 X174.784 Y103.717 E30.33458
G1 X175.727 Y105.304 E30.39598
G1 X176.1 Y107.168 E30.4592
G1 X176.1 Y114.014 E30.6869
G1 X175.705 Y115.621 E30.74194
G1 X174.812 Y117.341 E30.8064
G1 X173.483 Y118.584 E30.86692
G1 X171.896 Y119.527 E30.92832
G1 X170.032 Y119.9 E30.99155
G1 X64.786 Y119.9 E34.49204
G1 X63.179 Y119.505 E34.54708
G1 X61.459 Y118.612 E34.61154
G1 X60.216 Y117.283 E34.67206
G1 X59.273 Y115.696 E34.73346
G1 X58.9 Y113.832 E34.79669
G1 X58.9 Y106.986 E35.02439
G1 X59.295 Y105.379 E35.07943
G1 X60.188 Y103.659 E35.14389
G1 X61.517 Y102.416 E35.20441
G0 F6000 X61.758 Y102.738
G1 F1200 X63.25 Y101.851 E35.26214
G1 X65.006 Y101.5 E35.3217
G1 X170.168 Y101.5 E38.8194
G1 X171.678 Y101.871 E38.87112
G1 X173.296 Y102.711 E38.93176
G1 X174.462 Y103.958 E38.98854
G1 X175.349 Y105.45 E39.04627
G1 X175.7 Y107.206 E39.10583
G1 X175.7 Y113.968 E39.33073
G1 X175.329 Y115.478 E39.38245
G1 X174.489 Y117.096 E39.44309
G1 X173.242 Y118.262 E39.49987
G1 X171.75 Y119.149 E39.5576
G1 X169.994 Y119.5 E39.61716
G1 X64.832 Y119.5 E43.11486
G1 X63.322 Y119.129 E43.16658
G1 X61.704 Y118.289 E43.22721
G1 X60.538 Y117.042 E43.284
G1 X59.651 Y115.55 E43.34173
G1 X59.3 Y113.794 E43.40129
G1 X59.3 Y107.032 E43.62619
G1 X59.671 Y105.522 E43.67791
G1 X60.511 Y103.904 E43.73854
G1 X61.758 Y102.738 E43.79533
G0 F6000 X61.999 Y103.06
G1 F1200 X63.396 Y102.229 E43.84939
G1 X65.044 Y101.9 E43.90528
G1 X170.121 Y101.9 E47.40016
G1 X171.536 Y102.248 E47.44862
G1 X173.051 Y103.034 E47.50539
G1 X174.14 Y104.199 E47.55843
G1 X174.971 Y105.596 E47.61249
G1 X175.3 Y107.244 E47.66839
G1 X175.3 Y113.921 E47.89047
G1 X174.952 Y115.336 E47.93893
G1 X174.166 Y116.851 E47.9957
G1 X173.001 Y117.94 E48.04874
G1 X171.604 Y118.771 E48.1028
G1 X169.956 Y119.1 E48.1587
G1 X64.879 Y119.1 E51.65357
G1 X63.464 Y118.752 E51.70204
G1 X61.949 Y117.966 E51.75881
G1 X60.86 Y116.801 E51.81185
G1 X60.029 Y115.404 E51.86591
G1 X59.7 Y113.756 E51.9218
G1 X59.7 Y107.079 E52.14388
G1 X60.048 Y105.664 E52.19235
G1 X60.834 Y104.149 E52.24911
G1 X61.999 Y103.06 E52.30216
G0 F6000 X62.238 Y103.384
G1 F1200 X63.544 Y102.607 E52.3527
G1 X65.082 Y102.3 E52.40486
G1 X170.075 Y102.3 E55.89694
G1 X171.393 Y102.624 E55.94209
G1 X172.806 Y103.357 E55.99503
G1 X173.816 Y104.438 E56.04424
G1 X174.593 Y105.744 E56.09478
G1 X174.9 Y107.282 E56.14694
G1 X174.9 Y113.875 E56.36623
G1 X174.576 Y115.193 E56.41137
G1 X173.843 Y116.606 E56.46431
G1 X172.762 Y117.616 E56.51352
G1 X171.456 Y118.393 E56.56406
G1 X169.918 Y118.7 E56.61623
G1 X64.925 Y118.7 E60.10831
G1 X63.607 Y118.376 E60.15345
G1 X62.194 Y117.643 E60.20639
G1 X61.184 Y116.562 E60.2556
G1 X60.407 Y115.256 E60.30614
G1 X60.1 Y113.718 E60.35831
G1 X60.1 Y107.125 E60.57759
G1 X60.424 Y105.807 E60.62273
G1 X61.157 Y104.394 E60.67568
G1 X62.238 Y103.384 E60.72488
G0 F6000 X62.477 Y103.708
G1 F1200 X63.692 Y102.985 E60.77191
G1 X65.12 Y102.7 E60.82034
G1 X170.029 Y102.7 E64.30962
G1 X171.25 Y103 E64.35144
G1 X172.561 Y103.68 E64.40056
G1 X173.492 Y104.677 E64.44593
G1 X174.215 Y105.892 E64.49296
G1 X174.5 Y107.32 E64.54139
G1 X174.5 Y113.829 E64.75788
G1 X174.2 Y115.05 E64.7997
G1 X173.52 Y116.361 E64.84882
G1 X172.523 Y117.292 E64.89419
G1 X171.308 Y118.015 E64.94122
G1 X169.88 Y118.3 E64.98965
G1 X64.971 Y118.3 E68.47893
G1 X63.75 Y118 E68.52075
G1 X62.439 Y117.32 E68.56987
G1 X61.508 Y116.323 E68.61524
G1 X60.785 Y115.108 E68.66227
G1 X60.5 Y113.68 E68.7107
G1 X60.5 Y107.171 E68.92719
G1 X60.8 Y105.95 E68.96901
G1 X61.48 Y104.639 E69.01813
G1 X62.477 Y103.708 E69.0635
G0 F6000 X62.716 Y104.032
G1 F1200 X63.84 Y103.363 E69.10701
G1 X65.158 Y103.1 E69.15171
G1 X169.983 Y103.1 E72.6382
G1 X171.107 Y103.376 E72.6767
G1 X172.316 Y104.003 E72.72199
G1 X173.168 Y104.916 E72.76353
G1 X173.837 Y106.04 E72.80703
G1 X174.1 Y107.358 E72.85173
G1 X174.1 Y113.783 E73.06543
G1 X173.824 Y114.907 E73.10392
G1 X173.197 Y116.116 E73.14922
G1 X172.284 Y116.968 E73.19076
G1 X171.16 Y117.637 E73.23426
G1 X169.842 Y117.9 E73.27896
G1 X65.017 Y117.9 E76.76546
G1 X63.893 Y117.624 E76.80395
G1 X62.684 Y116.997 E76.84925
G1 X61.832 Y116.084 E76.89078
G1 X61.163 Y114.96 E76.93429
G1 X60.9 Y113.642 E76.97899
G1 X60.9 Y107.217 E77.19269
G1 X61.176 Y106.093 E77.23118
G1 X61.803 Y104.884 E77.27648
G1 X62.716 Y104.032 E77.31801
G0 F6000 X62.958 Y104.354
G1 F1200 X63.988 Y103.741 E77.35788
G1 X65.196 Y103.5 E77.39885
G1 X169.936 Y103.5 E80.88252
G1 X170.965 Y103.753 E80.91776
G1 X172.069 Y104.325 E80.95912
G1 X172.846 Y105.158 E80.997
G1 X173.459 Y106.188 E81.03687
G1 X173.7 Y107.396 E81.07784
G1 X173.7 Y113.736 E81.28871
G1 X173.447 Y114.765 E81.32395
G1 X172.875 Y115.869 E81.36531
G1 X172.042 Y116.646 E81.4032
G1 X171.012 Y117.259 E81.44306
G1 X169.804 Y117.5 E81.48403
G1 X65.064 Y117.5 E84.9677
G1 X64.035 Y117.247 E85.00294
G1 X62.931 Y116.675 E85.0443
G1 X62.154 Y115.842 E85.08218
G1 X61.541 Y114.812 E85.12205
G1 X61.3 Y113.604 E85.16302
G1 X61.3 Y107.264 E85.37389
G1 X61.553 Y106.235 E85.40913
G1 X62.125 Y105.131 E85.45049
G1 X62.958 Y104.354 E85.48838
G0 F6000 X63.2 Y104.676
G1 F1200 X64.136 Y104.119 E85.5246
G1 X65.234 Y103.9 E85.56184
G1 X169.89 Y103.9 E89.04272
G1 X170.822 Y104.129 E89.07464
G1 X171.822 Y104.647 E89.11209
G1 X172.524 Y105.4 E89.14633
G1 X173.081 Y106.336 E89.18256
G1 X173.3 Y107.434 E89.2198
G1 X173.3 Y113.69 E89.42787
G1 X173.071 Y114.622 E89.4598
G1 X172.553 Y115.622 E89.49725
G1 X171.8 Y116.324 E89.53149
G1 X170.864 Y116.881 E89.56772
G1 X169.766 Y117.1 E89.60496
G1 X65.11 Y117.1 E93.08583
G1 X64.178 Y116.871 E93.11775
G1 X63.178 Y116.353 E93.15521
G1 X62.476 Y115.6 E93.18945
G1 X61.919 Y114.664 E93.22568
G1 X61.7 Y113.566 E93.26292
G1 X61.7 Y107.31 E93.47099
G1 X61.929 Y106.378 E93.50291
G1 X62.447 Y105.378 E93.54037
G1 X63.2 Y104.676 E93.57461
G0 F6000 X63.442 Y104.998
G1 F1200 X64.284 Y104.497 E93.6072
G1 X65.272 Y104.3 E93.6407
G1 X169.844 Y104.3 E97.11878
G1 X170.679 Y104.505 E97.14738
G1 X171.575 Y104.969 E97.18094
G1 X172.202 Y105.642 E97.21153
G1 X172.703 Y106.484 E97.24412
G1 X172.9 Y107.472 E97.27763
G1 X172.9 Y113.644 E97.48291
G1 X172.695 Y114.479 E97.51151
G1 X172.231 Y115.375 E97.54507
G1 X171.558 Y116.002 E97.57566
G1 X170.716 Y116.503 E97.60825
G1 X169.728 Y116.7 E97.64176
G1 X65.156 Y116.7 E101.11983
G1 X64.321 Y116.495 E101.14843
G1 X63.425 Y116.031 E101.18199
G1 X62.798 Y115.358 E101.21259
G1 X62.297 Y114.516 E101.24517
G1 X62.1 Y113.528 E101.27868
G1 X62.1 Y107.356 E101.48396
G1 X62.305 Y106.521 E101.51256
G1 X62.769 Y105.625 E101.54612
G1 X63.442 Y104.998 E101.57671
G0 F6000 X63.684 Y105.32
G1 F1200 X64.432 Y104.875 E101.60566
G1 X65.31 Y104.7 E101.63544
G1 X169.798 Y104.7 E105.11072
G1 X170.536 Y104.881 E105.136
G1 X171.328 Y105.291 E105.16566
G1 X171.88 Y105.884 E105.1926
G1 X172.325 Y106.632 E105.22155
G1 X172.5 Y107.51 E105.25133
G1 X172.5 Y113.598 E105.45382
G1 X172.319 Y114.336 E105.47909
G1 X171.909 Y115.128 E105.50875
G1 X171.316 Y115.68 E105.5357
G1 X170.568 Y116.125 E105.56465
G1 X169.69 Y116.3 E105.59442
G1 X65.202 Y116.3 E109.06971
G1 X64.464 Y116.119 E109.09498
G1 X63.672 Y115.709 E109.12464
G1 X63.12 Y115.116 E109.15159
G1 X62.675 Y114.368 E109.18054
G1 X62.5 Y113.49 E109.21032
G1 X62.5 Y107.402 E109.4128
G1 X62.681 Y106.664 E109.43808
G1 X63.091 Y105.872 E109.46774
G1 X63.684 Y105.32 E109.49469
G0 F6000 X63.923 Y105.644
G1 F1200 X64.58 Y105.253 E109.52011
G1 X65.348 Y105.1 E109.54616
G1 X169.748 Y105.1 E113.01852
G1 X170.397 Y105.259 E113.04074
G1 X171.083 Y105.614 E113.06643
G1 X171.556 Y106.123 E113.08954
G1 X171.947 Y106.78 E113.11497
G1 X172.1 Y107.548 E113.14102
G1 X172.1 Y113.548 E113.34058
G1 X171.941 Y114.197 E113.3628
G1 X171.586 Y114.883 E113.38849
G1 X171.077 Y115.356 E113.4116
G1 X170.42 Y115.747 E113.43703
G1 X169.652 Y115.9 E113.46308
G1 X65.252 Y115.9 E116.93544
G1 X64.603 Y115.741 E116.95766
G1 X63.917 Y115.386 E116.98335
G1 X63.444 Y114.877 E117.00646
G1 X63.053 Y114.22 E117.03189
G1 X62.9 Y113.452 E117.05794
G1 X62.9 Y107.452 E117.2575
G1 X63.059 Y106.803 E117.27972
G1 X63.414 Y106.117 E117.30541
G1 X63.923 Y105.644 E117.32852
G0 F6000 X64.162 Y105.968
G1 F1200 X64.728 Y105.631 E117.35043
G1 X65.386 Y105.5 E117.37275
G1 X169.698 Y105.5 E120.84218
G1 X170.258 Y105.637 E120.86135
G1 X170.838 Y105.937 E120.88307
G1 X171.232 Y106.362 E120.90235
G1 X171.569 Y106.928 E120.92426
G1 X171.7 Y107.586 E120.94657
G1 X171.7 Y113.498 E121.14321
G1 X171.563 Y114.058 E121.16238
G1 X171.263 Y114.638 E121.1841
G1 X170.838 Y115.032 E121.20337
G1 X170.272 Y115.369 E121.22528
G1 X169.614 Y115.5 E121.2476
G1 X65.302 Y115.5 E124.71703
G1 X64.742 Y115.363 E124.7362
G1 X64.162 Y115.063 E124.75792
G1 X63.768 Y114.638 E124.7772
G1 X63.431 Y114.072 E124.79911
G1 X63.3 Y113.414 E124.82142
G1 X63.3 Y107.502 E125.01806
G1 X63.437 Y106.942 E125.03723
G1 X63.737 Y106.362 E125.05895
G1 X64.162 Y105.968 E125.07823
G0 F6000 X64.401 Y106.292
G1 F1200 X64.876 Y106.009 E125.09662
G1 X65.424 Y105.9 E125.1152
G1 X169.648 Y105.9 E128.5817
G1 X170.119 Y106.015 E128.59783
G1 X170.592 Y106.26 E128.61555
G1 X170.908 Y106.601 E128.63101
G1 X171.191 Y107.076 E128.6494
G1 X171.3 Y107.624 E128.66798
G1 X171.3 Y113.448 E128.86169
G1 X171.185 Y113.919 E128.87782
G1 X170.94 Y114.392 E128.89553
G1 X170.599 Y114.708 E128.911
G1 X170.124 Y114.991 E128.92939
G1 X169.576 Y115.1 E128.94797
G1 X65.352 Y115.1 E132.41447
G1 X64.881 Y114.985 E132.4306
G1 X64.408 Y114.74 E132.44832
G1 X64.092 Y114.399 E132.46378
G1 X63.809 Y113.924 E132.48217
G1 X63.7 Y113.376 E132.50075
G1 X63.7 Y107.552 E132.69446
G1 X63.815 Y107.081 E132.71059
G1 X64.06 Y106.608 E132.7283
G1 X64.401 Y106.292 E132.74377
G0 F6000 X64.64 Y106.616
G1 F1200 X65.024 Y106.387 E132.75864
G1 X65.462 Y106.3 E132.77349
G1 X169.598 Y106.3 E136.23707
G1 X169.98 Y106.393 E136.25014
G1 X170.346 Y106.583 E136.26386
G1 X170.584 Y106.84 E136.27551
G1 X170.813 Y107.224 E136.29038
G1 X170.9 Y107.662 E136.30523
G1 X170.9 Y113.398 E136.49601
G1 X170.807 Y113.78 E136.50909
G1 X170.617 Y114.146 E136.5228
G1 X170.36 Y114.384 E136.53445
G1 X169.976 Y114.613 E136.54933
G1 X169.538 Y114.7 E136.56418
G1 X65.402 Y114.7 E140.02776
G1 X65.02 Y114.607 E140.04083
G1 X64.654 Y114.417 E140.05455
G1 X64.416 Y114.16 E140.0662
G1 X64.187 Y113.776 E140.08107
G1 X64.1 Y113.338 E140.09592
G1 X64.1 Y107.602 E140.2867
G1 X64.193 Y107.22 E140.29978
G1 X64.383 Y106.854 E140.31349
G1 X64.64 Y106.616 E140.32514
G0 F6000 X64.845 Y106.96
G1 F1200 X65.172 Y106.765 E140.33781
G1 X65.5 Y106.7 E140.34893
G1 X169.549 Y106.7 E143.80961
G1 X169.838 Y106.77 E143.8195
G1 X170.101 Y106.907 E143.82936
G1 X170.24 Y107.045 E143.83588
G1 X170.435 Y107.372 E143.84854
G1 X170.5 Y107.7 E143.85966
G1 X170.5 Y113.349 E144.04755
G1 X170.43 Y113.638 E144.05744
G1 X170.293 Y113.901 E144.0673
G1 X170.155 Y114.04 E144.07382
G1 X169.828 Y114.235 E144.08648
G1 X169.5 Y114.3 E144.0976
G1 X65.451 Y114.3 E147.55829
G1 X65.162 Y114.23 E147.56818
G1 X64.899 Y114.093 E147.57804
G1 X64.76 Y113.955 E147.58455
G1 X64.565 Y113.628 E147.59722
G1 X64.5 Y113.3 E147.60834
G1 X64.5 Y107.651 E147.79623
G1 X64.57 Y107.362 E147.80612
G1 X64.707 Y107.099 E147.81598
G1 X64.845 Y106.96 E147.82249
G0 F6000 X65.05 Y107.304
G1 F1200 X65.32 Y107.143 E147.83295
G1 X65.5 Y107.1 E147.8391
G1 X169.5 Y107.1 E151.29816
G1 X169.744 Y107.159 E151.30651
G1 X169.896 Y107.25 E151.3124
G1 X170.057 Y107.52 E151.32286
G1 X170.1 Y107.7 E151.32901
G1 X170.1 Y113.3 E151.51527
G1 X170.041 Y113.544 E151.52362
G1 X169.95 Y113.696 E151.52951
G1 X169.68 Y113.857 E151.53996
G1 X169.5 Y113.9 E151.54612
G1 X65.5 Y113.9 E155.00517
G1 X65.256 Y113.841 E155.01352
G1 X65.104 Y113.75 E155.01942
G1 X64.943 Y113.48 E155.02987
G1 X64.9 Y113.3 E155.03603
G1 X64.9 Y107.7 E155.22228
G1 X64.959 Y107.456 E155.23063
G1 X65.05 Y107.304 E155.23653
G0 F6000 X65.339 Y107.581
G1 F1200 X65.5 Y107.5 E155.24252
G1 X169.5 Y107.5 E158.70157
G1 X169.619 Y107.539 E158.70574
G1 X169.7 Y107.7 E158.71173
G1 X169.7 Y113.3 E158.89799
G1 X169.661 Y113.419 E158.90215
G1 X169.5 Y113.5 E158.90815
G1 X65.5 Y113.5 E162.3672
G1 X65.381 Y113.461 E162.37137
G1 X65.3 Y113.3 E162.37736
G1 X65.3 Y107.7 E162.56362
G1 X65.339 Y107.581 E162.56778
G1 F2700 E157.56778
;MESH:megav1-KeyBoardRiser.stl
G0 F6000 X66.3 Y108.5
G0 X168.9 Y112.7
;TYPE:WALL-INNER
G1 F2700 E162.56778
G1 F1200 X168.9 Y108.3 E162.71413
G1 X66.1 Y108.3 E166.13327
G1 X66.1 Y112.7 E166.27962
G1 X168.9 Y112.7 E169.69876
G0 F6000 X169.3 Y113.1
;TYPE:WALL-OUTER
G1 F1200 X169.3 Y107.9 E169.87171
G1 X65.7 Y107.9 E173.31746
G1 X65.7 Y113.1 E173.49041
G1 X169.3 Y113.1 E176.93616
G0 F6000 X169.03 Y112.83
G0 X168.8 Y112.34
G0 X168.54 Y112.34
;TYPE:SKIN
G1 F1200 X66.46 Y112.34 E180.33136
G1 X66.46 Y108.66 E180.45375
G1 X168.54 Y108.66 E183.84895
G1 X168.54 Y112.34 E183.97135
G0 F6000 X168.8 Y112.34
G0 X168.8 Y108.942
G0 X168.339 Y108.942
G1 F1200 X168.256 Y108.859 E183.97525
G0 F6000 X167.691 Y108.859
