;FLAVOR:Marlin
;TIME:4815
;Filament used: 3.28336m
;Layer height: 0.28
;MINX:57.7
;MINY:99.9
;MINZ:0.28
;MAXX:177.3
;MAXY:128.2
;MAXZ:14
;Generated with Cura_SteamEngine 5.3.1
M140 S60
M105
M190 S60
M104 S195
M105
M109 S195
M82 ;absolute extrusion mode
; Ender 3 Custom Start G-code
G92 E0 ; Reset Extruder
G28 ; Home all axes
G1 Z2.0 F3000 ; Move Z Axis up little to prevent scratching of Heat Bed
G1 X0.1 Y20 Z0.3 F5000.0 ; Move to start position
G1 X0.1 Y200.0 Z0.3 F1500.0 E15 ; Draw the first line
G1 X0.4 Y200.0 Z0.3 F5000.0 ; Move to side a little
G1 X0.4 Y20 Z0.3 F1500.0 E30 ; Draw the second line
G92 E0 ; Reset Extruder
G1 Z2.0 F3000 ; Move Z Axis up little to prevent scratching of Heat Bed
G1 X5 Y20 Z0.3 F5000.0 ; Move over to prevent blob squish
G92 E0
G92 E0
G1 F2700 E-5
;LAYER_COUNT:50
;LAYER:0
M107
G0 F6000 X60.794 Y101.45 Z0.28
;TYPE:SKIRT
G1 F2700 E0
G1 F1200 X62.666 Y100.338 E0.10139
G1 X64.853 Y99.9 E0.20525
G1 X170.353 Y99.9 E5.11777
G1 X172.249 Y100.366 E5.20868
G1 X174.276 Y101.419 E5.31504
G1 X175.75 Y102.994 E5.41549
G1 X176.862 Y104.866 E5.51688
G1 X177.3 Y107.053 E5.62073
G1 X177.294 Y113.893 E5.93923
G1 X177.269 Y114.112 E5.9495
G1 X177.298 Y114.375 E5.96182
G1 X177.3 Y121.253 E6.28209
G1 X176.834 Y123.149 E6.373
G1 X175.781 Y125.176 E6.47936
G1 X174.206 Y126.65 E6.57981
G1 X172.334 Y127.762 E6.68119
G1 X170.147 Y128.2 E6.78505
G1 X64.647 Y128.2 E11.69757
G1 X62.751 Y127.734 E11.78849
G1 X60.724 Y126.681 E11.89485
G1 X59.25 Y125.106 E11.99529
G1 X58.138 Y123.234 E12.09668
G1 X57.7 Y121.047 E12.20054
G1 X57.706 Y114.207 E12.51904
G1 X57.731 Y113.988 E12.5293
G1 X57.702 Y113.725 E12.54162
G1 X57.7 Y106.847 E12.86189
G1 X58.166 Y104.951 E12.95281
G1 X59.219 Y102.924 E13.05917
G1 X60.794 Y101.45 E13.15961
G0 F6000 X61.035 Y101.772
G1 F1200 X62.812 Y100.716 E13.25587
G1 X64.891 Y100.3 E13.35459
G1 X170.307 Y100.3 E18.2632
G1 X172.106 Y100.742 E18.34946
G1 X174.031 Y101.742 E18.45047
G1 X175.428 Y103.235 E18.54568
G1 X176.484 Y105.012 E18.64193
G1 X176.9 Y107.091 E18.74066
G1 X176.894 Y113.893 E19.05739
G1 X176.866 Y114.109 E19.06753
G1 X176.9 Y114.419 E19.08205
G1 X176.9 Y121.207 E19.39813
G1 X176.458 Y123.006 E19.48439
G1 X175.458 Y124.931 E19.5854
G1 X173.965 Y126.328 E19.68061
G1 X172.188 Y127.384 E19.77686
G1 X170.109 Y127.8 E19.87558
G1 X64.693 Y127.8 E24.7842
G1 X62.894 Y127.358 E24.87046
G1 X60.969 Y126.358 E24.97146
G1 X59.572 Y124.865 E25.06667
G1 X58.516 Y123.088 E25.16293
G1 X58.1 Y121.009 E25.26165
G1 X58.106 Y114.207 E25.57838
G1 X58.134 Y113.991 E25.58852
G1 X58.1 Y113.681 E25.60304
G1 X58.1 Y106.893 E25.91912
G1 X58.542 Y105.094 E26.00538
G1 X59.542 Y103.169 E26.10639
G1 X61.035 Y101.772 E26.2016
G0 F6000 X61.276 Y102.094
G1 F1200 X62.958 Y101.095 E26.29269
G1 X64.93 Y100.7 E26.38634
G1 X170.26 Y100.7 E31.29095
G1 X171.964 Y101.119 E31.37266
G1 X173.786 Y102.065 E31.46825
G1 X175.106 Y103.476 E31.55822
G1 X176.105 Y105.158 E31.64932
G1 X176.5 Y107.13 E31.74296
G1 X176.497 Y113.842 E32.0555
G1 X176.463 Y114.105 E32.06785
G1 X176.5 Y114.419 E32.08257
G1 X176.5 Y121.16 E32.39646
G1 X176.081 Y122.864 E32.47817
G1 X175.135 Y124.686 E32.57377
G1 X173.724 Y126.006 E32.66374
G1 X172.042 Y127.005 E32.75483
G1 X170.07 Y127.4 E32.84848
G1 X64.74 Y127.4 E37.75308
G1 X63.036 Y126.981 E37.83479
G1 X61.214 Y126.035 E37.93039
G1 X59.894 Y124.624 E38.02036
G1 X58.895 Y122.942 E38.11145
G1 X58.5 Y120.97 E38.2051
G1 X58.503 Y114.258 E38.51764
G1 X58.537 Y113.995 E38.52999
G1 X58.5 Y113.681 E38.54471
G1 X58.5 Y106.94 E38.8586
G1 X58.919 Y105.236 E38.94031
G1 X59.865 Y103.414 E39.0359
G1 X61.276 Y102.094 E39.12587
G0 F6000 X61.517 Y102.416
G1 F1200 X63.104 Y101.473 E39.21183
G1 X64.968 Y101.1 E39.30035
G1 X170.214 Y101.1 E44.20104
G1 X171.821 Y101.495 E44.2781
G1 X173.541 Y102.388 E44.36834
G1 X174.784 Y103.717 E44.45307
G1 X175.727 Y105.304 E44.53903
G1 X176.1 Y107.168 E44.62755
G1 X176.1 Y113.791 E44.93594
G1 X176.06 Y114.105 E44.95068
G1 X176.1 Y114.419 E44.96542
G1 X176.1 Y121.114 E45.27717
G1 X175.705 Y122.721 E45.35422
G1 X174.812 Y124.441 E45.44446
G1 X173.483 Y125.684 E45.5292
G1 X171.896 Y126.627 E45.61516
G1 X170.032 Y127 E45.70367
G1 X64.786 Y127 E50.60437
G1 X63.179 Y126.605 E50.68142
G1 X61.459 Y125.712 E50.77166
G1 X60.216 Y124.383 E50.8564
G1 X59.273 Y122.796 E50.94236
G1 X58.9 Y120.932 E51.03087
G1 X58.9 Y114.309 E51.33927
G1 X58.94 Y113.995 E51.35401
G1 X58.9 Y113.681 E51.36874
G1 X58.9 Y106.986 E51.68049
G1 X59.295 Y105.379 E51.75755
G1 X60.188 Y103.659 E51.84779
G1 X61.517 Y102.416 E51.93252
G0 F6000 X61.758 Y102.738
G1 F1200 X63.25 Y101.851 E52.01335
G1 X65.006 Y101.5 E52.09673
G1 X170.168 Y101.5 E56.99351
G1 X171.678 Y101.871 E57.06592
G1 X173.296 Y102.711 E57.15081
G1 X174.462 Y103.958 E57.2303
G1 X175.349 Y105.45 E57.31112
G1 X175.7 Y107.206 E57.39451
G1 X175.7 Y113.791 E57.70113
G1 X175.656 Y114.105 E57.7159
G1 X175.7 Y114.419 E57.73066
G1 X175.7 Y121.068 E58.04027
G1 X175.329 Y122.578 E58.11267
G1 X174.489 Y124.196 E58.19756
G1 X173.242 Y125.362 E58.27705
G1 X171.75 Y126.249 E58.35788
G1 X169.994 Y126.6 E58.44126
G1 X64.832 Y126.6 E63.33805
G1 X63.322 Y126.229 E63.41045
G1 X61.704 Y125.389 E63.49534
G1 X60.538 Y124.142 E63.57483
G1 X59.651 Y122.65 E63.65566
G1 X59.3 Y120.894 E63.73904
G1 X59.3 Y114.309 E64.04567
G1 X59.344 Y113.995 E64.06043
G1 X59.3 Y113.681 E64.07519
G1 X59.3 Y107.032 E64.3848
G1 X59.671 Y105.522 E64.4572
G1 X60.511 Y103.904 E64.54209
G1 X61.758 Y102.738 E64.62159
G0 F6000 X61.999 Y103.06
G1 F1200 X63.396 Y102.229 E64.69727
G1 X65.044 Y101.9 E64.77553
G1 X170.121 Y101.9 E69.66835
G1 X171.536 Y102.248 E69.7362
G1 X173.051 Y103.034 E69.81568
G1 X174.14 Y104.199 E69.88993
G1 X174.971 Y105.596 E69.96562
G1 X175.3 Y107.244 E70.04388
G1 X175.3 Y113.791 E70.34873
G1 X175.251 Y114.104 E70.36348
G1 X175.3 Y114.419 E70.37833
G1 X175.3 Y121.021 E70.68574
G1 X174.952 Y122.436 E70.7536
G1 X174.166 Y123.951 E70.83307
G1 X173.001 Y125.04 E70.90733
G1 X171.604 Y125.871 E70.98302
G1 X169.956 Y126.2 E71.06127
G1 X64.879 Y126.2 E75.95409
G1 X63.464 Y125.852 E76.02194
G1 X61.949 Y125.066 E76.10142
G1 X60.86 Y123.901 E76.17568
G1 X60.029 Y122.504 E76.25136
G1 X59.7 Y120.856 E76.32962
G1 X59.7 Y114.309 E76.63447
G1 X59.749 Y113.996 E76.64922
G1 X59.7 Y113.681 E76.66407
G1 X59.7 Y107.079 E76.97148
G1 X60.048 Y105.664 E77.03934
G1 X60.834 Y104.149 E77.11881
G1 X61.999 Y103.06 E77.19307
G0 F6000 X62.238 Y103.384
G1 F1200 X63.544 Y102.607 E77.26383
G1 X65.082 Y102.3 E77.33686
G1 X170.075 Y102.3 E82.22577
G1 X171.393 Y102.624 E82.28897
G1 X172.806 Y103.357 E82.36309
G1 X173.816 Y104.438 E82.43198
G1 X174.593 Y105.744 E82.50274
G1 X174.9 Y107.282 E82.57577
G1 X174.9 Y113.791 E82.87886
G1 X174.844 Y114.103 E82.89362
G1 X174.9 Y114.419 E82.90856
G1 X174.9 Y120.975 E83.21383
G1 X174.576 Y122.293 E83.27703
G1 X173.843 Y123.706 E83.35115
G1 X172.762 Y124.716 E83.42004
G1 X171.456 Y125.493 E83.4908
G1 X169.918 Y125.8 E83.56383
G1 X64.925 Y125.8 E88.45275
G1 X63.607 Y125.476 E88.51595
G1 X62.194 Y124.743 E88.59007
G1 X61.184 Y123.662 E88.65895
G1 X60.407 Y122.356 E88.72972
G1 X60.1 Y120.818 E88.80274
G1 X60.1 Y114.309 E89.10583
G1 X60.156 Y113.997 E89.12059
G1 X60.1 Y113.681 E89.13553
G1 X60.1 Y107.125 E89.44081
G1 X60.424 Y105.807 E89.50401
G1 X61.157 Y104.394 E89.57813
G1 X62.238 Y103.384 E89.64702
G0 F6000 X62.477 Y103.708
G1 F1200 X63.692 Y102.985 E89.71285
G1 X65.12 Y102.7 E89.78066
G1 X170.029 Y102.7 E94.66566
G1 X171.25 Y103 E94.7242
G1 X172.561 Y103.68 E94.79297
G1 X173.492 Y104.677 E94.85649
G1 X174.215 Y105.892 E94.92233
G1 X174.5 Y107.32 E94.99013
G1 X174.5 Y113.791 E95.29145
G1 X174.436 Y114.101 E95.30619
G1 X174.5 Y114.419 E95.32129
G1 X174.5 Y120.929 E95.62442
G1 X174.2 Y122.15 E95.68297
G1 X173.52 Y123.461 E95.75174
G1 X172.523 Y124.392 E95.81526
G1 X171.308 Y125.115 E95.88109
G1 X169.88 Y125.4 E95.9489
G1 X64.971 Y125.4 E100.8339
G1 X63.75 Y125.1 E100.89245
G1 X62.439 Y124.42 E100.96121
G1 X61.508 Y123.423 E101.02473
G1 X60.785 Y122.208 E101.09057
G1 X60.5 Y120.78 E101.15837
G1 X60.5 Y114.309 E101.45969
G1 X60.564 Y113.999 E101.47443
G1 X60.5 Y113.681 E101.48953
G1 X60.5 Y107.171 E101.79267
G1 X60.8 Y105.95 E101.85121
G1 X61.48 Y104.639 E101.91998
G1 X62.477 Y103.708 E101.9835
G0 F6000 X62.716 Y104.032
G1 F1200 X63.84 Y103.363 E102.04441
G1 X65.158 Y103.1 E102.10699
G1 X169.983 Y103.1 E106.98808
G1 X171.107 Y103.376 E107.04197
G1 X172.316 Y104.003 E107.10539
G1 X173.168 Y104.916 E107.16354
G1 X173.837 Y106.04 E107.22444
G1 X174.1 Y107.358 E107.28703
G1 X174.1 Y113.791 E107.58657
G1 X174.027 Y114.092 E107.60099
G1 X174.1 Y114.457 E107.61833
G1 X174.1 Y120.883 E107.91755
G1 X173.824 Y122.007 E107.97144
G1 X173.197 Y123.216 E108.03486
G1 X172.284 Y124.068 E108.09301
G1 X171.16 Y124.737 E108.15391
G1 X169.842 Y125 E108.2165
G1 X65.017 Y125 E113.09759
G1 X63.893 Y124.724 E113.15148
G1 X62.684 Y124.097 E113.2149
G1 X61.832 Y123.184 E113.27305
G1 X61.163 Y122.06 E113.33395
G1 X60.9 Y120.742 E113.39653
G1 X60.9 Y114.309 E113.69608
G1 X60.973 Y114.008 E113.7105
G1 X60.9 Y113.643 E113.72784
G1 X60.9 Y107.217 E114.02706
G1 X61.176 Y106.093 E114.08095
G1 X61.803 Y104.884 E114.14437
G1 X62.716 Y104.032 E114.20252
G0 F6000 X62.958 Y104.354
G1 F1200 X63.988 Y103.741 E114.25833
G1 X65.196 Y103.5 E114.31569
G1 X169.936 Y103.5 E119.19282
G1 X170.965 Y103.753 E119.24216
G1 X172.069 Y104.325 E119.30006
G1 X172.846 Y105.158 E119.3531
G1 X173.459 Y106.188 E119.40891
G1 X173.7 Y107.396 E119.46627
G1 X173.7 Y113.742 E119.76177
G1 X173.618 Y114.083 E119.7781
G1 X173.7 Y114.495 E119.79766
G1 X173.7 Y120.836 E120.09292
G1 X173.447 Y121.865 E120.14226
G1 X172.875 Y122.969 E120.20016
G1 X172.042 Y123.746 E120.2532
G1 X171.012 Y124.359 E120.30902
G1 X169.804 Y124.6 E120.36637
G1 X65.064 Y124.6 E125.24351
G1 X64.035 Y124.347 E125.29285
G1 X62.931 Y123.775 E125.35075
G1 X62.154 Y122.942 E125.40379
G1 X61.541 Y121.912 E125.4596
G1 X61.3 Y120.704 E125.51696
G1 X61.3 Y114.358 E125.81246
G1 X61.382 Y114.017 E125.82879
G1 X61.3 Y113.605 E125.84835
G1 X61.3 Y107.264 E126.14361
G1 X61.553 Y106.235 E126.19295
G1 X62.125 Y105.131 E126.25085
G1 X62.958 Y104.354 E126.30389
G0 F6000 X63.2 Y104.676
G1 F1200 X64.136 Y104.119 E126.35461
G1 X65.234 Y103.9 E126.40674
G1 X169.89 Y103.9 E131.27997
G1 X170.822 Y104.129 E131.32465
G1 X171.822 Y104.647 E131.3771
G1 X172.524 Y105.4 E131.42503
G1 X173.081 Y106.336 E131.47575
G1 X173.3 Y107.434 E131.52788
G1 X173.3 Y113.694 E131.81938
G1 X173.208 Y114.073 E131.83754
G1 X173.3 Y114.533 E131.85938
G1 X173.3 Y120.79 E132.15073
G1 X173.071 Y121.722 E132.19542
G1 X172.553 Y122.722 E132.24786
G1 X171.8 Y123.424 E132.2958
G1 X170.864 Y123.981 E132.34651
G1 X169.766 Y124.2 E132.39865
G1 X65.11 Y124.2 E137.27187
G1 X64.178 Y123.971 E137.31656
G1 X63.178 Y123.453 E137.369
G1 X62.476 Y122.7 E137.41694
G1 X61.919 Y121.764 E137.46765
G1 X61.7 Y120.666 E137.51979
G1 X61.7 Y114.406 E137.81128
G1 X61.792 Y114.027 E137.82944
G1 X61.7 Y113.567 E137.85128
G1 X61.7 Y107.31 E138.14264
G1 X61.929 Y106.378 E138.18733
G1 X62.447 Y105.378 E138.23977
G1 X63.2 Y104.676 E138.2877
G0 F6000 X63.442 Y104.998
G1 F1200 X64.284 Y104.497 E138.33333
G1 X65.272 Y104.3 E138.38024
G1 X169.844 Y104.3 E143.24955
G1 X170.679 Y104.505 E143.28958
G1 X171.575 Y104.969 E143.33657
G1 X172.202 Y105.642 E143.3794
G1 X172.703 Y106.484 E143.42502
G1 X172.9 Y107.472 E143.47193
G1 X172.9 Y113.644 E143.75932
G1 X172.798 Y114.063 E143.7794
G1 X172.9 Y114.572 E143.80358
G1 X172.9 Y120.744 E144.09097
G1 X172.695 Y121.579 E144.13101
G1 X172.231 Y122.475 E144.17799
G1 X171.558 Y123.102 E144.22082
G1 X170.716 Y123.603 E144.26644
G1 X169.728 Y123.8 E144.31336
G1 X65.156 Y123.8 E149.18267
G1 X64.321 Y123.595 E149.2227
G1 X63.425 Y123.131 E149.26969
G1 X62.798 Y122.458 E149.31252
G1 X62.297 Y121.616 E149.35814
G1 X62.1 Y120.628 E149.40505
G1 X62.1 Y114.456 E149.69244
G1 X62.202 Y114.037 E149.71252
G1 X62.1 Y113.528 E149.7367
G1 X62.1 Y107.356 E150.02409
G1 X62.305 Y106.521 E150.06413
G1 X62.769 Y105.625 E150.11111
G1 X63.442 Y104.998 E150.15394
G0 F6000 X63.684 Y105.32
G1 F1200 X64.432 Y104.875 E150.19447
G1 X65.31 Y104.7 E150.23616
G1 X169.798 Y104.7 E155.10155
G1 X170.536 Y104.881 E155.13694
G1 X171.328 Y105.291 E155.17846
G1 X171.88 Y105.884 E155.21619
G1 X172.325 Y106.632 E155.25672
G1 X172.5 Y107.51 E155.2984
G1 X172.5 Y113.595 E155.58175
G1 X172.389 Y114.053 E155.60369
G1 X172.5 Y114.61 E155.63014
G1 X172.5 Y120.698 E155.91362
G1 X172.319 Y121.436 E155.949
G1 X171.909 Y122.228 E155.99053
G1 X171.316 Y122.78 E156.02825
G1 X170.568 Y123.225 E156.06878
G1 X169.69 Y123.4 E156.11047
G1 X65.202 Y123.4 E160.97587
G1 X64.464 Y123.219 E161.01125
G1 X63.672 Y122.809 E161.05278
G1 X63.12 Y122.216 E161.0905
G1 X62.675 Y121.468 E161.13103
G1 X62.5 Y120.59 E161.17272
G1 X62.5 Y114.505 E161.45606
G1 X62.611 Y114.047 E161.47801
G1 X62.5 Y113.49 E161.50445
G1 X62.5 Y107.402 E161.78793
G1 X62.681 Y106.664 E161.82332
G1 X63.091 Y105.872 E161.86484
G1 X63.684 Y105.32 E161.90257
G0 F6000 X63.923 Y105.644
G1 F1200 X64.58 Y105.253 E161.93817
G1 X65.348 Y105.1 E161.97463
G1 X169.748 Y105.1 E166.83593
G1 X170.397 Y105.259 E166.86705
G1 X171.083 Y105.614 E166.90302
G1 X171.556 Y106.123 E166.93537
G1 X171.947 Y106.78 E166.97097
G1 X172.1 Y107.548 E167.00743
G1 X172.1 Y113.546 E167.28673
G1 X171.98 Y114.043 E167.31053
G1 X172.1 Y114.648 E167.33925
G1 X172.1 Y120.648 E167.61864
G1 X171.941 Y121.297 E167.64975
G1 X171.586 Y121.983 E167.68572
G1 X171.077 Y122.456 E167.71807
G1 X170.42 Y122.847 E167.75368
G1 X169.652 Y123 E167.79014
G1 X65.252 Y123 E172.65144
G1 X64.603 Y122.841 E172.68255
G1 X63.917 Y122.486 E172.71852
G1 X63.444 Y121.977 E172.75088
G1 X63.053 Y121.32 E172.78648
G1 X62.9 Y120.552 E172.82294
G1 X62.9 Y114.554 E173.10223
G1 X63.02 Y114.057 E173.12604
G1 X62.9 Y113.452 E173.15476
G1 X62.9 Y107.452 E173.43415
G1 X63.059 Y106.803 E173.46526
G1 X63.414 Y106.117 E173.50123
G1 X63.923 Y105.644 E173.53358
G0 F6000 X64.162 Y105.968
G1 F1200 X64.728 Y105.631 E173.56425
G1 X65.386 Y105.5 E173.59549
G1 X169.698 Y105.5 E178.4527
G1 X170.258 Y105.637 E178.47954
G1 X170.838 Y105.937 E178.50995
G1 X171.232 Y106.362 E178.53694
G1 X171.569 Y106.928 E178.56761
G1 X171.7 Y107.586 E178.59885
G1 X171.7 Y113.498 E178.87414
G1 X171.556 Y114.091 E178.90255
G1 X171.611 Y114.238 E178.90986
G1 X171.7 Y114.686 E178.93113
G1 X171.7 Y120.598 E179.20642
G1 X171.563 Y121.158 E179.23326
G1 X171.263 Y121.738 E179.26367
G1 X170.838 Y122.132 E179.29065
G1 X170.272 Y122.469 E179.32133
G1 X169.614 Y122.6 E179.35257
G1 X65.302 Y122.6 E184.20977
G1 X64.742 Y122.463 E184.23661
G1 X64.162 Y122.163 E184.26702
G1 X63.768 Y121.738 E184.29401
G1 X63.431 Y121.172 E184.32468
G1 X63.3 Y120.514 E184.35592
G1 X63.3 Y114.602 E184.63121
G1 X63.444 Y114.009 E184.65962
G1 X63.389 Y113.862 E184.66693
G1 X63.3 Y113.414 E184.6882
G1 X63.3 Y107.502 E184.96349
G1 X63.437 Y106.942 E184.99033
G1 X63.737 Y106.362 E185.02074
G1 X64.162 Y105.968 E185.04772
G0 F6000 X64.401 Y106.292
G1 F1200 X64.876 Y106.009 E185.07347
G1 X65.424 Y105.9 E185.09949
G1 X169.648 Y105.9 E189.95259
G1 X170.119 Y106.015 E189.97517
G1 X170.592 Y106.26 E189.99997
G1 X170.908 Y106.601 E190.02162
G1 X171.191 Y107.076 E190.04737
G1 X171.3 Y107.624 E190.07338
G1 X171.3 Y113.448 E190.34457
G1 X171.196 Y113.875 E190.36504
G1 X171.109 Y114.067 E190.37485
G1 X171.219 Y114.316 E190.38753
G1 X171.3 Y114.724 E190.4069
G1 X171.3 Y120.548 E190.67809
G1 X171.185 Y121.019 E190.70066
G1 X170.94 Y121.492 E190.72547
G1 X170.599 Y121.808 E190.74712
G1 X170.124 Y122.091 E190.77286
G1 X169.576 Y122.2 E190.79888
G1 X65.352 Y122.2 E195.65198
G1 X64.881 Y122.085 E195.67456
G1 X64.408 Y121.84 E195.69936
G1 X64.092 Y121.499 E195.72101
G1 X63.809 Y121.024 E195.74676
G1 X63.7 Y120.476 E195.77278
G1 X63.7 Y114.652 E196.04397
G1 X63.804 Y114.225 E196.06443
G1 X63.891 Y114.033 E196.07424
G1 X63.781 Y113.784 E196.08692
G1 X63.7 Y113.376 E196.10629
G1 X63.7 Y107.552 E196.37748
G1 X63.815 Y107.081 E196.40005
G1 X64.06 Y106.608 E196.42486
G1 X64.401 Y106.292 E196.44651
G0 F6000 X64.64 Y106.616
G1 F1200 X65.024 Y106.387 E196.46733
G1 X65.462 Y106.3 E196.48812
