;FLAVOR:Marlin
;TIME:6097
;Filament used: 3.20633m
;Layer height: 0.2
;MINX:54.5
;MINY:90.019
;MINZ:0.2
;MAXX:180.5
;MAXY:145.1
;MAXZ:14
;Generated with Cura_SteamEngine 5.3.1
M140 S50
M105
M190 S50
M104 S200
M105
M109 S200
M82 ;absolute extrusion mode
; Ender 3 Custom Start G-code
G92 E0 ; Reset Extruder
G28 ; Home all axes
G1 Z2.0 F3000 ; Move Z Axis up little to prevent scratching of Heat Bed
G1 X0.1 Y20 Z0.3 F5000.0 ; Move to start position
G1 X0.1 Y200.0 Z0.3 F1500.0 E15 ; Draw the first line
G1 X0.4 Y200.0 Z0.3 F5000.0 ; Move to side a little
G1 X0.4 Y20 Z0.3 F1500.0 E30 ; Draw the second line
G92 E0 ; Reset Extruder
G1 Z2.0 F3000 ; Move Z Axis up little to prevent scratching of Heat Bed
G1 X5 Y20 Z0.3 F5000.0 ; Move over to prevent blob squish
G92 E0
G92 E0
G1 F2700 E-5
;LAYER_COUNT:70
;LAYER:0
M107
G0 F6000 X60.669 Y102.931 Z0.2
;TYPE:SKIRT
G1 F2700 E0
G1 F1200 X61.482 Y102.538 E0.03003
G1 X62.327 Y102.218 E0.06009
G1 X63.196 Y101.975 E0.0901
G1 X64.084 Y101.809 E0.12015
G1 X65.223 Y101.713 E0.15816
G1 X65.83 Y101.7 E0.17836
G1 X71.103 Y101.7 E0.35374
G1 X73.709 Y101.663 E0.44042
G1 X76.274 Y101.554 E0.52581
G1 X78.781 Y101.376 E0.6094
G1 X81.322 Y101.125 E0.69433
G1 X83.83 Y100.804 E0.77843
G1 X86.335 Y100.41 E0.86277
G1 X88.822 Y99.948 E0.9469
G1 X91.336 Y99.407 E1.03243
G1 X93.782 Y98.808 E1.11619
G1 X96.226 Y98.135 E1.2005
G1 X98.661 Y97.39 E1.2852
G1 X101.063 Y96.579 E1.36952
G1 X103.476 Y95.689 E1.45506
G1 X105.783 Y94.763 E1.53774
G1 X108.135 Y93.739 E1.62306
G1 X111.348 Y92.218 E1.7413
G1 X112.08 Y91.892 E1.76795
G1 X112.922 Y91.565 E1.79799
G1 X113.489 Y91.391 E1.81772
G1 X114.164 Y91.217 E1.8409
G1 X114.668 Y91.103 E1.85809
G1 X115.557 Y90.943 E1.88813
G1 X116.247 Y90.872 E1.9112
G1 X116.767 Y90.84 E1.92853
G1 X117.363 Y90.819 E1.94837
G1 X118.266 Y90.828 E1.9784
G1 X119.271 Y90.931 E2.012
G1 X119.974 Y91.039 E2.03566
G1 X120.86 Y91.216 E2.06571
G1 X121.462 Y91.384 E2.0865
G1 X122.082 Y91.586 E2.10818
G1 X122.579 Y91.764 E2.12574
G1 X123.548 Y92.169 E2.16067
G1 X126.274 Y93.475 E2.26121
G1 X128.639 Y94.523 E2.34725
G1 X130.963 Y95.474 E2.43076
G1 X133.347 Y96.373 E2.51551
G1 X135.729 Y97.195 E2.59932
G1 X138.162 Y97.958 E2.68413
G1 X140.59 Y98.644 E2.76804
G1 X143.085 Y99.273 E2.85362
G1 X145.57 Y99.826 E2.9383
G1 X148.038 Y100.302 E3.02189
G1 X150.569 Y100.717 E3.1072
G1 X153.045 Y101.051 E3.1903
G1 X155.611 Y101.324 E3.27613
G1 X158.102 Y101.517 E3.35922
G1 X160.668 Y101.643 E3.44467
G1 X163.881 Y101.7 E3.55155
G1 X168.954 Y101.701 E3.72028
G1 X169.652 Y101.712 E3.7435
G1 X170.553 Y101.766 E3.77352
G1 X171.446 Y101.9 E3.80356
G1 X172.324 Y102.112 E3.8336
G1 X173.18 Y102.401 E3.86365
G1 X174.006 Y102.765 E3.89367
G1 X174.798 Y103.2 E3.92372
G1 X175.547 Y103.704 E3.95375
G1 X176.25 Y104.272 E3.98381
G1 X176.899 Y104.899 E4.01382
G1 X177.49 Y105.582 E4.04387
G1 X178.019 Y106.314 E4.0739
G1 X178.48 Y107.091 E4.10395
G1 X178.871 Y107.905 E4.13399
G1 X179.189 Y108.75 E4.16402
G1 X179.43 Y109.62 E4.19404
G1 X179.594 Y110.508 E4.22408
G1 X179.687 Y111.623 E4.26129
G1 X179.7 Y112.23 E4.28149
G1 X179.699 Y116.915 E4.43731
G1 X179.681 Y117.932 E4.47114
G1 X179.628 Y119.181 E4.51272
G1 X179.553 Y121.796 E4.59973
G1 X179.553 Y124.332 E4.68408
G1 X179.625 Y126.904 E4.76966
G1 X179.684 Y128.119 E4.81012
G1 X179.7 Y128.83 E4.83377
G1 X179.699 Y133.49 E4.98876
G1 X179.69 Y134.217 E5.01294
G1 X179.639 Y135.119 E5.04299
G1 X179.508 Y136.013 E5.07304
G1 X179.299 Y136.891 E5.10306
G1 X179.013 Y137.748 E5.13311
G1 X178.652 Y138.576 E5.16315
G1 X178.22 Y139.368 E5.19316
G1 X177.719 Y140.12 E5.22321
G1 X177.153 Y140.824 E5.25326
G1 X176.528 Y141.475 E5.28327
G1 X175.847 Y142.069 E5.31333
G1 X175.116 Y142.6 E5.34338
G1 X174.342 Y143.064 E5.3734
G1 X173.529 Y143.458 E5.40344
G1 X172.685 Y143.778 E5.43347
G1 X171.815 Y144.023 E5.46353
G1 X170.928 Y144.189 E5.49354
G1 X169.777 Y144.287 E5.53196
G1 X169.17 Y144.3 E5.55216
G1 X66.075 Y144.299 E8.98111
G1 X65.377 Y144.29 E9.00433
G1 X64.476 Y144.239 E9.03434
G1 X63.582 Y144.107 E9.0644
G1 X62.704 Y143.898 E9.09442
G1 X61.847 Y143.611 E9.12448
G1 X61.02 Y143.25 E9.15449
G1 X60.227 Y142.817 E9.18454
G1 X59.476 Y142.316 E9.21457
G1 X58.772 Y141.75 E9.24461
G1 X58.121 Y141.124 E9.27465
G1 X57.528 Y140.443 E9.30469
G1 X56.998 Y139.712 E9.33472
G1 X56.534 Y138.937 E9.36476
G1 X56.14 Y138.124 E9.39481
G1 X55.82 Y137.28 E9.42483
G1 X55.576 Y136.41 E9.45488
G1 X55.41 Y135.522 E9.48493
G1 X55.313 Y134.367 E9.52348
G1 X55.3 Y133.758 E9.54374
G1 X55.301 Y129.063 E9.6999
G1 X55.319 Y128.063 E9.73316
G1 X55.373 Y126.787 E9.77564
G1 X55.447 Y124.189 E9.86208
G1 X55.447 Y121.668 E9.94593
G1 X55.375 Y119.096 E10.03151
G1 X55.325 Y118.102 E10.06461
G1 X55.3 Y117.164 E10.09582
G1 X55.301 Y112.436 E10.25308
G1 X55.31 Y111.771 E10.2752
G1 X55.362 Y110.869 E10.30525
G1 X55.494 Y109.976 E10.33527
G1 X55.704 Y109.098 E10.3653
G1 X55.991 Y108.241 E10.39536
G1 X56.353 Y107.414 E10.42538
G1 X56.786 Y106.622 E10.45541
G1 X57.288 Y105.871 E10.48545
G1 X57.855 Y105.167 E10.51552
G1 X58.481 Y104.517 E10.54553
G1 X59.162 Y103.924 E10.57556
G1 X59.894 Y103.394 E10.60562
G1 X60.669 Y102.931 E10.63565
G0 F6000 X60.495 Y102.571
G1 F1200 X61.34 Y102.164 E10.66684
G1 X62.185 Y101.844 E10.6969
G1 X63.122 Y101.582 E10.72926
G1 X64.05 Y101.41 E10.76065
G1 X65.189 Y101.314 E10.79866
G1 X65.821 Y101.3 E10.81969
G1 X71.097 Y101.3 E10.99517
G1 X73.692 Y101.263 E11.08149
G1 X76.257 Y101.154 E11.16688
G1 X78.75 Y100.977 E11.25001
G1 X81.271 Y100.728 E11.33426
G1 X83.779 Y100.407 E11.41836
G1 X86.273 Y100.015 E11.50233
G1 X88.737 Y99.557 E11.58568
G1 X91.241 Y99.018 E11.67088
G1 X93.687 Y98.419 E11.75463
G1 X96.12 Y97.75 E11.83856
G1 X98.533 Y97.011 E11.9225
G1 X100.935 Y96.2 E12.00682
G1 X103.327 Y95.318 E12.09161
G1 X105.623 Y94.396 E12.1739
G1 X107.975 Y93.372 E12.25922
G1 X111.185 Y91.853 E12.37734
G1 X111.935 Y91.519 E12.40465
G1 X112.777 Y91.192 E12.43469
G1 X113.389 Y91.004 E12.45598
G1 X114.076 Y90.827 E12.47958
G1 X114.597 Y90.709 E12.49735
G1 X115.486 Y90.549 E12.52739
G1 X116.222 Y90.473 E12.552
G1 X116.753 Y90.44 E12.56969
G1 X117.367 Y90.419 E12.59013
G1 X118.307 Y90.43 E12.6214
G1 X119.332 Y90.536 E12.65567
G1 X120.052 Y90.647 E12.6799
G1 X120.968 Y90.831 E12.71097
G1 X121.586 Y91.004 E12.73232
G1 X122.217 Y91.209 E12.75439
G1 X122.714 Y91.387 E12.77194
G1 X123.721 Y91.808 E12.80825
G1 X126.444 Y93.112 E12.90866
G1 X128.801 Y94.157 E12.99442
G1 X131.104 Y95.1 E13.07719
G1 X133.477 Y95.995 E13.16154
G1 X135.849 Y96.813 E13.24499
G1 X138.282 Y97.576 E13.3298
G1 X140.688 Y98.256 E13.41296
G1 X143.183 Y98.885 E13.49854
G1 X145.646 Y99.433 E13.58246
G1 X148.107 Y99.908 E13.66583
G1 X150.634 Y100.323 E13.751
G1 X153.087 Y100.653 E13.83332
G1 X155.648 Y100.925 E13.91898
G1 X158.122 Y101.117 E14.00151
G1 X160.688 Y101.243 E14.08696
G1 X163.888 Y101.3 E14.19341
G1 X168.96 Y101.301 E14.36211
G1 X169.676 Y101.313 E14.38593
G1 X170.612 Y101.37 E14.41711
G1 X171.505 Y101.504 E14.44715
G1 X172.418 Y101.723 E14.47838
G1 X173.308 Y102.022 E14.5096
G1 X174.199 Y102.414 E14.54198
G1 X174.991 Y102.849 E14.57203
G1 X175.77 Y103.372 E14.60324
G1 X176.528 Y103.984 E14.63564
G1 X177.177 Y104.611 E14.66566
G1 X177.792 Y105.32 E14.69687
G1 X178.363 Y106.11 E14.72929
G1 X178.841 Y106.918 E14.76052
G1 X179.232 Y107.732 E14.79055
G1 X179.574 Y108.643 E14.82292
G1 X179.823 Y109.547 E14.85411
G1 X179.993 Y110.475 E14.88548
G1 X180.087 Y111.614 E14.9235
G1 X180.1 Y112.23 E14.94399
G1 X180.099 Y116.922 E15.10005
G1 X180.081 Y117.949 E15.13421
G1 X180.028 Y119.198 E15.17579
G1 X179.953 Y121.807 E15.2626
G1 X179.953 Y124.332 E15.34658
G1 X180.025 Y126.885 E15.43153
G1 X180.084 Y128.11 E15.47232
G1 X180.1 Y128.83 E15.49627
G1 X180.099 Y133.495 E15.65143
G1 X180.089 Y134.24 E15.67621
G1 X180.035 Y135.177 E15.70743
G1 X179.904 Y136.071 E15.73748
G1 X179.688 Y136.984 E15.76869
G1 X179.38 Y137.908 E15.80108
G1 X179.019 Y138.736 E15.83112
G1 X178.553 Y139.59 E15.86348
G1 X178.031 Y140.371 E15.89473
G1 X177.465 Y141.075 E15.92477
G1 X176.817 Y141.752 E15.95594
G1 X176.082 Y142.393 E15.98838
G1 X175.351 Y142.924 E16.01843
G1 X174.548 Y143.407 E16.04959
G1 X173.671 Y143.832 E16.08201
G1 X172.827 Y144.152 E16.11203
G1 X171.889 Y144.416 E16.14444
G1 X170.962 Y144.588 E16.1758
G1 X169.811 Y144.686 E16.21422
G1 X169.179 Y144.7 E16.23524
G1 X66.07 Y144.699 E19.66466
G1 X65.354 Y144.689 E19.68848
G1 X64.418 Y144.635 E19.71966
G1 X63.524 Y144.503 E19.74972
G1 X62.611 Y144.287 E19.78093
G1 X61.687 Y143.978 E19.81333
G1 X60.86 Y143.617 E19.84334
G1 X60.005 Y143.15 E19.87575
G1 X59.225 Y142.628 E19.90696
G1 X58.521 Y142.062 E19.93701
G1 X57.819 Y141.387 E19.9694
G1 X57.226 Y140.706 E19.99943
G1 X56.674 Y139.947 E20.03065
G1 X56.174 Y139.111 E20.06305
G1 X55.766 Y138.266 E20.09425
G1 X55.446 Y137.422 E20.12428
G1 X55.183 Y136.484 E20.15668
G1 X55.011 Y135.555 E20.1881
G1 X54.913 Y134.376 E20.22745
G1 X54.9 Y133.758 E20.24801
G1 X54.901 Y129.056 E20.4044
G1 X54.919 Y128.046 E20.438
G1 X54.973 Y126.77 E20.48047
G1 X55.047 Y124.178 E20.56672
G1 X55.047 Y121.668 E20.6502
G1 X54.976 Y119.107 E20.73542
G1 X54.925 Y118.113 E20.76852
G1 X54.9 Y117.164 E20.80009
G1 X54.901 Y112.431 E20.95751
G1 X54.911 Y111.748 E20.98023
G1 X54.966 Y110.811 E21.01145
G1 X55.098 Y109.918 E21.04148
G1 X55.315 Y109.005 E21.07269
G1 X55.612 Y108.114 E21.10393
G1 X56.002 Y107.222 E21.13631
G1 X56.453 Y106.4 E21.16749
G1 X56.976 Y105.62 E21.19873
G1 X57.543 Y104.916 E21.22879
G1 X58.218 Y104.215 E21.26116
G1 X58.899 Y103.622 E21.29119
G1 X59.659 Y103.07 E21.32243
G1 X60.495 Y102.571 E21.35482
G0 F6000 X60.321 Y102.211
G1 F1200 X61.198 Y101.79 E21.38717
G1 X62.043 Y101.47 E21.41722
G1 X63.049 Y101.189 E21.45196
G1 X64.016 Y101.011 E21.48467
G1 X65.155 Y100.915 E21.52268
G1 X65.812 Y100.9 E21.54454
G1 X71.091 Y100.9 E21.72012
G1 X73.675 Y100.863 E21.80608
G1 X76.24 Y100.754 E21.89146
G1 X78.719 Y100.578 E21.97412
G1 X81.22 Y100.331 E22.05771
G1 X83.728 Y100.01 E22.14181
G1 X86.211 Y99.62 E22.22541
G1 X88.651 Y99.166 E22.30795
G1 X91.146 Y98.629 E22.39284
G1 X93.592 Y98.03 E22.4766
G1 X96.014 Y97.365 E22.56013
G1 X98.405 Y96.632 E22.64331
G1 X100.807 Y95.821 E22.72763
G1 X103.178 Y94.947 E22.81168
G1 X105.463 Y94.029 E22.89358
G1 X107.815 Y93.005 E22.9789
G1 X111.022 Y91.488 E23.0969
G1 X111.79 Y91.146 E23.12486
G1 X112.632 Y90.819 E23.15491
G1 X113.289 Y90.617 E23.17777
G1 X113.988 Y90.437 E23.20178
G1 X114.526 Y90.315 E23.22012
G1 X115.415 Y90.155 E23.25017
G1 X116.197 Y90.074 E23.27632
G1 X116.739 Y90.04 E23.29438
G1 X117.372 Y90.019 E23.31544
G1 X118.348 Y90.032 E23.34791
G1 X119.393 Y90.141 E23.38285
G1 X120.131 Y90.255 E23.40769
G1 X121.076 Y90.446 E23.43976
G1 X121.71 Y90.624 E23.46166
G1 X122.352 Y90.832 E23.4841
G1 X122.849 Y91.01 E23.50166
G1 X123.894 Y91.447 E23.53934
G1 X126.614 Y92.749 E23.63963
G1 X128.963 Y93.791 E23.7251
G1 X131.256 Y94.73 E23.80752
G1 X133.607 Y95.617 E23.89109
G1 X135.969 Y96.431 E23.97419
G1 X138.402 Y97.194 E24.05899
G1 X140.786 Y97.868 E24.14139
G1 X143.281 Y98.497 E24.22697
G1 X145.722 Y99.04 E24.31015
G1 X148.176 Y99.514 E24.39328
G1 X150.699 Y99.929 E24.47832
G1 X153.129 Y100.255 E24.55987
G1 X155.685 Y100.526 E24.64535
G1 X158.142 Y100.717 E24.72732
G1 X160.708 Y100.843 E24.81277
G1 X163.895 Y100.9 E24.91879
G1 X168.967 Y100.901 E25.08748
G1 X169.7 Y100.914 E25.11187
G1 X170.671 Y100.974 E25.14422
G1 X171.564 Y101.108 E25.17426
G1 X172.511 Y101.334 E25.20664
G1 X173.469 Y101.656 E25.24025
G1 X174.392 Y102.063 E25.2738
G1 X175.184 Y102.498 E25.30386
G1 X175.993 Y103.04 E25.33625
G1 X176.806 Y103.696 E25.37099
G1 X177.455 Y104.323 E25.40101
G1 X178.094 Y105.058 E25.4334
G1 X178.707 Y105.906 E25.4682
G1 X179.202 Y106.745 E25.5006
G1 X179.593 Y107.559 E25.53064
G1 X179.96 Y108.537 E25.56538
G1 X180.209 Y109.441 E25.59657
G1 X180.392 Y110.442 E25.63041
G1 X180.486 Y111.581 E25.66842
G1 X180.5 Y112.23 E25.69001
G1 X180.499 Y116.929 E25.8463
G1 X180.481 Y117.966 E25.8808
G1 X180.428 Y119.215 E25.92238
G1 X180.353 Y121.818 E26.00899
G1 X180.353 Y124.332 E26.09261
G1 X180.425 Y126.866 E26.17692
G1 X180.484 Y128.101 E26.21805
G1 X180.5 Y128.83 E26.2423
G1 X180.499 Y133.5 E26.39762
G1 X180.488 Y134.263 E26.423
G1 X180.431 Y135.235 E26.45539
G1 X180.3 Y136.129 E26.48544
G1 X180.077 Y137.076 E26.5178
G1 X179.747 Y138.068 E26.55257
G1 X179.386 Y138.896 E26.58261
G1 X178.886 Y139.812 E26.61732
G1 X178.343 Y140.622 E26.64976
G1 X177.777 Y141.326 E26.6798
G1 X177.106 Y142.029 E26.71212
G1 X176.317 Y142.717 E26.74694
G1 X175.586 Y143.248 E26.77699
G1 X174.754 Y143.75 E26.80931
G1 X173.813 Y144.206 E26.84409
G1 X172.969 Y144.526 E26.87411
G1 X171.997 Y144.801 E26.90771
G1 X170.996 Y144.987 E26.94157
G1 X169.845 Y145.085 E26.97999
G1 X169.179 Y145.1 E27.00215
G1 X66.064 Y145.099 E30.43177
G1 X65.331 Y145.088 E30.45615
G1 X64.36 Y145.031 E30.4885
G1 X63.466 Y144.899 E30.51856
G1 X62.484 Y144.666 E30.55213
G1 X61.527 Y144.345 E30.5857
G1 X60.7 Y143.984 E30.61571
G1 X59.813 Y143.501 E30.64931
G1 X58.974 Y142.94 E30.68288
G1 X58.27 Y142.374 E30.71292
G1 X57.517 Y141.65 E30.74766
G1 X56.924 Y140.969 E30.7777
G1 X56.331 Y140.152 E30.81127
G1 X55.814 Y139.285 E30.84485
G1 X55.392 Y138.408 E30.87722
G1 X55.072 Y137.564 E30.90724
G1 X54.798 Y136.592 E30.94083
G1 X54.612 Y135.588 E30.97479
G1 X54.514 Y134.409 E31.01414
G1 X54.5 Y133.758 E31.0358
G1 X54.501 Y129.049 E31.19242
G1 X54.519 Y128.029 E31.22635
G1 X54.573 Y126.753 E31.26883
G1 X54.647 Y124.167 E31.35487
G1 X54.647 Y121.668 E31.43799
G1 X54.577 Y119.118 E31.52284
G1 X54.525 Y118.124 E31.55594
G1 X54.5 Y117.164 E31.58788
G1 X54.501 Y112.425 E31.7455
G1 X54.512 Y111.725 E31.76879
G1 X54.57 Y110.753 E31.80117
G1 X54.702 Y109.86 E31.8312
G1 X54.926 Y108.913 E31.86356
G1 X55.245 Y107.954 E31.89718
G1 X55.635 Y107.062 E31.92956
G1 X56.102 Y106.208 E31.96193
G1 X56.664 Y105.369 E31.99552
G1 X57.231 Y104.665 E32.02558
G1 X57.955 Y103.913 E32.0603
G1 X58.636 Y103.32 E32.09034
G1 X59.424 Y102.746 E32.12276
G1 X60.321 Y102.211 E32.1575
G1 F2700 E27.1575
;MESH:megav1-PCBFoot.stl
G0 F6000 X116.145 Y106.175
G0 X117.301 Y106.594
;TYPE:WALL-INNER
G1 F2700 E32.1575
G1 F1200 X116.914 Y106.498 E32.17076
G1 X116.57 Y106.312 E32.18377
G1 X116.278 Y106.053 E32.19675
G1 X116.066 Y105.736 E32.20944
G1 X115.932 Y105.39 E32.22178
G1 X115.882 Y105.003 E32.23475
G1 X115.934 Y104.601 E32.24824
G1 X116.067 Y104.265 E32.26026
G1 X116.275 Y103.95 E32.27281
G1 X116.571 Y103.687 E32.28598
G1 X116.912 Y103.503 E32.29887
G1 X117.301 Y103.407 E32.31219
G1 X117.695 Y103.411 E32.3253
G1 X118.034 Y103.494 E32.33691
G1 X118.404 Y103.681 E32.3507
G1 X118.694 Y103.94 E32.36363
G1 X118.908 Y104.258 E32.37638
G1 X119.046 Y104.617 E32.38917
G1 X119.094 Y105.005 E32.40217
G1 X119.035 Y105.412 E32.41585
G1 X118.908 Y105.742 E32.42761
G1 X118.694 Y106.06 E32.44036
G1 X118.403 Y106.321 E32.45336
G1 X118.037 Y106.504 E32.46697
G1 X117.698 Y106.587 E32.47858
G1 X117.301 Y106.594 E32.49179
G1 F2700 E27.49179
G0 F6000 X117.299 Y106.693
G0 X117.598 Y106.788
G0 X117.794 Y108.17
G0 X117.655 Y108.391
G1 F2700 E32.49179
G1 F1200 X118.285 Y108.302 E32.51295
G1 X118.896 Y108.091 E32.53445
G1 X119.458 Y107.764 E32.55607
G1 X119.947 Y107.344 E32.57751
G1 X120.344 Y106.838 E32.5989
G1 X120.646 Y106.254 E32.62077
G1 X120.823 Y105.645 E32.64187
G1 X120.884 Y105 E32.66341
G1 X120.824 Y104.355 E32.68496
G1 X120.646 Y103.746 E32.70606
G1 X120.344 Y103.162 E32.72793
G1 X119.947 Y102.656 E32.74932
G1 X119.458 Y102.236 E32.77076
G1 X118.896 Y101.909 E32.79239
G1 X118.285 Y101.698 E32.81389
G1 X117.654 Y101.609 E32.83508
G1 X117 Y101.639 E32.85686
G1 X116.38 Y101.789 E32.87807
G1 X115.789 Y102.059 E32.89968
G1 X115.263 Y102.432 E32.92113
G1 X114.819 Y102.897 E32.94251
G1 X114.467 Y103.446 E32.96421
G1 X114.229 Y104.041 E32.98552
G1 X114.107 Y104.676 E33.00703
G1 X114.106 Y105.324 E33.02858
G1 X114.229 Y105.959 E33.05009
G1 X114.466 Y106.554 E33.07139
G1 X114.819 Y107.103 E33.0931
G1 X115.263 Y107.568 E33.11449
G1 X115.789 Y107.941 E33.13593
G1 X116.38 Y108.211 E33.15754
G1 X117 Y108.361 E33.17876
G1 X117.655 Y108.391 E33.20057
G0 F6000 X117.674 Y108.793
;TYPE:WALL-OUTER
