;FLAVOR:Marlin
;TIME:11031
;Filament used: 9.49854m
;Layer height: 0.28
;MINX:16.262
;MINY:75.196
;MINZ:0.28
;MAXX:230.862
;MAXY:167.796
;MAXZ:3.36
;Generated with Cura_SteamEngine 5.3.1
M140 S60
M105
M190 S60
M104 S195
M105
M109 S195
M82 ;absolute extrusion mode
; Ender 3 Custom Start G-code
G92 E0 ; Reset Extruder
G28 ; Home all axes
G1 Z2.0 F3000 ; Move Z Axis up little to prevent scratching of Heat Bed
G1 X0.1 Y20 Z0.3 F5000.0 ; Move to start position
G1 X0.1 Y200.0 Z0.3 F1500.0 E15 ; Draw the first line
G1 X0.4 Y200.0 Z0.3 F5000.0 ; Move to side a little
G1 X0.4 Y20 Z0.3 F1500.0 E30 ; Draw the second line
G92 E0 ; Reset Extruder
G1 Z2.0 F3000 ; Move Z Axis up little to prevent scratching of Heat Bed
G1 X5 Y20 Z0.3 F5000.0 ; Move over to prevent blob squish
G92 E0
G92 E0
G1 F2700 E-5
;LAYER_COUNT:13
;LAYER:0
M107
G0 F6000 X21.228 Y75.634 Z0.28
;TYPE:SKIRT
G1 F2700 E0
G1 F1200 X23.415 Y75.196 E0.10386
G1 X223.915 Y75.196 E9.43998
G1 X225.811 Y75.662 E9.53089
G1 X227.838 Y76.715 E9.63725
G1 X229.312 Y78.29 E9.7377
G1 X230.424 Y80.162 E9.83909
G1 X230.862 Y82.349 E9.94294
G1 X230.862 Y90.767 E10.33492
G1 X230.811 Y91.055 E10.34854
G1 X230.862 Y91.343 E10.36216
G1 X230.862 Y100.767 E10.80098
G1 X230.811 Y101.055 E10.8146
G1 X230.862 Y101.343 E10.82822
G1 X230.862 Y110.767 E11.26704
G1 X230.811 Y111.055 E11.28066
G1 X230.862 Y111.343 E11.29428
G1 X230.862 Y120.767 E11.7331
G1 X230.811 Y121.055 E11.74672
G1 X230.862 Y121.343 E11.76034
G1 X230.862 Y130.767 E12.19916
G1 X230.811 Y131.055 E12.21278
G1 X230.862 Y131.343 E12.2264
G1 X230.862 Y140.767 E12.66522
G1 X230.811 Y141.055 E12.67884
G1 X230.862 Y141.343 E12.69246
G1 X230.862 Y150.767 E13.13128
G1 X230.811 Y151.055 E13.1449
G1 X230.862 Y151.343 E13.15851
G1 X230.862 Y160.849 E13.60115
G1 X230.396 Y162.745 E13.69207
G1 X229.343 Y164.772 E13.79843
G1 X227.768 Y166.246 E13.89887
G1 X225.896 Y167.358 E14.00026
G1 X223.709 Y167.796 E14.10412
G1 X23.209 Y167.796 E23.44024
G1 X21.313 Y167.33 E23.53115
G1 X19.286 Y166.277 E23.63752
G1 X17.812 Y164.702 E23.73796
G1 X16.7 Y162.83 E23.83935
G1 X16.262 Y160.643 E23.94321
G1 X16.262 Y151.225 E24.38175
G1 X16.313 Y150.937 E24.39537
G1 X16.262 Y150.649 E24.40899
G1 X16.262 Y141.225 E24.84781
G1 X16.313 Y140.937 E24.86143
G1 X16.262 Y140.649 E24.87505
G1 X16.262 Y131.225 E25.31387
G1 X16.313 Y130.937 E25.32749
G1 X16.262 Y130.649 E25.3411
G1 X16.262 Y121.225 E25.77993
G1 X16.313 Y120.937 E25.79354
G1 X16.262 Y120.649 E25.80716
G1 X16.262 Y111.225 E26.24598
G1 X16.313 Y110.937 E26.2596
G1 X16.262 Y110.649 E26.27322
G1 X16.262 Y101.225 E26.71204
G1 X16.313 Y100.937 E26.72566
G1 X16.262 Y100.649 E26.73928
G1 X16.262 Y91.225 E27.1781
G1 X16.313 Y90.937 E27.19172
G1 X16.262 Y90.649 E27.20534
G1 X16.262 Y82.143 E27.60142
G1 X16.728 Y80.247 E27.69233
G1 X17.781 Y78.22 E27.79869
G1 X19.356 Y76.746 E27.89914
G1 X21.228 Y75.634 E28.00052
G0 F6000 X21.374 Y76.012
G1 F1200 X23.453 Y75.596 E28.09925
G1 X223.869 Y75.596 E37.43146
G1 X225.668 Y76.038 E37.51772
G1 X227.593 Y77.038 E37.61873
G1 X228.99 Y78.531 E37.71394
G1 X230.046 Y80.308 E37.81019
G1 X230.462 Y82.387 E37.90891
G1 X230.462 Y90.767 E38.29912
G1 X230.402 Y91.055 E38.31282
G1 X230.462 Y91.343 E38.32652
G1 X230.462 Y100.767 E38.76534
G1 X230.402 Y101.055 E38.77904
G1 X230.462 Y101.343 E38.79274
G1 X230.462 Y110.767 E39.23156
G1 X230.402 Y111.055 E39.24526
G1 X230.462 Y111.343 E39.25896
G1 X230.462 Y120.767 E39.69778
G1 X230.402 Y121.055 E39.71147
G1 X230.462 Y121.343 E39.72517
G1 X230.462 Y130.767 E40.16399
G1 X230.402 Y131.055 E40.17769
G1 X230.462 Y131.343 E40.19139
G1 X230.462 Y140.767 E40.63021
G1 X230.402 Y141.055 E40.64391
G1 X230.462 Y141.343 E40.65761
G1 X230.462 Y150.767 E41.09643
G1 X230.402 Y151.055 E41.11013
G1 X230.462 Y151.343 E41.12383
G1 X230.462 Y160.803 E41.56432
G1 X230.02 Y162.602 E41.65058
G1 X229.02 Y164.527 E41.75159
G1 X227.527 Y165.924 E41.8468
G1 X225.75 Y166.98 E41.94305
G1 X223.671 Y167.396 E42.04178
G1 X23.255 Y167.396 E51.37399
G1 X21.456 Y166.954 E51.46025
G1 X19.531 Y165.954 E51.56126
G1 X18.134 Y164.461 E51.65647
G1 X17.078 Y162.684 E51.75272
G1 X16.662 Y160.605 E51.85144
G1 X16.662 Y151.225 E52.28822
G1 X16.722 Y150.937 E52.30191
G1 X16.662 Y150.649 E52.31561
G1 X16.662 Y141.225 E52.75443
G1 X16.722 Y140.937 E52.76813
G1 X16.662 Y140.649 E52.78183
G1 X16.662 Y131.225 E53.22065
G1 X16.722 Y130.937 E53.23435
G1 X16.662 Y130.649 E53.24805
G1 X16.662 Y121.225 E53.68687
G1 X16.722 Y120.937 E53.70057
G1 X16.662 Y120.649 E53.71427
G1 X16.662 Y111.225 E54.15309
G1 X16.722 Y110.937 E54.16679
G1 X16.662 Y110.649 E54.18048
G1 X16.662 Y101.225 E54.6193
G1 X16.722 Y100.937 E54.633
G1 X16.662 Y100.649 E54.6467
G1 X16.662 Y91.225 E55.08552
G1 X16.722 Y90.937 E55.09922
G1 X16.662 Y90.649 E55.11292
G1 X16.662 Y82.189 E55.50685
G1 X17.104 Y80.39 E55.59311
G1 X18.104 Y78.465 E55.69412
G1 X19.597 Y77.068 E55.78933
G1 X21.374 Y76.012 E55.88558
G0 F6000 X21.52 Y76.391
G1 F1200 X23.492 Y75.996 E55.97923
G1 X223.822 Y75.996 E65.30743
G1 X225.526 Y76.415 E65.38914
G1 X227.348 Y77.361 E65.48474
G1 X228.668 Y78.772 E65.57471
G1 X229.667 Y80.454 E65.6658
G1 X230.062 Y82.426 E65.75945
G1 X230.062 Y90.728 E66.14603
G1 X229.993 Y91.057 E66.16168
G1 X230.062 Y91.387 E66.17738
G1 X230.062 Y100.728 E66.61233
G1 X229.993 Y101.057 E66.62799
G1 X230.062 Y101.387 E66.64369
G1 X230.062 Y110.728 E67.07864
G1 X229.993 Y111.057 E67.09429
G1 X230.062 Y111.387 E67.10999
G1 X230.062 Y120.728 E67.54495
G1 X229.993 Y121.057 E67.5606
G1 X230.062 Y121.387 E67.5763
G1 X230.062 Y130.728 E68.01126
G1 X229.993 Y131.057 E68.02691
G1 X230.062 Y131.387 E68.04261
G1 X230.062 Y140.728 E68.47756
G1 X229.993 Y141.057 E68.49322
G1 X230.062 Y141.387 E68.50892
G1 X230.062 Y150.728 E68.94387
G1 X229.993 Y151.057 E68.95952
G1 X230.062 Y151.387 E68.97522
G1 X230.062 Y160.756 E69.41148
G1 X229.643 Y162.46 E69.49319
G1 X228.697 Y164.282 E69.58879
G1 X227.286 Y165.602 E69.67876
G1 X225.604 Y166.601 E69.76985
G1 X223.632 Y166.996 E69.8635
G1 X23.302 Y166.996 E79.1917
G1 X21.598 Y166.577 E79.27341
G1 X19.776 Y165.631 E79.369
G1 X18.456 Y164.22 E79.45898
G1 X17.457 Y162.538 E79.55007
G1 X17.062 Y160.566 E79.64372
G1 X17.062 Y151.264 E80.07686
G1 X17.131 Y150.935 E80.09251
G1 X17.062 Y150.605 E80.10821
G1 X17.062 Y141.264 E80.54317
G1 X17.131 Y140.935 E80.55882
G1 X17.062 Y140.605 E80.57452
G1 X17.062 Y131.264 E81.00947
G1 X17.131 Y130.935 E81.02513
G1 X17.062 Y130.605 E81.04082
G1 X17.062 Y121.264 E81.47578
G1 X17.131 Y120.935 E81.49143
G1 X17.062 Y120.605 E81.50713
G1 X17.062 Y111.264 E81.94209
G1 X17.131 Y110.935 E81.95774
G1 X17.062 Y110.605 E81.97344
G1 X17.062 Y101.264 E82.4084
G1 X17.131 Y100.935 E82.42405
G1 X17.062 Y100.605 E82.43975
G1 X17.062 Y91.264 E82.8747
G1 X17.131 Y90.935 E82.89036
G1 X17.062 Y90.605 E82.90605
G1 X17.062 Y82.236 E83.29575
G1 X17.481 Y80.532 E83.37746
G1 X18.427 Y78.71 E83.47305
G1 X19.838 Y77.39 E83.56302
G1 X21.52 Y76.391 E83.65412
G0 F6000 X21.666 Y76.769
G1 F1200 X23.53 Y76.396 E83.74263
G1 X223.776 Y76.396 E93.06693
G1 X225.383 Y76.791 E93.14398
G1 X227.103 Y77.684 E93.23422
G1 X228.346 Y79.013 E93.31896
G1 X229.289 Y80.6 E93.40491
G1 X229.662 Y82.464 E93.49343
G1 X229.662 Y90.728 E93.87824
G1 X229.583 Y91.049 E93.89363
G1 X229.662 Y91.426 E93.91157
G1 X229.662 Y100.728 E94.34471
G1 X229.583 Y101.049 E94.3601
G1 X229.662 Y101.426 E94.37804
G1 X229.662 Y110.728 E94.81118
G1 X229.583 Y111.049 E94.82657
G1 X229.662 Y111.426 E94.8445
G1 X229.662 Y120.728 E95.27764
G1 X229.583 Y121.049 E95.29304
G1 X229.662 Y121.426 E95.31097
G1 X229.662 Y130.728 E95.74411
G1 X229.583 Y131.049 E95.75951
G1 X229.662 Y131.426 E95.77744
G1 X229.662 Y140.728 E96.21058
G1 X229.583 Y141.049 E96.22598
G1 X229.662 Y141.426 E96.24391
G1 X229.662 Y150.728 E96.67705
G1 X229.583 Y151.049 E96.69245
G1 X229.662 Y151.426 E96.71038
G1 X229.662 Y160.71 E97.14268
G1 X229.267 Y162.317 E97.21974
G1 X228.374 Y164.037 E97.30998
G1 X227.045 Y165.28 E97.39471
G1 X225.458 Y166.223 E97.48067
G1 X223.594 Y166.596 E97.56919
G1 X23.348 Y166.596 E106.89348
G1 X21.741 Y166.201 E106.97054
G1 X20.021 Y165.308 E107.06078
G1 X18.778 Y163.979 E107.14551
G1 X17.835 Y162.392 E107.23147
G1 X17.462 Y160.528 E107.31999
G1 X17.462 Y151.264 E107.75136
G1 X17.541 Y150.943 E107.76675
G1 X17.462 Y150.566 E107.78469
G1 X17.462 Y141.264 E108.21783
G1 X17.541 Y140.943 E108.23322
G1 X17.462 Y140.566 E108.25116
G1 X17.462 Y131.264 E108.6843
G1 X17.541 Y130.943 E108.69969
G1 X17.462 Y130.566 E108.71762
G1 X17.462 Y121.264 E109.15076
G1 X17.541 Y120.943 E109.16616
G1 X17.462 Y120.566 E109.18409
G1 X17.462 Y111.264 E109.61723
G1 X17.541 Y110.943 E109.63263
G1 X17.462 Y110.566 E109.65056
G1 X17.462 Y101.264 E110.0837
G1 X17.541 Y100.943 E110.0991
G1 X17.462 Y100.566 E110.11703
G1 X17.462 Y91.264 E110.55017
G1 X17.541 Y90.943 E110.56557
G1 X17.462 Y90.566 E110.5835
G1 X17.462 Y82.282 E110.96924
G1 X17.857 Y80.675 E111.04629
G1 X18.75 Y78.955 E111.13654
G1 X20.079 Y77.712 E111.22127
G1 X21.666 Y76.769 E111.30723
G0 F6000 X21.812 Y77.147
G1 F1200 X20.32 Y78.034 E111.38805
G1 X19.073 Y79.2 E111.46755
G1 X18.233 Y80.818 E111.55244
G1 X17.862 Y82.328 E111.62484
G1 X17.862 Y90.522 E112.00639
G1 X17.951 Y90.948 E112.02665
G1 X17.862 Y91.31 E112.04401
G1 X17.862 Y100.522 E112.47296
G1 X17.951 Y100.948 E112.49322
G1 X17.862 Y101.31 E112.51058
G1 X17.862 Y110.522 E112.93953
G1 X17.951 Y110.948 E112.95979
G1 X17.862 Y111.31 E112.97715
G1 X17.862 Y120.522 E113.4061
G1 X17.951 Y120.948 E113.42637
G1 X17.862 Y121.31 E113.44372
G1 X17.862 Y130.522 E113.87267
G1 X17.951 Y130.948 E113.89294
G1 X17.862 Y131.31 E113.9103
G1 X17.862 Y140.522 E114.33925
G1 X17.951 Y140.948 E114.35951
G1 X17.862 Y141.31 E114.37687
G1 X17.862 Y150.522 E114.80582
G1 X17.951 Y150.948 E114.82608
G1 X17.862 Y151.31 E114.84344
G1 X17.862 Y160.49 E115.2709
G1 X18.213 Y162.246 E115.35428
G1 X19.1 Y163.738 E115.43511
G1 X20.266 Y164.985 E115.5146
G1 X21.884 Y165.825 E115.59949
G1 X23.394 Y166.196 E115.6719
G1 X223.556 Y166.196 E124.99228
G1 X225.312 Y165.845 E125.07566
G1 X226.804 Y164.958 E125.15648
G1 X228.051 Y163.792 E125.23598
G1 X228.891 Y162.174 E125.32087
G1 X229.262 Y160.664 E125.39327
G1 X229.262 Y151.47 E125.82138
G1 X229.173 Y151.044 E125.84165
G1 X229.262 Y150.682 E125.85901
G1 X229.262 Y141.47 E126.28795
G1 X229.173 Y141.044 E126.30822
G1 X229.262 Y140.682 E126.32558
G1 X229.262 Y131.47 E126.75453
G1 X229.173 Y131.044 E126.77479
G1 X229.262 Y130.682 E126.79215
G1 X229.262 Y121.47 E127.2211
G1 X229.173 Y121.044 E127.24136
G1 X229.262 Y120.682 E127.25872
G1 X229.262 Y111.47 E127.68767
G1 X229.173 Y111.044 E127.70794
G1 X229.262 Y110.682 E127.72529
G1 X229.262 Y101.47 E128.15424
G1 X229.173 Y101.044 E128.17451
G1 X229.262 Y100.682 E128.19187
G1 X229.262 Y91.47 E128.62082
G1 X229.173 Y91.044 E128.64108
G1 X229.262 Y90.682 E128.65844
G1 X229.262 Y82.502 E129.03933
G1 X228.911 Y80.746 E129.12272
G1 X228.024 Y79.254 E129.20354
G1 X226.858 Y78.007 E129.28304
G1 X225.24 Y77.167 E129.36793
G1 X223.73 Y76.796 E129.44033
G1 X23.568 Y76.796 E138.76071
G1 X21.812 Y77.147 E138.84409
G0 F6000 X21.958 Y77.525
G1 F1200 X20.561 Y78.356 E138.91978
G1 X19.396 Y79.445 E138.99404
G1 X18.61 Y80.96 E139.07351
G1 X18.262 Y82.375 E139.14137
G1 X18.262 Y90.478 E139.51867
G1 X18.361 Y90.953 E139.54127
G1 X18.262 Y91.356 E139.56059
G1 X18.262 Y100.478 E139.98535
G1 X18.361 Y100.953 E140.00794
G1 X18.262 Y101.356 E140.02727
G1 X18.262 Y110.478 E140.45202
G1 X18.361 Y110.953 E140.47462
G1 X18.262 Y111.356 E140.49394
G1 X18.262 Y120.478 E140.9187
G1 X18.361 Y120.953 E140.94129
G1 X18.262 Y121.356 E140.96062
G1 X18.262 Y130.478 E141.38538
G1 X18.361 Y130.953 E141.40797
G1 X18.262 Y131.356 E141.42729
G1 X18.262 Y140.478 E141.85205
G1 X18.361 Y140.953 E141.87464
G1 X18.262 Y141.356 E141.89397
G1 X18.262 Y150.478 E142.31873
G1 X18.361 Y150.953 E142.34132
G1 X18.262 Y151.356 E142.36064
G1 X18.262 Y160.452 E142.78419
G1 X18.591 Y162.1 E142.86244
G1 X19.422 Y163.497 E142.93813
G1 X20.511 Y164.662 E143.01239
G1 X22.026 Y165.448 E143.09186
G1 X23.441 Y165.796 E143.15971
G1 X223.518 Y165.796 E152.47614
G1 X225.166 Y165.467 E152.55439
G1 X226.563 Y164.636 E152.63008
G1 X227.728 Y163.547 E152.70433
G1 X228.514 Y162.032 E152.78381
G1 X228.862 Y160.617 E152.85166
G1 X228.862 Y151.514 E153.27553
G1 X228.763 Y151.039 E153.29813
G1 X228.862 Y150.636 E153.31745
G1 X228.862 Y141.514 E153.74221
G1 X228.763 Y141.039 E153.7648
G1 X228.862 Y140.636 E153.78413
G1 X228.862 Y131.514 E154.20888
G1 X228.763 Y131.039 E154.23148
G1 X228.862 Y130.636 E154.2508
G1 X228.862 Y121.514 E154.67556
G1 X228.763 Y121.039 E154.69815
G1 X228.862 Y120.636 E154.71748
G1 X228.862 Y111.514 E155.14223
G1 X228.763 Y111.039 E155.16483
G1 X228.862 Y110.636 E155.18415
G1 X228.862 Y101.514 E155.60891
G1 X228.763 Y101.039 E155.6315
G1 X228.862 Y100.636 E155.65083
G1 X228.862 Y91.514 E156.07558
G1 X228.763 Y91.039 E156.09818
G1 X228.862 Y90.636 E156.1175
G1 X228.862 Y82.54 E156.49448
G1 X228.533 Y80.892 E156.57274
G1 X227.702 Y79.495 E156.64843
G1 X226.613 Y78.33 E156.72268
G1 X225.098 Y77.544 E156.80216
G1 X223.683 Y77.196 E156.87001
G1 X23.606 Y77.196 E166.18643
G1 X21.958 Y77.525 E166.26468
G0 F6000 X22.106 Y77.903
G1 F1200 X20.8 Y78.68 E166.33545
G1 X19.719 Y79.69 E166.40433
G1 X18.986 Y81.103 E166.47845
G1 X18.662 Y82.421 E166.54165
G1 X18.662 Y90.435 E166.91482
G1 X18.771 Y90.961 E166.93983
G1 X18.662 Y91.406 E166.96117
G1 X18.662 Y100.435 E167.38159
G1 X18.771 Y100.961 E167.40661
G1 X18.662 Y101.406 E167.42794
G1 X18.662 Y110.435 E167.84837
G1 X18.771 Y110.961 E167.87338
G1 X18.662 Y111.406 E167.89471
G1 X18.662 Y120.435 E168.31514
G1 X18.771 Y120.961 E168.34016
G1 X18.662 Y121.406 E168.36149
G1 X18.662 Y130.435 E168.78192
G1 X18.771 Y130.961 E168.80693
G1 X18.662 Y131.406 E168.82826
G1 X18.662 Y140.435 E169.24869
G1 X18.771 Y140.961 E169.27371
G1 X18.662 Y141.406 E169.29504
G1 X18.662 Y150.435 E169.71547
G1 X18.771 Y150.961 E169.74048
G1 X18.662 Y151.406 E169.76181
G1 X18.662 Y160.414 E170.18126
G1 X18.969 Y161.952 E170.25429
G1 X19.746 Y163.258 E170.32505
G1 X20.756 Y164.339 E170.39394
G1 X22.169 Y165.072 E170.46806
G1 X23.487 Y165.396 E170.53126
G1 X223.48 Y165.396 E179.84377
G1 X225.018 Y165.089 E179.9168
G1 X226.324 Y164.312 E179.98756
G1 X227.405 Y163.302 E180.05645
G1 X228.138 Y161.889 E180.13057
G1 X228.462 Y160.571 E180.19377
G1 X228.462 Y151.557 E180.6135
G1 X228.353 Y151.031 E180.63851
G1 X228.462 Y150.586 E180.65985
G1 X228.462 Y141.557 E181.08028
G1 X228.353 Y141.031 E181.10529
G1 X228.462 Y140.586 E181.12662
G1 X228.462 Y131.557 E181.54705
G1 X228.353 Y131.031 E181.57206
G1 X228.462 Y130.586 E181.5934
G1 X228.462 Y121.557 E182.01383
G1 X228.353 Y121.031 E182.03884
G1 X228.462 Y120.586 E182.06017
G1 X228.462 Y111.557 E182.4806
G1 X228.353 Y111.031 E182.50561
G1 X228.462 Y110.586 E182.52695
G1 X228.462 Y101.557 E182.94738
G1 X228.353 Y101.031 E182.97239
G1 X228.462 Y100.586 E182.99372
G1 X228.462 Y91.557 E183.41415
G1 X228.353 Y91.031 E183.43916
G1 X228.462 Y90.586 E183.4605
G1 X228.462 Y82.578 E183.83338
G1 X228.155 Y81.04 E183.90641
G1 X227.378 Y79.734 E183.97717
G1 X226.368 Y78.653 E184.04606
G1 X224.955 Y77.92 E184.12018
G1 X223.637 Y77.596 E184.18338
G1 X23.644 Y77.596 E193.49589
G1 X22.106 Y77.903 E193.56892
G0 F6000 X22.254 Y78.281
G1 F1200 X21.039 Y79.004 E193.63476
G1 X20.042 Y79.935 E193.69827
G1 X19.362 Y81.246 E193.76704
G1 X19.062 Y82.467 E193.82559
G1 X19.062 Y90.393 E194.19466
G1 X19.181 Y90.967 E194.22195
G1 X19.062 Y91.452 E194.24521
G1 X19.062 Y100.393 E194.66154
G1 X19.181 Y100.967 E194.68883
G1 X19.062 Y101.452 E194.71209
G1 X19.062 Y110.393 E195.12842
G1 X19.181 Y110.967 E195.15571
G1 X19.062 Y111.452 E195.17897
G1 X19.062 Y120.393 E195.5953
G1 X19.181 Y120.967 E195.62259
G1 X19.062 Y121.452 E195.64585
G1 X19.062 Y130.393 E196.06218
G1 X19.181 Y130.967 E196.08947
G1 X19.062 Y131.452 E196.11273
G1 X19.062 Y140.393 E196.52906
G1 X19.181 Y140.967 E196.55635
G1 X19.062 Y141.452 E196.57961
G1 X19.062 Y150.393 E196.99594
G1 X19.181 Y150.967 E197.02323
G1 X19.062 Y151.452 E197.04649
G1 X19.062 Y160.376 E197.46203
