;FLAVOR:Marlin
;TIME:15362
;Filament used: 15.0111m
;Layer height: 0.28
;MINX:23.203
;MINY:68.992
;MINZ:0.28
;MAXX:205.203
;MAXY:182.134
;MAXZ:35
;Generated with Cura_SteamEngine 5.3.1
M140 S50
M105
M190 S50
M104 S200
M105
M109 S200
M82 ;absolute extrusion mode
; Ender 3 Custom Start G-code
G92 E0 ; Reset Extruder
G28 ; Home all axes
G1 Z2.0 F3000 ; Move Z Axis up little to prevent scratching of Heat Bed
G1 X0.1 Y20 Z0.3 F5000.0 ; Move to start position
G1 X0.1 Y200.0 Z0.3 F1500.0 E15 ; Draw the first line
G1 X0.4 Y200.0 Z0.3 F5000.0 ; Move to side a little
G1 X0.4 Y20 Z0.3 F1500.0 E30 ; Draw the second line
G92 E0 ; Reset Extruder
G1 Z2.0 F3000 ; Move Z Axis up little to prevent scratching of Heat Bed
G1 X5 Y20 Z0.3 F5000.0 ; Move over to prevent blob squish
G92 E0
G92 E0
G1 F2700 E-5
;LAYER_COUNT:125
;LAYER:0
M107
G0 F6000 X38.208 Y75.216 Z0.28
;TYPE:SKIRT
G1 F2700 E0
G1 F1200 X39.042 Y74.869 E0.04206
G1 X39.903 Y74.597 E0.08411
G1 X40.785 Y74.403 E0.12616
G1 X41.681 Y74.287 E0.16823
G1 X42.252 Y74.255 E0.19486
G1 X42.859 Y74.242 E0.22313
G1 X146.974 Y74.243 E5.07116
G1 X147.714 Y74.254 E5.10562
G1 X148.144 Y74.27 E5.12566
G1 X150.691 Y74.416 E5.24445
G1 X153.256 Y74.489 E5.36394
G1 X155.79 Y74.491 E5.48193
G1 X158.321 Y74.42 E5.59983
G1 X160.862 Y74.277 E5.71834
G1 X163.411 Y74.062 E5.83745
G1 X165.925 Y73.777 E5.95526
G1 X168.393 Y73.427 E6.07133
G1 X170.951 Y72.99 E6.19217
G1 X173.405 Y72.5 E6.30869
G1 X175.912 Y71.923 E6.42848
G1 X178.324 Y71.296 E6.54453
G1 X181.92 Y70.231 E6.71916
G1 X182.796 Y70.013 E6.7612
G1 X183.689 Y69.874 E6.80328
G1 X184.613 Y69.813 E6.8464
G1 X185.664 Y69.792 E6.89535
G1 X186.712 Y69.801 E6.94415
G1 X187.614 Y69.854 E6.98622
G1 X188.507 Y69.986 E7.02825
G1 X189.385 Y70.197 E7.0703
G1 X190.241 Y70.485 E7.11236
G1 X191.068 Y70.847 E7.15439
G1 X191.86 Y71.282 E7.19647
G1 X192.611 Y71.784 E7.23853
G1 X193.314 Y72.351 E7.28059
G1 X193.964 Y72.978 E7.32264
G1 X194.556 Y73.66 E7.36469
G1 X195.086 Y74.391 E7.40673
G1 X195.548 Y75.167 E7.44879
G1 X195.941 Y75.98 E7.49083
G1 X196.259 Y76.825 E7.53288
G1 X196.502 Y77.695 E7.57494
G1 X196.667 Y78.583 E7.61699
G1 X196.762 Y79.706 E7.66947
G1 X196.775 Y80.312 E7.6977
G1 X196.775 Y126.47 E9.84701
G1 X196.812 Y129.076 E9.96836
G1 X196.921 Y131.641 E10.08791
G1 X197.099 Y134.148 E10.20494
G1 X197.35 Y136.689 E10.32384
G1 X197.671 Y139.197 E10.44157
G1 X198.065 Y141.702 E10.55965
G1 X198.527 Y144.189 E10.67743
G1 X199.068 Y146.703 E10.79718
G1 X199.667 Y149.149 E10.91444
G1 X200.34 Y151.593 E11.03248
G1 X201.085 Y154.028 E11.15105
G1 X201.896 Y156.43 E11.2691
G1 X202.789 Y158.852 E11.3893
G1 X203.655 Y161.018 E11.49792
G1 X203.953 Y161.871 E11.53999
G1 X204.174 Y162.746 E11.58202
G1 X204.317 Y163.638 E11.62408
G1 X204.382 Y164.607 E11.6693
G1 X204.403 Y165.789 E11.72435
G1 X204.402 Y170.538 E11.94549
G1 X204.392 Y171.265 E11.97934
G1 X204.34 Y172.167 E12.02141
G1 X204.208 Y173.06 E12.06344
G1 X203.997 Y173.939 E12.10554
G1 X203.71 Y174.795 E12.14758
G1 X203.348 Y175.622 E12.18961
G1 X202.914 Y176.414 E12.23167
G1 X202.412 Y177.165 E12.27373
G1 X201.846 Y177.868 E12.31575
G1 X201.219 Y178.519 E12.35784
G1 X200.538 Y179.111 E12.39986
G1 X199.807 Y179.641 E12.4419
G1 X199.031 Y180.104 E12.48398
G1 X198.218 Y180.497 E12.52603
G1 X197.373 Y180.817 E12.5681
G1 X196.504 Y181.06 E12.61012
G1 X195.616 Y181.225 E12.65217
G1 X194.48 Y181.321 E12.70526
G1 X193.873 Y181.334 E12.73353
G1 X34.778 Y181.333 E20.14166
G1 X34.08 Y181.324 E20.17416
G1 X33.179 Y181.273 E20.21619
G1 X32.285 Y181.141 E20.25827
G1 X31.407 Y180.932 E20.30029
G1 X30.55 Y180.645 E20.34237
G1 X29.723 Y180.284 E20.38439
G1 X28.93 Y179.851 E20.42646
G1 X28.179 Y179.35 E20.4685
G1 X27.475 Y178.784 E20.51056
G1 X26.824 Y178.158 E20.55262
G1 X26.231 Y177.477 E20.59466
G1 X25.701 Y176.746 E20.63671
G1 X25.237 Y175.971 E20.67877
G1 X24.843 Y175.158 E20.72084
G1 X24.523 Y174.314 E20.76287
G1 X24.279 Y173.444 E20.80494
G1 X24.113 Y172.556 E20.84701
G1 X24.016 Y171.401 E20.90098
G1 X24.003 Y170.792 E20.92934
G1 X24.004 Y113.683 E23.58858
G1 X24.015 Y112.974 E23.62159
G1 X24.069 Y112.072 E23.66367
G1 X24.203 Y111.179 E23.70572
G1 X24.415 Y110.301 E23.74777
G1 X24.866 Y109.051 E23.80965
G1 X25.151 Y108.399 E23.84279
G1 X25.771 Y107.025 E23.91298
G1 X26.751 Y104.681 E24.03128
G1 X27.68 Y102.268 E24.15168
G1 X28.499 Y99.945 E24.26637
G1 X29.285 Y97.496 E24.38614
G1 X29.991 Y95.069 E24.50383
G1 X30.635 Y92.591 E24.62305
G1 X31.198 Y90.146 E24.73988
G1 X31.709 Y87.593 E24.86112
G1 X32.13 Y85.138 E24.9771
G1 X32.386 Y83.348 E25.0613
G1 X32.466 Y82.846 E25.08497
G1 X32.648 Y81.961 E25.12704
G1 X32.907 Y81.096 E25.16909
G1 X33.241 Y80.257 E25.21114
G1 X33.649 Y79.451 E25.2532
G1 X34.126 Y78.684 E25.29526
G1 X34.669 Y77.963 E25.33729
G1 X35.273 Y77.292 E25.37933
G1 X35.935 Y76.677 E25.4214
G1 X36.649 Y76.124 E25.46345
G1 X37.408 Y75.635 E25.5055
G1 X38.208 Y75.216 E25.54755
G0 F6000 X38.054 Y74.847
G1 F1200 X38.888 Y74.5 E25.58961
G1 X39.817 Y74.206 E25.63498
G1 X40.699 Y74.012 E25.67703
G1 X41.63 Y73.89 E25.72075
G1 X42.243 Y73.855 E25.74934
G1 X42.859 Y73.842 E25.77803
G1 X146.98 Y73.843 E30.62634
G1 X147.729 Y73.854 E30.66122
G1 X148.167 Y73.871 E30.68164
G1 X150.702 Y74.016 E30.79987
G1 X153.267 Y74.089 E30.91935
G1 X155.779 Y74.091 E31.03632
G1 X158.31 Y74.02 E31.15422
G1 X160.828 Y73.879 E31.27166
G1 X163.377 Y73.664 E31.39077
G1 X165.869 Y73.381 E31.50755
G1 X168.337 Y73.031 E31.62362
G1 X170.877 Y72.597 E31.74361
G1 X173.315 Y72.11 E31.85938
G1 X175.822 Y71.533 E31.97917
G1 X178.21 Y70.912 E32.09406
G1 X181.823 Y69.843 E32.2695
G1 X182.734 Y69.618 E32.3132
G1 X183.663 Y69.475 E32.35697
G1 X184.605 Y69.413 E32.40093
G1 X185.667 Y69.392 E32.45039
G1 X186.735 Y69.402 E32.50012
G1 X187.672 Y69.458 E32.54383
G1 X188.565 Y69.59 E32.58586
G1 X189.513 Y69.818 E32.63126
G1 X190.369 Y70.106 E32.67332
G1 X191.261 Y70.496 E32.71865
G1 X192.053 Y70.931 E32.76072
G1 X192.833 Y71.451 E32.80438
G1 X193.592 Y72.063 E32.84978
G1 X194.242 Y72.69 E32.89183
G1 X194.88 Y73.425 E32.93715
G1 X195.43 Y74.186 E32.98087
G1 X195.892 Y74.962 E33.02292
G1 X196.315 Y75.839 E33.06826
G1 X196.644 Y76.717 E33.11192
G1 X196.895 Y77.622 E33.15565
G1 X197.066 Y78.549 E33.19955
G1 X197.161 Y79.672 E33.25202
G1 X197.175 Y80.303 E33.28141
G1 X197.175 Y126.47 E35.43114
G1 X197.212 Y129.059 E35.55171
G1 X197.321 Y131.624 E35.67125
G1 X197.497 Y134.109 E35.78726
G1 X197.747 Y136.638 E35.90559
G1 X198.068 Y139.146 E36.02333
G1 X198.458 Y141.629 E36.14036
G1 X198.918 Y144.105 E36.25763
G1 X199.457 Y146.608 E36.37685
G1 X200.053 Y149.043 E36.49358
G1 X200.725 Y151.487 E36.61161
G1 X201.464 Y153.9 E36.72912
G1 X202.275 Y156.302 E36.84717
G1 X203.16 Y158.704 E36.96637
G1 X204.033 Y160.886 E37.0758
G1 X204.331 Y161.739 E37.11787
G1 X204.562 Y162.648 E37.16154
G1 X204.712 Y163.575 E37.20527
G1 X204.782 Y164.6 E37.25311
G1 X204.803 Y165.789 E37.30848
G1 X204.802 Y170.544 E37.5299
G1 X204.791 Y171.288 E37.56454
G1 X204.736 Y172.225 E37.60825
G1 X204.604 Y173.118 E37.65028
G1 X204.386 Y174.032 E37.69404
G1 X204.089 Y174.922 E37.73773
G1 X203.699 Y175.814 E37.78306
G1 X203.247 Y176.636 E37.82674
G1 X202.724 Y177.416 E37.87047
G1 X202.158 Y178.119 E37.91249
G1 X201.481 Y178.821 E37.9579
G1 X200.773 Y179.435 E38.00154
G1 X200.012 Y179.985 E38.04526
G1 X199.236 Y180.448 E38.08734
G1 X198.36 Y180.871 E38.13264
G1 X197.515 Y181.191 E38.17471
G1 X196.577 Y181.453 E38.22006
G1 X195.65 Y181.624 E38.26395
G1 X194.514 Y181.72 E38.31704
G1 X193.882 Y181.734 E38.34647
G1 X34.773 Y181.733 E45.75526
G1 X34.057 Y181.723 E45.7886
G1 X33.121 Y181.669 E45.83226
G1 X32.227 Y181.537 E45.87434
G1 X31.314 Y181.321 E45.91802
G1 X30.39 Y181.012 E45.96339
G1 X29.563 Y180.651 E46.00541
G1 X28.708 Y180.184 E46.05077
G1 X27.928 Y179.662 E46.09447
G1 X27.224 Y179.096 E46.13654
G1 X26.522 Y178.421 E46.18188
G1 X25.929 Y177.74 E46.22393
G1 X25.377 Y176.981 E46.26763
G1 X24.877 Y176.145 E46.31299
G1 X24.469 Y175.3 E46.35668
G1 X24.149 Y174.456 E46.39871
G1 X23.886 Y173.518 E46.44408
G1 X23.714 Y172.589 E46.48807
G1 X23.616 Y171.41 E46.54316
G1 X23.603 Y170.792 E46.57194
G1 X23.604 Y113.677 E49.23145
G1 X23.616 Y112.95 E49.26531
G1 X23.673 Y112.013 E49.30902
G1 X23.807 Y111.12 E49.35107
G1 X24.026 Y110.207 E49.39479
G1 X24.499 Y108.891 E49.45991
G1 X24.786 Y108.234 E49.49329
G1 X25.407 Y106.86 E49.5635
G1 X26.382 Y104.527 E49.68124
G1 X27.307 Y102.124 E49.80114
G1 X28.122 Y99.812 E49.91529
G1 X28.904 Y97.374 E50.03451
G1 X29.607 Y94.957 E50.15172
G1 X30.248 Y92.49 E50.2704
G1 X30.808 Y90.056 E50.3867
G1 X31.317 Y87.514 E50.50742
G1 X31.736 Y85.07 E50.62288
G1 X31.991 Y83.285 E50.70684
G1 X32.074 Y82.765 E50.73136
G1 X32.256 Y81.88 E50.77343
G1 X32.535 Y80.948 E50.81873
G1 X32.884 Y80.076 E50.86247
G1 X33.292 Y79.27 E50.90454
G1 X33.806 Y78.443 E50.94988
G1 X34.349 Y77.722 E50.9919
G1 X34.976 Y77.024 E51.03559
G1 X35.69 Y76.361 E51.08096
G1 X36.432 Y75.788 E51.12462
G1 X37.222 Y75.281 E51.16833
G1 X38.054 Y74.847 E51.21202
G0 F6000 X37.869 Y74.492
G1 F1200 X38.767 Y74.119 E51.2573
G1 X39.731 Y73.815 E51.30437
G1 X40.647 Y73.615 E51.34803
G1 X41.578 Y73.493 E51.39175
G1 X42.235 Y73.455 E51.42239
G1 X42.859 Y73.442 E51.45145
G1 X146.986 Y73.443 E56.30004
G1 X147.745 Y73.454 E56.33539
G1 X148.19 Y73.472 E56.35613
G1 X150.713 Y73.616 E56.4738
G1 X153.278 Y73.689 E56.59328
G1 X155.768 Y73.691 E56.70923
G1 X158.299 Y73.62 E56.82713
G1 X160.794 Y73.481 E56.94349
G1 X163.343 Y73.266 E57.0626
G1 X165.813 Y72.985 E57.17836
G1 X168.281 Y72.635 E57.29443
G1 X170.803 Y72.204 E57.41356
G1 X173.225 Y71.72 E57.52857
G1 X175.732 Y71.143 E57.64836
G1 X178.097 Y70.528 E57.76215
G1 X181.727 Y69.455 E57.93841
G1 X182.673 Y69.223 E57.98376
G1 X183.637 Y69.076 E58.02917
G1 X184.597 Y69.013 E58.07397
G1 X185.671 Y68.992 E58.12398
G1 X186.759 Y69.003 E58.17465
G1 X187.73 Y69.062 E58.21995
G1 X188.659 Y69.201 E58.26369
G1 X189.607 Y69.429 E58.30909
G1 X190.529 Y69.739 E58.35438
G1 X191.454 Y70.145 E58.40142
G1 X192.246 Y70.58 E58.4435
G1 X193.055 Y71.118 E58.48873
G1 X193.87 Y71.775 E58.53748
G1 X194.52 Y72.402 E58.57953
G1 X195.182 Y73.163 E58.6265
G1 X195.774 Y73.981 E58.67352
G1 X196.236 Y74.757 E58.71557
G1 X196.69 Y75.699 E58.76426
G1 X197.019 Y76.577 E58.80792
G1 X197.288 Y77.549 E58.85488
G1 X197.465 Y78.515 E58.90061
G1 X197.56 Y79.638 E58.95309
G1 X197.575 Y80.294 E58.98365
G1 X197.575 Y126.47 E61.13379
G1 X197.612 Y129.042 E61.25357
G1 X197.721 Y131.607 E61.37311
G1 X197.895 Y134.07 E61.48809
G1 X198.144 Y136.587 E61.60586
G1 X198.465 Y139.095 E61.7236
G1 X198.851 Y141.556 E61.83959
G1 X199.309 Y144.021 E61.95634
G1 X199.846 Y146.513 E62.07504
G1 X200.439 Y148.937 E62.19124
G1 X201.11 Y151.381 E62.30925
G1 X201.843 Y153.772 E62.4257
G1 X202.654 Y156.174 E62.54375
G1 X203.531 Y158.555 E62.6619
G1 X204.411 Y160.754 E62.77219
G1 X204.719 Y161.64 E62.81587
G1 X204.95 Y162.549 E62.85954
G1 X205.107 Y163.511 E62.90493
G1 X205.182 Y164.593 E62.95543
G1 X205.203 Y165.789 E63.01113
G1 X205.202 Y170.55 E63.23283
G1 X205.19 Y171.311 E63.26827
G1 X205.132 Y172.283 E63.31361
G1 X205 Y173.176 E63.35564
G1 X204.775 Y174.125 E63.40105
G1 X204.456 Y175.082 E63.44803
G1 X204.05 Y176.007 E63.49507
G1 X203.598 Y176.829 E63.53875
G1 X203.036 Y177.667 E63.58573
G1 X202.446 Y178.397 E63.62944
G1 X201.769 Y179.099 E63.67485
G1 X201.035 Y179.737 E63.72013
G1 X200.217 Y180.329 E63.76715
G1 X199.441 Y180.792 E63.80923
G1 X198.502 Y181.245 E63.85777
G1 X197.657 Y181.565 E63.89985
G1 X196.65 Y181.846 E63.94853
G1 X195.684 Y182.023 E63.99426
G1 X194.548 Y182.119 E64.04734
G1 X193.882 Y182.134 E64.07836
G1 X34.767 Y182.133 E71.48742
G1 X34.034 Y182.122 E71.52156
G1 X33.063 Y182.065 E71.56685
G1 X32.169 Y181.933 E71.60893
G1 X31.187 Y181.7 E71.65593
G1 X30.23 Y181.379 E71.70293
G1 X29.403 Y181.018 E71.74495
G1 X28.516 Y180.535 E71.79197
G1 X27.677 Y179.974 E71.83897
G1 X26.973 Y179.408 E71.88103
G1 X26.22 Y178.684 E71.92967
G1 X25.627 Y178.003 E71.97172
G1 X25.034 Y177.186 E72.01873
G1 X24.517 Y176.319 E72.06573
G1 X24.095 Y175.442 E72.11105
G1 X23.775 Y174.598 E72.15308
G1 X23.501 Y173.626 E72.20011
G1 X23.315 Y172.622 E72.24765
G1 X23.217 Y171.443 E72.30274
G1 X23.203 Y170.792 E72.33306
G1 X23.204 Y113.67 E74.9929
G1 X23.217 Y112.926 E75.02755
G1 X23.277 Y111.954 E75.0729
G1 X23.411 Y111.061 E75.11494
G1 X23.637 Y110.114 E75.16028
G1 X24.132 Y108.731 E75.22868
G1 X24.421 Y108.069 E75.26231
G1 X25.043 Y106.695 E75.33254
G1 X26.013 Y104.373 E75.44972
G1 X26.934 Y101.98 E75.56911
G1 X27.745 Y99.679 E75.68272
G1 X28.523 Y97.252 E75.80139
G1 X29.223 Y94.845 E75.91812
G1 X29.861 Y92.389 E76.03628
G1 X30.418 Y89.966 E76.15204
G1 X30.925 Y87.435 E76.27224
G1 X31.342 Y85.002 E76.38718
G1 X31.596 Y83.222 E76.4709
G1 X31.682 Y82.684 E76.49627
G1 X31.864 Y81.799 E76.53835
G1 X32.164 Y80.799 E76.58696
G1 X32.527 Y79.895 E76.63232
G1 X32.935 Y79.089 E76.67439
G1 X33.486 Y78.202 E76.72301
G1 X34.029 Y77.481 E76.76504
G1 X34.678 Y76.757 E76.81031
G1 X35.446 Y76.044 E76.85911
G1 X36.216 Y75.451 E76.90436
G1 X37.037 Y74.926 E76.94974
G1 X37.869 Y74.492 E76.99344
G1 F2700 E71.99344
;MESH:megav1-KeyboardRight.stl
G0 F6000 X42.943 Y83.777
G0 X43.13 Y108.551
;TYPE:WALL-INNER
G1 F2700 E76.99344
G1 F1200 X146.929 Y90.248 E81.90132
G1 X146.929 Y85.042 E82.14373
G1 X43.13 Y85.043 E86.97705
G1 X43.13 Y108.551 E88.07168
G0 F6000 X42.73 Y109.028
;TYPE:WALL-OUTER
G1 F1200 X147.329 Y90.584 E93.01739
G1 X147.329 Y84.642 E93.29407
G1 X42.73 Y84.643 E98.16464
G1 X42.73 Y109.028 E99.30011
G0 F6000 X42.993 Y108.713
G0 X43.23 Y108.123
G0 X43.49 Y108.123
;TYPE:SKIN
G1 F1200 X43.49 Y85.403 E100.35804
G1 X146.569 Y85.402 E105.15783
G1 X146.569 Y89.947 E105.36947
G1 X43.49 Y108.123 E110.24331
G0 F6000 X43.92 Y107.842
G1 F1200 X43.69 Y107.612 E110.25845
G0 F6000 X43.69 Y107.046
G1 F1200 X44.401 Y107.758 E110.30531
G0 F6000 X44.882 Y107.673
G1 F1200 X43.69 Y106.481 E110.3838
G0 F6000 X43.69 Y105.915
G1 F1200 X45.363 Y107.588 E110.49397
G0 F6000 X45.843 Y107.503
G1 F1200 X43.69 Y105.349 E110.63578
G0 F6000 X43.69 Y104.784
G1 F1200 X46.324 Y107.418 E110.80924
G0 F6000 X46.805 Y107.333
G1 F1200 X43.69 Y104.218 E111.01436
G0 F6000 X43.69 Y103.652
G1 F1200 X47.286 Y107.249 E111.2512
G0 F6000 X47.767 Y107.164
G1 F1200 X43.69 Y103.086 E111.51971
G0 F6000 X43.69 Y102.521
G1 F1200 X48.248 Y107.08 E111.81989
G0 F6000 X48.729 Y106.995
G1 F1200 X43.69 Y101.955 E112.15175
G0 F6000 X43.69 Y101.389
G1 F1200 X49.21 Y106.91 E112.51529
G0 F6000 X49.691 Y106.825
G1 F1200 X43.69 Y100.824 E112.91046
G0 F6000 X43.69 Y100.258
G1 F1200 X50.172 Y106.74 E113.33732
G0 F6000 X50.652 Y106.655
G1 F1200 X43.69 Y99.692 E113.79581
G0 F6000 X43.69 Y99.127
G1 F1200 X51.133 Y106.57 E114.28594
G0 F6000 X51.614 Y106.486
G1 F1200 X43.69 Y98.561 E114.80778
G0 F6000 X43.69 Y97.995
G1 F1200 X52.095 Y106.401 E115.3613
G0 F6000 X52.576 Y106.316
G1 F1200 X43.69 Y97.43 E115.94646
G0 F6000 X43.69 Y96.864
G1 F1200 X53.057 Y106.231 E116.56329
G0 F6000 X53.538 Y106.147
G1 F1200 X43.69 Y96.298 E117.21183
G0 F6000 X43.69 Y95.733
G1 F1200 X54.019 Y106.062 E117.89201
G0 F6000 X54.5 Y105.977
G1 F1200 X43.69 Y95.167 E118.60387
G0 F6000 X43.69 Y94.601
G1 F1200 X54.981 Y105.892 E119.3474
G0 F6000 X55.461 Y105.807
G1 F1200 X43.69 Y94.036 E120.12254
G0 F6000 X43.69 Y93.47
G1 F1200 X55.942 Y105.723 E120.92939
G0 F6000 X56.423 Y105.638
G1 F1200 X43.69 Y92.904 E121.76791
G0 F6000 X43.69 Y92.338
G1 F1200 X56.904 Y105.553 E122.63811
G0 F6000 X57.385 Y105.468
G1 F1200 X43.69 Y91.773 E123.53995
G0 F6000 X43.69 Y91.207
G1 F1200 X57.866 Y105.383 E124.47346
G0 F6000 X58.346 Y105.298
G1 F1200 X43.69 Y90.641 E125.43862
G0 F6000 X43.69 Y90.076
G1 F1200 X58.827 Y105.213 E126.43542
G0 F6000 X59.309 Y105.129
G1 F1200 X43.69 Y89.51 E127.46396
G0 F6000 X43.69 Y88.944
G1 F1200 X59.79 Y105.044 E128.52417
G0 F6000 X60.27 Y104.96
G1 F1200 X43.69 Y88.379 E129.61602
G0 F6000 X43.69 Y87.813
G1 F1200 X60.751 Y104.875 E130.73955
G0 F6000 X61.232 Y104.79
G1 F1200 X43.69 Y87.247 E131.89475
G0 F6000 X43.69 Y86.682
G1 F1200 X61.713 Y104.705 E133.0816
G0 F6000 X62.194 Y104.62
G1 F1200 X43.69 Y86.116 E134.30012
G0 F6000 X43.741 Y85.602
