;FLAVOR:Marlin
;TIME:32071
;Filament used: 30.4133m
;Layer height: 0.28
;MINX:2.963
;MINY:42.152
;MINZ:0.28
;MAXX:214.963
;MAXY:193.152
;MAXZ:70
;POSTPROCESSED
;Generated with Cura_SteamEngine 5.3.1
M140 S50
M105
M190 S50
M104 S200
M105
M109 S200
M82 ;absolute extrusion mode
; Ender 3 Custom Start G-code
G92 E0 ; Reset Extruder
G28 ; Home all axes
G1 Z2.0 F3000 ; Move Z Axis up little to prevent scratching of Heat Bed
G1 X0.1 Y20 Z0.3 F5000.0 ; Move to start position
G1 X0.1 Y200.0 Z0.3 F1500.0 E15 ; Draw the first line
G1 X0.4 Y200.0 Z0.3 F5000.0 ; Move to side a little
G1 X0.4 Y20 Z0.3 F1500.0 E30 ; Draw the second line
G92 E0 ; Reset Extruder
G1 Z2.0 F3000 ; Move Z Axis up little to prevent scratching of Heat Bed
G1 X5 Y20 Z0.3 F5000.0 ; Move over to prevent blob squish
G92 E0
G92 E0
G1 F2700 E-5
;LAYER_COUNT:250
;LAYER:0
M107
G0 F6000 X11.659 Y43.227 Z0.28
;TYPE:SKIRT
G1 F2700 E0
G1 F1200 X12.547 Y43.061 E0.04207
G1 X13.686 Y42.965 E0.09529
G1 X14.293 Y42.952 E0.12356
G1 X203.402 Y42.953 E8.92927
G1 X204.1 Y42.963 E8.96177
G1 X205.002 Y43.016 E9.00385
G1 X205.895 Y43.148 E9.04588
G1 X206.773 Y43.359 E9.08793
G1 X207.629 Y43.647 E9.12998
G1 X208.456 Y44.009 E9.17202
G1 X209.248 Y44.444 E9.21409
G1 X209.999 Y44.946 E9.25616
G1 X210.702 Y45.513 E9.29821
G1 X211.352 Y46.14 E9.34026
G1 X211.944 Y46.822 E9.38232
G1 X212.474 Y47.553 E9.42436
G1 X212.936 Y48.329 E9.46641
G1 X213.329 Y49.142 E9.50846
G1 X213.647 Y49.987 E9.5505
G1 X213.89 Y50.857 E9.59256
G1 X214.055 Y51.745 E9.63462
G1 X214.15 Y52.875 E9.68742
G1 X214.163 Y53.482 E9.71569
G1 X214.162 Y181.542 E15.6787
G1 X214.153 Y182.269 E15.71256
G1 X214.102 Y183.171 E15.75463
G1 X213.971 Y184.065 E15.7967
G1 X213.762 Y184.943 E15.83873
G1 X213.476 Y185.8 E15.88079
G1 X213.115 Y186.628 E15.92285
G1 X212.683 Y187.42 E15.96486
G1 X212.182 Y188.172 E16.00694
G1 X211.616 Y188.876 E16.049
G1 X210.991 Y189.527 E16.09102
G1 X210.31 Y190.121 E16.1331
G1 X209.579 Y190.652 E16.17517
G1 X208.805 Y191.116 E16.21719
G1 X207.992 Y191.51 E16.25926
G1 X207.148 Y191.83 E16.30129
G1 X206.278 Y192.075 E16.34338
G1 X205.391 Y192.241 E16.3854
G1 X204.24 Y192.339 E16.43919
G1 X203.633 Y192.352 E16.46746
G1 X14.538 Y192.351 E25.27251
G1 X13.84 Y192.342 E25.30502
G1 X12.939 Y192.291 E25.34704
G1 X12.045 Y192.159 E25.38912
G1 X11.167 Y191.95 E25.43114
G1 X10.31 Y191.663 E25.47323
G1 X9.483 Y191.302 E25.51524
G1 X8.69 Y190.869 E25.55732
G1 X7.939 Y190.368 E25.59935
G1 X7.235 Y189.802 E25.64142
G1 X6.584 Y189.176 E25.68347
G1 X5.991 Y188.495 E25.72552
G1 X5.461 Y187.764 E25.76756
G1 X4.997 Y186.989 E25.80962
G1 X4.603 Y186.176 E25.85169
G1 X4.283 Y185.332 E25.89372
G1 X4.039 Y184.462 E25.93579
G1 X3.873 Y183.574 E25.97786
G1 X3.776 Y182.419 E26.03183
G1 X3.763 Y181.81 E26.06019
G1 X3.764 Y53.688 E32.02609
G1 X3.773 Y53.023 E32.05706
G1 X3.825 Y52.121 E32.09913
G1 X3.957 Y51.228 E32.14116
G1 X4.167 Y50.35 E32.1832
G1 X4.454 Y49.493 E32.22528
G1 X4.816 Y48.666 E32.26732
G1 X5.249 Y47.874 E32.30935
G1 X5.751 Y47.123 E32.35141
G1 X6.318 Y46.419 E32.3935
G1 X6.944 Y45.769 E32.43552
G1 X7.625 Y45.176 E32.47757
G1 X8.357 Y44.646 E32.51965
G1 X9.132 Y44.183 E32.56169
G1 X9.945 Y43.79 E32.60374
G1 X10.79 Y43.47 E32.64581
G1 X11.659 Y43.227 E32.68783
G0 F6000 X11.585 Y42.834
G1 F1200 X12.513 Y42.662 E32.73178
G1 X13.652 Y42.566 E32.785
G1 X14.293 Y42.552 E32.81486
G1 X203.408 Y42.553 E41.62084
G1 X204.123 Y42.564 E41.65414
G1 X205.06 Y42.62 E41.69785
G1 X205.953 Y42.752 E41.73988
G1 X206.901 Y42.98 E41.78528
G1 X207.757 Y43.268 E41.82734
G1 X208.649 Y43.658 E41.87267
G1 X209.441 Y44.093 E41.91474
G1 X210.221 Y44.613 E41.9584
G1 X210.98 Y45.225 E42.0038
G1 X211.63 Y45.852 E42.04585
G1 X212.268 Y46.587 E42.09117
G1 X212.818 Y47.348 E42.13489
G1 X213.28 Y48.124 E42.17694
G1 X213.703 Y49.001 E42.22228
G1 X214.032 Y49.879 E42.26594
G1 X214.283 Y50.784 E42.30967
G1 X214.454 Y51.711 E42.35357
G1 X214.549 Y52.841 E42.40637
G1 X214.563 Y53.482 E42.43622
G1 X214.562 Y181.547 E48.39947
G1 X214.552 Y182.292 E48.43416
G1 X214.498 Y183.229 E48.47786
G1 X214.367 Y184.123 E48.51994
G1 X214.151 Y185.036 E48.56362
G1 X213.843 Y185.96 E48.60898
G1 X213.482 Y186.788 E48.65104
G1 X213.016 Y187.642 E48.69634
G1 X212.494 Y188.423 E48.74008
G1 X211.928 Y189.127 E48.78214
G1 X211.28 Y189.804 E48.82578
G1 X210.545 Y190.445 E48.87119
G1 X209.814 Y190.976 E48.91326
G1 X209.011 Y191.459 E48.95689
G1 X208.134 Y191.884 E49.00227
G1 X207.29 Y192.204 E49.0443
G1 X206.352 Y192.468 E49.08968
G1 X205.425 Y192.64 E49.13358
G1 X204.274 Y192.738 E49.18737
G1 X203.642 Y192.752 E49.2168
G1 X14.533 Y192.751 E58.02251
G1 X13.817 Y192.741 E58.05585
G1 X12.881 Y192.687 E58.09951
G1 X11.987 Y192.555 E58.14159
G1 X11.074 Y192.339 E58.18528
G1 X10.15 Y192.03 E58.23064
G1 X9.323 Y191.669 E58.27266
G1 X8.468 Y191.202 E58.31803
G1 X7.688 Y190.68 E58.36173
G1 X6.984 Y190.114 E58.40379
G1 X6.282 Y189.439 E58.44914
G1 X5.689 Y188.758 E58.49119
G1 X5.137 Y187.999 E58.53489
G1 X4.637 Y187.163 E58.58025
G1 X4.229 Y186.318 E58.62394
G1 X3.909 Y185.474 E58.66597
G1 X3.646 Y184.536 E58.71133
G1 X3.474 Y183.607 E58.75532
G1 X3.376 Y182.428 E58.81041
G1 X3.363 Y181.81 E58.8392
G1 X3.364 Y53.683 E64.80533
G1 X3.374 Y53 E64.83713
G1 X3.429 Y52.063 E64.88084
G1 X3.561 Y51.17 E64.92287
G1 X3.778 Y50.257 E64.96657
G1 X4.075 Y49.366 E65.0103
G1 X4.465 Y48.474 E65.05563
G1 X4.916 Y47.652 E65.09929
G1 X5.439 Y46.872 E65.14302
G1 X6.006 Y46.168 E65.18511
G1 X6.681 Y45.467 E65.23043
G1 X7.362 Y44.874 E65.27247
G1 X8.122 Y44.322 E65.31621
G1 X8.958 Y43.823 E65.36155
G1 X9.803 Y43.416 E65.40522
G1 X10.648 Y43.096 E65.44729
G1 X11.585 Y42.834 E65.4926
G0 F6000 X11.512 Y42.441
G1 F1200 X12.479 Y42.263 E65.53838
G1 X13.618 Y42.167 E65.59161
G1 X14.293 Y42.152 E65.62304
G1 X203.414 Y42.153 E74.42931
G1 X204.147 Y42.165 E74.46345
G1 X205.118 Y42.224 E74.50874
G1 X206.047 Y42.363 E74.55248
G1 X206.995 Y42.591 E74.59789
G1 X207.917 Y42.901 E74.64318
G1 X208.842 Y43.307 E74.69022
G1 X209.634 Y43.742 E74.73229
G1 X210.443 Y44.28 E74.77753
G1 X211.258 Y44.937 E74.82628
G1 X211.908 Y45.564 E74.86833
G1 X212.57 Y46.325 E74.9153
G1 X213.162 Y47.143 E74.96232
G1 X213.624 Y47.919 E75.00437
G1 X214.078 Y48.861 E75.05306
G1 X214.407 Y49.739 E75.09672
G1 X214.676 Y50.711 E75.14368
G1 X214.853 Y51.677 E75.18941
G1 X214.948 Y52.807 E75.24221
G1 X214.963 Y53.482 E75.27365
G1 X214.962 Y181.552 E81.23713
G1 X214.951 Y182.315 E81.27266
G1 X214.894 Y183.287 E81.318
G1 X214.763 Y184.181 E81.36007
G1 X214.54 Y185.128 E81.40537
G1 X214.21 Y186.12 E81.45405
G1 X213.849 Y186.948 E81.49612
G1 X213.349 Y187.864 E81.54471
G1 X212.806 Y188.674 E81.59012
G1 X212.24 Y189.378 E81.63218
G1 X211.569 Y190.081 E81.67743
G1 X210.78 Y190.769 E81.72618
G1 X210.049 Y191.3 E81.76825
G1 X209.217 Y191.802 E81.81349
G1 X208.276 Y192.258 E81.86218
G1 X207.432 Y192.578 E81.90421
G1 X206.46 Y192.853 E81.95125
G1 X205.459 Y193.039 E81.99866
G1 X204.308 Y193.137 E82.05245
G1 X203.651 Y193.152 E82.08305
G1 X14.527 Y193.151 E90.88946
G1 X13.794 Y193.14 E90.92359
G1 X12.823 Y193.083 E90.96888
G1 X11.929 Y192.951 E91.01096
G1 X10.947 Y192.718 E91.05796
G1 X9.99 Y192.397 E91.10496
G1 X9.163 Y192.036 E91.14698
G1 X8.276 Y191.553 E91.19401
G1 X7.437 Y190.992 E91.241
G1 X6.733 Y190.426 E91.28306
G1 X5.98 Y189.702 E91.33171
G1 X5.387 Y189.021 E91.37375
G1 X4.794 Y188.204 E91.42076
G1 X4.277 Y187.337 E91.46776
G1 X3.855 Y186.46 E91.51308
G1 X3.535 Y185.616 E91.55511
G1 X3.261 Y184.644 E91.60214
G1 X3.075 Y183.64 E91.64968
G1 X2.977 Y182.461 E91.70477
G1 X2.963 Y181.81 E91.73509
G1 X2.964 Y53.677 E97.7015
G1 X2.975 Y52.977 E97.7341
G1 X3.033 Y52.005 E97.77944
G1 X3.165 Y51.112 E97.82147
G1 X3.389 Y50.165 E97.86679
G1 X3.708 Y49.206 E97.91385
G1 X4.098 Y48.314 E97.95918
G1 X4.565 Y47.46 E98.0045
G1 X5.127 Y46.621 E98.05153
G1 X5.694 Y45.917 E98.09362
G1 X6.418 Y45.165 E98.14222
G1 X7.099 Y44.572 E98.18427
G1 X7.887 Y43.998 E98.22967
G1 X8.784 Y43.463 E98.2783
G1 X9.661 Y43.042 E98.3236
G1 X10.506 Y42.722 E98.36567
G1 X11.512 Y42.441 E98.41431
G1 F2700 E93.41431
;MESH:megav2-LeftSide.stl
G0 F6000 X14.763 Y52.487
G0 X203.363 Y181.552
;TYPE:WALL-INNER
G1 F2700 E98.41431
G1 F1200 X203.363 Y53.752 E104.36521
G1 X14.563 Y53.752 E113.15653
G1 X14.563 Y181.552 E119.10743
G1 X203.363 Y181.552 E127.89875
G0 F6000 X203.763 Y181.952
;TYPE:WALL-OUTER
G1 F1200 X203.763 Y53.352 E133.88691
G1 X14.163 Y53.352 E142.71548
G1 X14.163 Y181.952 E148.70363
G1 X203.763 Y181.952 E157.5322
G0 F6000 X203.493 Y181.682
G0 X203.263 Y181.192
G0 X203.003 Y181.192
;TYPE:SKIN
G1 F1200 X14.923 Y181.192 E166.29
G1 X14.923 Y54.112 E172.20737
G1 X203.003 Y54.112 E180.96517
G1 X203.003 Y181.192 E186.88254
G1 F2700 E181.88254
G0 F6000 X203.263 Y181.192
G0 X203.263 Y54.592
G0 X202.802 Y54.592
G1 F2700 E186.88254
G1 F1200 X202.521 Y54.312 E186.90101
G0 F6000 X201.956 Y54.312
G1 F1200 X202.802 Y55.158 E186.95672
G0 F6000 X202.802 Y55.724
G1 F1200 X201.39 Y54.312 E187.04971
G0 F6000 X200.824 Y54.312
G1 F1200 X202.802 Y56.289 E187.17993
G0 F6000 X202.802 Y56.855
G1 F1200 X200.259 Y54.312 E187.34739
G0 F6000 X199.693 Y54.312
G1 F1200 X202.802 Y57.421 E187.55212
G0 F6000 X202.802 Y57.986
G1 F1200 X199.127 Y54.312 E187.79409
G0 F6000 X198.561 Y54.312
G1 F1200 X202.802 Y58.552 E188.07334
G0 F6000 X202.802 Y59.118
G1 F1200 X197.996 Y54.312 E188.38982
G0 F6000 X197.43 Y54.312
G1 F1200 X202.802 Y59.684 E188.74358
G0 F6000 X202.802 Y60.249
G1 F1200 X196.864 Y54.312 E189.13457
G0 F6000 X196.299 Y54.312
G1 F1200 X202.802 Y60.815 E189.56281
G0 F6000 X202.802 Y61.381
G1 F1200 X195.733 Y54.312 E190.02831
G0 F6000 X195.167 Y54.312
G1 F1200 X202.802 Y61.946 E190.53106
G0 F6000 X202.802 Y62.512
G1 F1200 X194.602 Y54.312 E191.07104
G0 F6000 X194.036 Y54.312
G1 F1200 X202.802 Y63.078 E191.6483
G0 F6000 X202.802 Y63.643
G1 F1200 X193.47 Y54.312 E192.26279
G0 F6000 X192.905 Y54.312
G1 F1200 X202.802 Y64.209 E192.91453
G0 F6000 X202.802 Y64.775
G1 F1200 X192.339 Y54.312 E193.60353
G0 F6000 X191.773 Y54.312
G1 F1200 X202.802 Y65.34 E194.32978
G0 F6000 X202.802 Y65.906
G1 F1200 X191.208 Y54.312 E195.09326
G0 F6000 X190.642 Y54.312
G1 F1200 X202.802 Y66.472 E195.89402
G0 F6000 X202.802 Y67.037
G1 F1200 X190.076 Y54.312 E196.73202
G0 F6000 X189.51 Y54.312
G1 F1200 X202.802 Y67.603 E197.60728
G0 F6000 X202.802 Y68.169
G1 F1200 X188.945 Y54.312 E198.51979
G0 F6000 X188.379 Y54.312
G1 F1200 X202.802 Y68.735 E199.46957
G0 F6000 X202.802 Y69.3
G1 F1200 X187.813 Y54.312 E200.45659
G0 F6000 X187.248 Y54.312
G1 F1200 X202.802 Y69.866 E201.48085
G0 F6000 X202.802 Y70.432
G1 F1200 X186.682 Y54.312 E202.54238
G0 F6000 X186.116 Y54.312
G1 F1200 X202.802 Y70.997 E203.64114
G0 F6000 X202.802 Y71.563
G1 F1200 X185.551 Y54.312 E204.77715
G0 F6000 X184.985 Y54.312
G1 F1200 X202.802 Y72.129 E205.95043
G0 F6000 X202.802 Y72.694
G1 F1200 X184.419 Y54.312 E207.16095
G0 F6000 X183.854 Y54.312
G1 F1200 X202.802 Y73.26 E208.40871
G0 F6000 X202.802 Y73.826
G1 F1200 X183.288 Y54.312 E209.69374
G0 F6000 X182.722 Y54.312
G1 F1200 X202.802 Y74.391 E211.01601
G0 F6000 X202.802 Y74.957
G1 F1200 X182.157 Y54.312 E212.37552
G0 F6000 X181.591 Y54.312
G1 F1200 X202.802 Y75.523 E213.7723
G0 F6000 X202.802 Y76.088
G1 F1200 X181.025 Y54.312 E215.20632
G0 F6000 X180.46 Y54.312
G1 F1200 X202.802 Y76.654 E216.67758
G0 F6000 X202.802 Y77.22
G1 F1200 X179.894 Y54.312 E218.18611
G0 F6000 X179.328 Y54.312
G1 F1200 X202.802 Y77.785 E219.73188
G0 F6000 X202.802 Y78.351
G1 F1200 X178.762 Y54.312 E221.31492
G0 F6000 X178.197 Y54.312
G1 F1200 X202.802 Y78.917 E222.9352
G0 F6000 X202.802 Y79.483
G1 F1200 X177.631 Y54.312 E224.59275
G0 F6000 X177.065 Y54.312
G1 F1200 X202.802 Y80.048 E226.28755
G0 F6000 X202.802 Y80.614
G1 F1200 X176.5 Y54.312 E228.01958
G0 F6000 X175.934 Y54.312
G1 F1200 X202.802 Y81.18 E229.78888
G0 F6000 X202.802 Y81.745
G1 F1200 X175.368 Y54.312 E231.59542
G0 F6000 X174.803 Y54.312
G1 F1200 X202.802 Y82.311 E233.43921
G0 F6000 X202.802 Y82.877
G1 F1200 X174.237 Y54.312 E235.32026
G0 F6000 X173.671 Y54.312
G1 F1200 X202.802 Y83.442 E237.23855
G0 F6000 X202.802 Y84.008
G1 F1200 X173.106 Y54.312 E239.19409
G0 F6000 X172.54 Y54.312
G1 F1200 X202.802 Y84.574 E241.18689
G0 F6000 X202.802 Y85.139
G1 F1200 X171.974 Y54.312 E243.21693
G0 F6000 X171.409 Y54.312
G1 F1200 X202.802 Y85.705 E245.28422
G0 F6000 X202.802 Y86.271
G1 F1200 X170.843 Y54.312 E247.38877
G0 F6000 X170.277 Y54.312
G1 F1200 X202.802 Y86.836 E249.53056
G0 F6000 X202.802 Y87.402
G1 F1200 X169.711 Y54.312 E251.70963
G0 F6000 X169.146 Y54.312
G1 F1200 X202.802 Y87.968 E253.92594
G0 F6000 X202.802 Y88.534
G1 F1200 X168.58 Y54.312 E256.17951
G0 F6000 X168.014 Y54.312
G1 F1200 X202.802 Y89.099 E258.47033
G0 F6000 X202.802 Y89.665
G1 F1200 X167.449 Y54.312 E260.79838
G0 F6000 X166.883 Y54.312
G1 F1200 X202.802 Y90.231 E263.16371
G0 F6000 X202.802 Y90.796
G1 F1200 X166.317 Y54.312 E265.56628
G0 F6000 X165.752 Y54.312
G1 F1200 X202.802 Y91.362 E268.00608
G0 F6000 X202.802 Y91.928
G1 F1200 X165.186 Y54.312 E270.48316
G0 F6000 X164.62 Y54.312
G1 F1200 X202.802 Y92.493 E272.99748
G0 F6000 X202.802 Y93.059
G1 F1200 X164.055 Y54.312 E275.54904
G0 F6000 X163.489 Y54.312
G1 F1200 X202.802 Y93.625 E278.13786
G0 F6000 X202.802 Y94.19
G1 F1200 X162.923 Y54.312 E280.76393
G0 F6000 X162.358 Y54.312
G1 F1200 X202.802 Y94.756 E283.42724
G0 F6000 X202.802 Y95.322
G1 F1200 X161.792 Y54.312 E286.12782
G0 F6000 X161.226 Y54.312
G1 F1200 X202.802 Y95.887 E288.86563
G0 F6000 X202.802 Y96.453
G1 F1200 X160.661 Y54.312 E291.64069
G0 F6000 X160.095 Y54.312
G1 F1200 X202.802 Y97.019 E294.45302
G0 F6000 X202.802 Y97.584
G1 F1200 X159.529 Y54.312 E297.30259
G0 F6000 X158.963 Y54.312
G1 F1200 X202.802 Y98.15 E300.18943
G0 F6000 X202.802 Y98.716
G1 F1200 X158.398 Y54.312 E303.11351
G0 F6000 X157.832 Y54.312
G1 F1200 X202.802 Y99.282 E306.07486
G0 F6000 X202.802 Y99.847
G1 F1200 X157.266 Y54.312 E309.07345
G0 F6000 X156.701 Y54.312
G1 F1200 X202.802 Y100.413 E312.10928
G0 F6000 X202.802 Y100.979
G1 F1200 X156.135 Y54.312 E315.18238
G0 F6000 X155.569 Y54.312
G1 F1200 X202.802 Y101.544 E318.29272
G0 F6000 X202.802 Y102.11
G1 F1200 X155.004 Y54.312 E321.4403
G0 F6000 X154.438 Y54.312
G1 F1200 X202.802 Y102.676 E324.62515
G0 F6000 X202.802 Y103.241
G1 F1200 X153.872 Y54.312 E327.84724
G0 F6000 X153.307 Y54.312
G1 F1200 X202.802 Y103.807 E331.10657
G0 F6000 X202.802 Y104.373
G1 F1200 X152.741 Y54.312 E334.40318
G0 F6000 X152.175 Y54.312
G1 F1200 X202.802 Y104.938 E337.73702
G0 F6000 X202.802 Y105.504
G1 F1200 X151.61 Y54.312 E341.1081
G0 F6000 X151.044 Y54.312
G1 F1200 X202.802 Y106.07 E344.51645
G0 F6000 X202.802 Y106.635
G1 F1200 X150.478 Y54.312 E347.96204
G0 F6000 X149.913 Y54.312
G1 F1200 X202.802 Y107.201 E351.44487
G0 F6000 X202.802 Y107.767
G1 F1200 X149.347 Y54.312 E354.96498
G0 F6000 X148.781 Y54.312
G1 F1200 X202.802 Y108.333 E358.52235
G0 F6000 X202.802 Y108.898
G1 F1200 X148.215 Y54.312 E362.11697
G0 F6000 X147.65 Y54.312
G1 F1200 X202.802 Y109.464 E365.74882
G0 F6000 X202.802 Y110.03
G1 F1200 X147.084 Y54.312 E369.41794
G0 F6000 X146.518 Y54.312
G1 F1200 X202.802 Y110.595 E373.12431
G0 F6000 X202.802 Y111.161
G1 F1200 X145.953 Y54.312 E376.86791
G0 F6000 X145.387 Y54.312
G1 F1200 X202.802 Y111.727 E380.64879
G0 F6000 X202.802 Y112.292
G1 F1200 X144.821 Y54.312 E384.4669
G0 F6000 X144.256 Y54.312
G1 F1200 X202.802 Y112.858 E388.32226
G0 F6000 X202.802 Y113.424
G1 F1200 X143.69 Y54.312 E392.21488
G0 F6000 X143.124 Y54.312
G1 F1200 X202.802 Y113.989 E396.14475
G0 F6000 X202.802 Y114.555
G1 F1200 X142.559 Y54.312 E400.11185
G0 F6000 X141.993 Y54.312
G1 F1200 X202.802 Y115.121 E404.11623
G0 F6000 X202.802 Y115.686
G1 F1200 X141.427 Y54.312 E408.15785
G0 F6000 X140.862 Y54.312
G1 F1200 X202.802 Y116.252 E412.2367
G0 F6000 X202.802 Y116.818
G1 F1200 X140.296 Y54.312 E416.35283
G0 F6000 X139.73 Y54.312
G1 F1200 X202.802 Y117.383 E420.50619
G0 F6000 X202.802 Y117.949
G1 F1200 X139.164 Y54.312 E424.69683
G0 F6000 X138.599 Y54.312
G1 F1200 X202.802 Y118.515 E428.92471
G0 F6000 X202.802 Y119.081
G1 F1200 X138.033 Y54.312 E433.18986
G0 F6000 X137.467 Y54.312
G1 F1200 X202.802 Y119.646 E437.49225
