;FLAVOR:Marlin
;TIME:4002
;Filament used: 3.91949m
;Layer height: 0.28
;MINX:13.079
;MINY:80.626
;MINZ:0.28
;MAXX:221.679
;MAXY:119.226
;MAXZ:3.36
;POSTPROCESSED
;Generated with Cura_SteamEngine 5.3.1
M140 S50
M105
M190 S50
M104 S200
M105
M109 S200
M82 ;absolute extrusion mode
; Ender 3 Custom Start G-code
G92 E0 ; Reset Extruder
G28 ; Home all axes
G1 Z2.0 F3000 ; Move Z Axis up little to prevent scratching of Heat Bed
G1 X0.1 Y20 Z0.3 F5000.0 ; Move to start position
G1 X0.1 Y200.0 Z0.3 F1500.0 E15 ; Draw the first line
G1 X0.4 Y200.0 Z0.3 F5000.0 ; Move to side a little
G1 X0.4 Y20 Z0.3 F1500.0 E30 ; Draw the second line
G92 E0 ; Reset Extruder
G1 Z2.0 F3000 ; Move Z Axis up little to prevent scratching of Heat Bed
G1 X5 Y20 Z0.3 F5000.0 ; Move over to prevent blob squish
G92 E0
G92 E0
G1 F2700 E-5
;LAYER_COUNT:13
;LAYER:0
M107
G0 F6000 X16.613 Y80.626 Z0.28
;TYPE:SKIRT
G1 F2700 E0
G1 F1200 X218.269 Y80.626 E9.38995
G1 X219.201 Y80.855 E9.43464
G1 X220.201 Y81.373 E9.48708
G1 X220.903 Y82.126 E9.53501
G1 X221.46 Y83.062 E9.58573
G1 X221.679 Y84.16 E9.63787
G1 X221.679 Y86.824 E9.76191
G1 X221.53 Y87.433 E9.79111
G1 X221.679 Y88.155 E9.82543
G1 X221.679 Y96.824 E10.2291
G1 X221.53 Y97.433 E10.25829
G1 X221.679 Y98.155 E10.29262
G1 X221.679 Y106.824 E10.69629
G1 X221.53 Y107.433 E10.72548
G1 X221.679 Y108.155 E10.75981
G1 X221.679 Y115.816 E11.11654
G1 X221.45 Y116.748 E11.16123
G1 X220.932 Y117.748 E11.21367
G1 X220.179 Y118.45 E11.2616
G1 X219.243 Y119.007 E11.31232
G1 X218.145 Y119.226 E11.36445
G1 X16.489 Y119.226 E20.7544
G1 X15.557 Y118.997 E20.79909
G1 X14.557 Y118.479 E20.85153
G1 X13.855 Y117.726 E20.89947
G1 X13.298 Y116.79 E20.95019
G1 X13.079 Y115.692 E21.00232
G1 X13.079 Y108.028 E21.35919
G1 X13.228 Y107.419 E21.38838
G1 X13.079 Y106.697 E21.42271
G1 X13.079 Y98.028 E21.82637
G1 X13.228 Y97.419 E21.85557
G1 X13.079 Y96.697 E21.8899
G1 X13.079 Y88.028 E22.29356
G1 X13.228 Y87.419 E22.32276
G1 X13.079 Y86.697 E22.35708
G1 X13.079 Y84.036 E22.48099
G1 X13.308 Y83.104 E22.52568
G1 X13.826 Y82.104 E22.57812
G1 X14.579 Y81.402 E22.62606
G1 X15.515 Y80.845 E22.67677
G1 X16.613 Y80.626 E22.72891
G0 F6000 X16.651 Y81.026
G1 F1200 X218.223 Y81.026 E32.11494
G1 X219.058 Y81.231 E32.15498
G1 X219.954 Y81.695 E32.20196
G1 X220.581 Y82.368 E32.24479
G1 X221.082 Y83.21 E32.29042
G1 X221.279 Y84.198 E32.33733
G1 X221.279 Y86.774 E32.45728
G1 X221.12 Y87.425 E32.48848
G1 X221.279 Y88.197 E32.52518
G1 X221.279 Y96.774 E32.92457
G1 X221.12 Y97.425 E32.95577
G1 X221.279 Y98.197 E32.99247
G1 X221.279 Y106.774 E33.39185
G1 X221.12 Y107.425 E33.42306
G1 X221.279 Y108.197 E33.45976
G1 X221.279 Y115.77 E33.81239
G1 X221.074 Y116.605 E33.85243
G1 X220.61 Y117.501 E33.89941
G1 X219.937 Y118.128 E33.94224
G1 X219.095 Y118.629 E33.98786
G1 X218.107 Y118.826 E34.03477
G1 X16.535 Y118.826 E43.42081
G1 X15.7 Y118.621 E43.46085
G1 X14.804 Y118.157 E43.50783
G1 X14.177 Y117.484 E43.55066
G1 X13.676 Y116.642 E43.59628
G1 X13.479 Y115.654 E43.64319
G1 X13.479 Y108.078 E43.99596
G1 X13.638 Y107.427 E44.02717
G1 X13.479 Y106.655 E44.06387
G1 X13.479 Y98.078 E44.46325
G1 X13.638 Y97.427 E44.49446
G1 X13.479 Y96.655 E44.53116
G1 X13.479 Y88.078 E44.93054
G1 X13.638 Y87.427 E44.96174
G1 X13.479 Y86.655 E44.99845
G1 X13.479 Y84.082 E45.11826
G1 X13.684 Y83.247 E45.15829
G1 X14.148 Y82.351 E45.20527
G1 X14.821 Y81.724 E45.24811
G1 X15.663 Y81.223 E45.29373
G1 X16.651 Y81.026 E45.34064
G0 F6000 X15.811 Y81.601
G1 F1200 X16.689 Y81.426 E45.38233
G1 X218.177 Y81.426 E54.76445
G1 X218.915 Y81.607 E54.79983
G1 X219.707 Y82.017 E54.84136
G1 X220.259 Y82.61 E54.87909
G1 X220.704 Y83.358 E54.91961
G1 X220.879 Y84.236 E54.9613
G1 X220.879 Y86.724 E55.07715
G1 X220.702 Y87.447 E55.11181
G1 X220.746 Y87.568 E55.11781
G1 X220.879 Y88.236 E55.14952
G1 X220.879 Y96.724 E55.54476
G1 X220.702 Y97.447 E55.57942
G1 X220.746 Y97.568 E55.58542
G1 X220.879 Y98.236 E55.61713
G1 X220.879 Y106.724 E56.01237
G1 X220.702 Y107.447 E56.04703
G1 X220.746 Y107.568 E56.05302
G1 X220.879 Y108.236 E56.08474
G1 X220.879 Y115.724 E56.43341
G1 X220.698 Y116.462 E56.46879
G1 X220.288 Y117.254 E56.51032
G1 X219.695 Y117.806 E56.54805
G1 X218.947 Y118.251 E56.58857
G1 X218.069 Y118.426 E56.63026
G1 X16.581 Y118.426 E66.01239
G1 X15.843 Y118.245 E66.04777
G1 X15.051 Y117.835 E66.0893
G1 X14.499 Y117.242 E66.12702
G1 X14.054 Y116.494 E66.16755
G1 X13.879 Y115.616 E66.20924
G1 X13.879 Y108.128 E66.55791
G1 X14.056 Y107.405 E66.59257
G1 X14.012 Y107.284 E66.59856
G1 X13.879 Y106.616 E66.63028
G1 X13.879 Y98.128 E67.02552
G1 X14.056 Y97.405 E67.06018
G1 X14.012 Y97.284 E67.06617
G1 X13.879 Y96.616 E67.09789
G1 X13.879 Y88.128 E67.49312
G1 X14.056 Y87.405 E67.52778
G1 X14.012 Y87.284 E67.53378
G1 X13.879 Y86.616 E67.56549
G1 X13.879 Y84.128 E67.68135
G1 X14.06 Y83.39 E67.71673
G1 X14.47 Y82.598 E67.75826
G1 X15.063 Y82.046 E67.79598
G1 X15.811 Y81.601 E67.83651
G0 F6000 X15.959 Y81.979
G1 F1200 X16.727 Y81.826 E67.87297
G1 X218.127 Y81.826 E77.251
G1 X218.776 Y81.985 E77.28211
G1 X219.462 Y82.34 E77.31808
G1 X219.935 Y82.849 E77.35044
G1 X220.326 Y83.506 E77.38604
G1 X220.479 Y84.274 E77.4225
G1 X220.479 Y86.674 E77.53425
G1 X220.342 Y87.235 E77.56114
G1 X220.26 Y87.425 E77.57078
G1 X220.354 Y87.646 E77.58196
G1 X220.479 Y88.274 E77.61178
G1 X220.479 Y96.674 E78.00292
G1 X220.342 Y97.235 E78.02981
G1 X220.26 Y97.425 E78.03944
G1 X220.354 Y97.646 E78.05063
G1 X220.479 Y98.274 E78.08044
G1 X220.479 Y106.674 E78.47158
G1 X220.342 Y107.235 E78.49847
G1 X220.26 Y107.425 E78.50811
G1 X220.354 Y107.646 E78.51929
G1 X220.479 Y108.274 E78.54911
G1 X220.479 Y115.674 E78.89368
G1 X220.32 Y116.323 E78.9248
G1 X219.965 Y117.009 E78.96076
G1 X219.456 Y117.482 E78.99312
G1 X218.799 Y117.873 E79.02872
G1 X218.031 Y118.026 E79.06518
G1 X16.631 Y118.026 E88.44321
G1 X15.982 Y117.867 E88.47432
G1 X15.296 Y117.512 E88.51029
G1 X14.823 Y117.003 E88.54265
G1 X14.432 Y116.346 E88.57825
G1 X14.279 Y115.578 E88.61471
G1 X14.279 Y108.178 E88.95929
G1 X14.416 Y107.617 E88.98618
G1 X14.498 Y107.427 E88.99581
G1 X14.404 Y107.206 E89.00699
G1 X14.279 Y106.578 E89.03681
G1 X14.279 Y98.178 E89.42795
G1 X14.416 Y97.617 E89.45484
G1 X14.498 Y97.427 E89.46448
G1 X14.404 Y97.206 E89.47566
G1 X14.279 Y96.578 E89.50547
G1 X14.279 Y88.178 E89.89661
G1 X14.416 Y87.617 E89.9235
G1 X14.498 Y87.427 E89.93314
G1 X14.404 Y87.206 E89.94432
G1 X14.279 Y86.578 E89.97414
G1 X14.279 Y84.178 E90.08589
G1 X14.438 Y83.529 E90.11701
G1 X14.793 Y82.843 E90.15297
G1 X15.302 Y82.37 E90.18533
G1 X15.959 Y81.979 E90.22093
G0 F6000 X16.107 Y82.357
G1 F1200 X16.765 Y82.226 E90.25217
G1 X218.077 Y82.226 E99.6261
G1 X218.637 Y82.363 E99.65294
G1 X219.217 Y82.663 E99.68335
G1 X219.611 Y83.088 E99.71034
G1 X219.948 Y83.654 E99.74101
G1 X220.079 Y84.312 E99.77225
G1 X220.079 Y86.624 E99.87991
G1 X219.953 Y87.14 E99.90464
G1 X219.815 Y87.43 E99.91959
G1 X219.962 Y87.724 E99.9349
G1 X220.079 Y88.312 E99.96282
G1 X220.079 Y96.624 E100.34986
G1 X219.953 Y97.14 E100.37459
G1 X219.815 Y97.43 E100.38955
G1 X219.962 Y97.724 E100.40485
G1 X220.079 Y98.312 E100.43277
G1 X220.079 Y106.624 E100.81981
G1 X219.953 Y107.14 E100.84454
G1 X219.815 Y107.43 E100.8595
G1 X219.962 Y107.724 E100.8748
G1 X220.079 Y108.312 E100.90272
G1 X220.079 Y115.624 E101.2432
G1 X219.942 Y116.184 E101.27004
G1 X219.642 Y116.764 E101.30045
G1 X219.217 Y117.158 E101.32743
G1 X218.651 Y117.495 E101.35811
G1 X217.993 Y117.626 E101.38935
G1 X16.681 Y117.626 E110.76328
G1 X16.121 Y117.489 E110.79012
G1 X15.541 Y117.189 E110.82053
G1 X15.147 Y116.764 E110.84751
G1 X14.81 Y116.198 E110.87819
G1 X14.679 Y115.54 E110.90943
G1 X14.679 Y108.228 E111.2499
G1 X14.805 Y107.712 E111.27464
G1 X14.943 Y107.422 E111.28959
G1 X14.796 Y107.128 E111.3049
G1 X14.679 Y106.54 E111.33281
G1 X14.679 Y98.228 E111.71986
G1 X14.805 Y97.712 E111.74459
G1 X14.943 Y97.422 E111.75954
G1 X14.796 Y97.128 E111.77485
G1 X14.679 Y96.54 E111.80277
G1 X14.679 Y88.228 E112.18981
G1 X14.805 Y87.712 E112.21454
G1 X14.943 Y87.422 E112.2295
G1 X14.796 Y87.128 E112.2448
G1 X14.679 Y86.54 E112.27272
G1 X14.679 Y84.228 E112.38037
G1 X14.816 Y83.668 E112.40722
G1 X15.116 Y83.088 E112.43762
G1 X15.541 Y82.694 E112.46461
G1 X16.107 Y82.357 E112.49528
G0 F6000 X16.255 Y82.735
G1 F1200 X16.803 Y82.626 E112.5213
G1 X218.027 Y82.626 E121.89113
G1 X218.498 Y82.741 E121.91371
G1 X218.971 Y82.986 E121.93851
G1 X219.287 Y83.327 E121.96016
G1 X219.57 Y83.802 E121.98591
G1 X219.679 Y84.35 E122.01192
G1 X219.679 Y86.574 E122.11548
G1 X219.564 Y87.045 E122.13806
G1 X219.357 Y87.444 E122.15899
G1 X219.57 Y87.802 E122.17839
G1 X219.679 Y88.35 E122.2044
G1 X219.679 Y96.574 E122.58735
G1 X219.564 Y97.045 E122.60992
G1 X219.357 Y97.444 E122.63085
G1 X219.57 Y97.802 E122.65025
G1 X219.679 Y98.35 E122.67627
G1 X219.679 Y106.574 E123.05921
G1 X219.564 Y107.045 E123.08179
G1 X219.357 Y107.444 E123.10272
G1 X219.57 Y107.802 E123.12212
G1 X219.679 Y108.35 E123.14813
G1 X219.679 Y115.574 E123.48451
G1 X219.564 Y116.045 E123.50709
G1 X219.319 Y116.518 E123.53189
G1 X218.978 Y116.834 E123.55354
G1 X218.503 Y117.117 E123.57929
G1 X217.955 Y117.226 E123.6053
G1 X16.731 Y117.226 E132.97514
G1 X16.26 Y117.111 E132.99771
G1 X15.787 Y116.866 E133.02252
G1 X15.471 Y116.525 E133.04416
G1 X15.188 Y116.05 E133.06991
G1 X15.079 Y115.502 E133.09593
G1 X15.079 Y108.278 E133.43231
G1 X15.194 Y107.807 E133.45488
G1 X15.401 Y107.408 E133.47581
G1 X15.188 Y107.05 E133.49521
G1 X15.079 Y106.502 E133.52123
G1 X15.079 Y98.278 E133.90417
G1 X15.194 Y97.807 E133.92675
G1 X15.401 Y97.408 E133.94768
G1 X15.188 Y97.05 E133.96708
G1 X15.079 Y96.502 E133.99309
G1 X15.079 Y88.278 E134.37604
G1 X15.194 Y87.807 E134.39861
G1 X15.401 Y87.408 E134.41954
G1 X15.188 Y87.05 E134.43894
G1 X15.079 Y86.502 E134.46496
G1 X15.079 Y84.278 E134.56852
G1 X15.194 Y83.807 E134.59109
G1 X15.439 Y83.334 E134.6159
G1 X15.78 Y83.018 E134.63755
G1 X16.255 Y82.735 E134.66329
G0 F6000 X16.403 Y83.113
G1 F1200 X16.841 Y83.026 E134.68408
G1 X217.977 Y83.026 E144.04982
G1 X218.359 Y83.119 E144.06813
G1 X218.725 Y83.309 E144.08733
G1 X218.963 Y83.566 E144.10364
G1 X219.192 Y83.95 E144.12446
G1 X219.279 Y84.388 E144.14525
G1 X219.279 Y86.524 E144.24471
G1 X219.186 Y86.906 E144.26302
G1 X219.027 Y87.212 E144.27908
G1 X218.84 Y87.426 E144.29231
G1 X218.963 Y87.566 E144.30099
G1 X219.192 Y87.95 E144.32181
G1 X219.279 Y88.388 E144.3426
G1 X219.279 Y96.524 E144.72145
G1 X219.186 Y96.906 E144.73975
G1 X219.027 Y97.212 E144.75581
G1 X218.84 Y97.426 E144.76904
G1 X218.963 Y97.566 E144.77772
G1 X219.192 Y97.95 E144.79854
G1 X219.279 Y98.388 E144.81933
G1 X219.279 Y106.524 E145.19818
G1 X219.186 Y106.906 E145.21649
G1 X219.027 Y107.212 E145.23254
G1 X218.84 Y107.426 E145.24578
G1 X218.963 Y107.566 E145.25445
G1 X219.192 Y107.95 E145.27527
G1 X219.279 Y108.388 E145.29607
G1 X219.279 Y115.524 E145.62835
G1 X219.186 Y115.906 E145.64666
G1 X218.996 Y116.272 E145.66586
G1 X218.739 Y116.51 E145.68217
G1 X218.355 Y116.739 E145.70299
G1 X217.917 Y116.826 E145.72378
G1 X16.781 Y116.826 E155.08952
G1 X16.399 Y116.733 E155.10782
G1 X16.033 Y116.543 E155.12702
G1 X15.795 Y116.286 E155.14334
G1 X15.566 Y115.902 E155.16415
G1 X15.479 Y115.464 E155.18495
G1 X15.479 Y108.328 E155.51723
G1 X15.572 Y107.946 E155.53554
G1 X15.731 Y107.64 E155.55159
G1 X15.918 Y107.426 E155.56483
G1 X15.795 Y107.286 E155.5735
G1 X15.566 Y106.902 E155.59432
G1 X15.479 Y106.464 E155.61512
G1 X15.479 Y98.328 E155.99396
G1 X15.572 Y97.946 E156.01227
G1 X15.731 Y97.64 E156.02833
G1 X15.918 Y97.426 E156.04156
G1 X15.795 Y97.286 E156.05024
G1 X15.566 Y96.902 E156.07106
G1 X15.479 Y96.464 E156.09185
G1 X15.479 Y88.328 E156.4707
G1 X15.572 Y87.946 E156.489
G1 X15.731 Y87.64 E156.50506
G1 X15.918 Y87.426 E156.51829
G1 X15.795 Y87.286 E156.52697
G1 X15.566 Y86.902 E156.54779
G1 X15.479 Y86.464 E156.56858
G1 X15.479 Y84.328 E156.66805
G1 X15.572 Y83.946 E156.68635
G1 X15.762 Y83.58 E156.70555
G1 X16.019 Y83.342 E156.72187
G1 X16.403 Y83.113 E156.74268
G0 F6000 X16.551 Y83.491
G1 F1200 X16.879 Y83.426 E156.75825
G1 X217.928 Y83.426 E166.11994
G1 X218.217 Y83.496 E166.13378
G1 X218.48 Y83.633 E166.14759
G1 X218.619 Y83.771 E166.15671
G1 X218.814 Y84.098 E166.17444
G1 X218.879 Y84.426 E166.19001
G1 X218.879 Y86.475 E166.28542
G1 X218.809 Y86.764 E166.29927
G1 X218.672 Y87.027 E166.31308
G1 X218.534 Y87.166 E166.3222
G1 X218.207 Y87.361 E166.33992
G1 X217.906 Y87.421 E166.35422
G1 X218.217 Y87.496 E166.36911
G1 X218.48 Y87.633 E166.38292
G1 X218.619 Y87.771 E166.39204
G1 X218.814 Y88.098 E166.40977
G1 X218.879 Y88.426 E166.42534
G1 X218.879 Y96.475 E166.80013
G1 X218.809 Y96.764 E166.81398
G1 X218.672 Y97.027 E166.82779
G1 X218.534 Y97.166 E166.83691
G1 X218.207 Y97.361 E166.85464
G1 X217.906 Y97.421 E166.86893
G1 X218.217 Y97.496 E166.88383
G1 X218.48 Y97.633 E166.89763
G1 X218.619 Y97.771 E166.90676
G1 X218.814 Y98.098 E166.92448
G1 X218.879 Y98.426 E166.94005
G1 X218.879 Y106.475 E167.31485
G1 X218.809 Y106.764 E167.32869
G1 X218.672 Y107.027 E167.3425
G1 X218.534 Y107.166 E167.35162
G1 X218.207 Y107.361 E167.36935
G1 X217.906 Y107.421 E167.38364
G1 X218.217 Y107.496 E167.39854
G1 X218.48 Y107.633 E167.41235
G1 X218.619 Y107.771 E167.42147
G1 X218.814 Y108.098 E167.4392
G1 X218.879 Y108.426 E167.45477
G1 X218.879 Y115.475 E167.783
G1 X218.809 Y115.764 E167.79684
G1 X218.672 Y116.027 E167.81065
G1 X218.534 Y116.166 E167.81977
G1 X218.207 Y116.361 E167.8375
G1 X217.879 Y116.426 E167.85307
G1 X16.83 Y116.426 E177.21476
G1 X16.541 Y116.356 E177.2286
G1 X16.278 Y116.219 E177.24241
G1 X16.139 Y116.081 E177.25153
G1 X15.944 Y115.754 E177.26926
G1 X15.879 Y115.426 E177.28483
G1 X15.879 Y108.377 E177.61306
G1 X15.949 Y108.088 E177.62691
G1 X16.086 Y107.825 E177.64071
G1 X16.224 Y107.686 E177.64983
G1 X16.551 Y107.491 E177.66756
G1 X16.852 Y107.431 E177.68185
G1 X16.541 Y107.356 E177.69675
G1 X16.278 Y107.219 E177.71056
G1 X16.139 Y107.081 E177.71968
G1 X15.944 Y106.754 E177.73741
G1 X15.879 Y106.426 E177.75298
G1 X15.879 Y98.377 E178.12777
G1 X15.949 Y98.088 E178.14162
G1 X16.086 Y97.825 E178.15543
G1 X16.224 Y97.686 E178.16455
G1 X16.551 Y97.491 E178.18228
G1 X16.852 Y97.431 E178.19657
G1 X16.541 Y97.356 E178.21146
G1 X16.278 Y97.219 E178.22527
G1 X16.139 Y97.081 E178.23439
G1 X15.944 Y96.754 E178.25212
G1 X15.879 Y96.426 E178.26769
G1 X15.879 Y88.377 E178.64249
G1 X15.949 Y88.088 E178.65633
G1 X16.086 Y87.825 E178.67014
G1 X16.224 Y87.686 E178.67926
G1 X16.551 Y87.491 E178.69699
G1 X16.852 Y87.431 E178.71128
G1 X16.541 Y87.356 E178.72618
G1 X16.278 Y87.219 E178.73999
G1 X16.139 Y87.081 E178.74911
G1 X15.944 Y86.754 E178.76684
G1 X15.879 Y86.426 E178.78241
G1 X15.879 Y84.377 E178.87782
G1 X15.949 Y84.088 E178.89166
G1 X16.086 Y83.825 E178.90547
G1 X16.224 Y83.686 E178.91459
G1 X16.551 Y83.491 E178.93232
G0 F6000 X16.879 Y83.826
G1 F1200 X217.879 Y83.826 E188.29172
G1 X218.123 Y83.885 E188.30341
G1 X218.275 Y83.976 E188.31166
G1 X218.436 Y84.246 E188.3263
G1 X218.479 Y84.426 E188.33491
G1 X218.479 Y86.426 E188.42804
G1 X218.42 Y86.67 E188.43973
G1 X218.329 Y86.822 E188.44798
G1 X218.059 Y86.983 E188.46262
G1 X217.879 Y87.026 E188.47124
G1 X16.879 Y87.026 E197.83064
G1 X16.635 Y86.967 E197.84233
G1 X16.483 Y86.876 E197.85058
G1 X16.322 Y86.606 E197.86521
G1 X16.279 Y86.426 E197.87383
G1 X16.279 Y84.426 E197.96696
G1 X16.338 Y84.182 E197.97865
G1 X16.429 Y84.03 E197.9869
G1 X16.699 Y83.869 E198.00154
G1 X16.879 Y83.826 E198.01015
G0 F6000 X16.879 Y84.226
G1 F1200 X217.879 Y84.226 E207.36956
G1 X217.998 Y84.265 E207.37539
G1 X218.079 Y84.426 E207.38378
G1 X218.079 Y86.426 E207.47691
G1 X218.04 Y86.545 E207.48274
G1 X217.879 Y86.626 E207.49113
G1 X16.879 Y86.626 E216.85053
G1 X16.76 Y86.587 E216.85636
G1 X16.679 Y86.426 E216.86476
G1 X16.679 Y84.426 E216.95788
G1 X16.718 Y84.307 E216.96372
G1 X16.879 Y84.226 E216.97211
G1 F2700 E211.97211
G0 F6000 X16.214 Y84.226
G0 X16.226 Y87.079
G0 X16.879 Y87.761
G0 X16.879 Y87.826
G1 F2700 E216.97211
G1 F1200 X217.879 Y87.826 E226.33151
G1 X218.123 Y87.885 E226.3432
G1 X218.275 Y87.976 E226.35145
G1 X218.436 Y88.246 E226.36609
