;FLAVOR:Marlin
;TIME:3387
;Filament used: 2.88862m
;Layer height: 0.28
;MINX:72.9
;MINY:78.2
;MINZ:0.28
;MAXX:156.8
;MAXY:149.3
;MAXZ:12.88
;Generated with Cura_SteamEngine 5.3.1
M140 S60
M105
M190 S60
M104 S195
M105
M109 S195
M82 ;absolute extrusion mode
; Ender 3 Custom Start G-code
G92 E0 ; Reset Extruder
G28 ; Home all axes
G1 Z2.0 F3000 ; Move Z Axis up little to prevent scratching of Heat Bed
G1 X0.1 Y20 Z0.3 F5000.0 ; Move to start position
G1 X0.1 Y200.0 Z0.3 F1500.0 E15 ; Draw the first line
G1 X0.4 Y200.0 Z0.3 F5000.0 ; Move to side a little
G1 X0.4 Y20 Z0.3 F1500.0 E30 ; Draw the second line
G92 E0 ; Reset Extruder
G1 Z2.0 F3000 ; Move Z Axis up little to prevent scratching of Heat Bed
G1 X5 Y20 Z0.3 F5000.0 ; Move over to prevent blob squish
G92 E0
G92 E0
G1 F2700 E-5
;LAYER_COUNT:46
;LAYER:0
M107
G0 F6000 X75.994 Y79.75 Z0.28
;TYPE:SKIRT
G1 F2700 E0
G1 F1200 X77.866 Y78.638 E0.10139
G1 X80.053 Y78.2 E0.20525
G1 X111.59 Y78.2 E1.67374
G1 X112.406 Y78.404 E1.71291
G1 X127.038 Y78.404 E2.39423
G1 X128.934 Y78.87 E2.48515
G1 X130.961 Y79.923 E2.59151
G1 X132.435 Y81.498 E2.69195
G1 X133.547 Y83.37 E2.79334
G1 X133.985 Y85.557 E2.8972
G1 X133.985 Y94.7 E3.32294
G1 X149.853 Y94.7 E4.06182
G1 X151.749 Y95.166 E4.15273
G1 X153.776 Y96.219 E4.25909
G1 X155.25 Y97.794 E4.35954
G1 X156.362 Y99.666 E4.46092
G1 X156.8 Y101.853 E4.56478
G1 X156.8 Y133.353 E6.03155
G1 X156.334 Y135.249 E6.12247
G1 X155.281 Y137.276 E6.22883
G1 X153.706 Y138.75 E6.32928
G1 X151.834 Y139.862 E6.43066
G1 X149.647 Y140.3 E6.53452
G1 X140.3 Y140.3 E6.96976
G1 X140.3 Y142.353 E7.06535
G1 X139.834 Y144.249 E7.15627
G1 X138.781 Y146.276 E7.26263
G1 X137.206 Y147.75 E7.36307
G1 X135.334 Y148.862 E7.46446
G1 X133.147 Y149.3 E7.56832
G1 X101.647 Y149.3 E9.03509
G1 X99.751 Y148.834 E9.126
G1 X97.724 Y147.781 E9.23237
G1 X96.25 Y146.206 E9.33281
G1 X95.138 Y144.334 E9.4342
G1 X94.7 Y142.147 E9.53806
G1 X94.7 Y140.3 E9.62406
G1 X85.147 Y140.3 E10.06889
G1 X83.251 Y139.834 E10.1598
G1 X81.224 Y138.781 E10.26616
G1 X79.75 Y137.206 E10.36661
G1 X78.638 Y135.334 E10.468
G1 X78.2 Y133.147 E10.57186
G1 X78.2 Y108.396 E11.72437
G1 X77.91 Y108.313 E11.73841
G1 X75.924 Y107.281 E11.84263
G1 X74.45 Y105.706 E11.94307
G1 X73.338 Y103.834 E12.04446
G1 X72.9 Y101.647 E12.14832
G1 X72.9 Y85.147 E12.91663
G1 X73.366 Y83.251 E13.00754
G1 X74.419 Y81.224 E13.1139
G1 X75.994 Y79.75 E13.21435
G0 F6000 X76.235 Y80.072
G1 F1200 X78.012 Y79.016 E13.3106
G1 X80.091 Y78.6 E13.40933
G1 X111.541 Y78.6 E14.87377
G1 X112.357 Y78.804 E14.91294
G1 X126.992 Y78.804 E15.5944
G1 X128.791 Y79.246 E15.68066
G1 X130.716 Y80.246 E15.78167
G1 X132.113 Y81.739 E15.87688
G1 X133.169 Y83.516 E15.97313
G1 X133.585 Y85.595 E16.07186
G1 X133.585 Y95.1 E16.51445
G1 X149.807 Y95.1 E17.26982
G1 X151.606 Y95.542 E17.35608
G1 X153.531 Y96.542 E17.45709
G1 X154.928 Y98.035 E17.55229
G1 X155.984 Y99.812 E17.64855
G1 X156.4 Y101.891 E17.74727
G1 X156.4 Y133.307 E19.21013
G1 X155.958 Y135.106 E19.29639
G1 X154.958 Y137.031 E19.3974
G1 X153.465 Y138.428 E19.49261
G1 X151.688 Y139.484 E19.58886
G1 X149.609 Y139.9 E19.68759
G1 X139.9 Y139.9 E20.13968
G1 X139.9 Y142.307 E20.25176
G1 X139.458 Y144.106 E20.33802
G1 X138.458 Y146.031 E20.43903
G1 X136.965 Y147.428 E20.53424
G1 X135.188 Y148.484 E20.63049
G1 X133.109 Y148.9 E20.72922
G1 X101.693 Y148.9 E22.19208
G1 X99.894 Y148.458 E22.27834
G1 X97.969 Y147.458 E22.37935
G1 X96.572 Y145.965 E22.47456
G1 X95.516 Y144.188 E22.57081
G1 X95.1 Y142.109 E22.66953
G1 X95.1 Y139.9 E22.77239
G1 X85.193 Y139.9 E23.23371
G1 X83.394 Y139.458 E23.31997
G1 X81.469 Y138.458 E23.42097
G1 X80.072 Y136.965 E23.51618
G1 X79.016 Y135.188 E23.61244
G1 X78.6 Y133.109 E23.71116
G1 X78.6 Y108.082 E24.87652
G1 X78.094 Y107.958 E24.90078
G1 X76.169 Y106.958 E25.00179
G1 X74.772 Y105.465 E25.097
G1 X73.716 Y103.688 E25.19325
G1 X73.3 Y101.609 E25.29198
G1 X73.3 Y85.193 E26.05638
G1 X73.742 Y83.394 E26.14264
G1 X74.742 Y81.469 E26.24364
G1 X76.235 Y80.072 E26.33885
G0 F6000 X76.476 Y80.394
G1 F1200 X78.158 Y79.395 E26.42995
G1 X80.13 Y79 E26.52359
G1 X111.492 Y79 E27.98394
G1 X112.308 Y79.204 E28.02311
G1 X126.945 Y79.204 E28.70467
G1 X128.649 Y79.623 E28.78638
G1 X130.471 Y80.569 E28.88197
G1 X131.791 Y81.98 E28.97194
G1 X132.79 Y83.662 E29.06303
G1 X133.185 Y85.634 E29.15668
G1 X133.185 Y95.549 E29.61837
G1 X133.468 Y95.5 E29.63174
G1 X149.76 Y95.5 E30.39036
G1 X151.464 Y95.919 E30.47207
G1 X153.286 Y96.865 E30.56767
G1 X154.606 Y98.276 E30.65764
G1 X155.605 Y99.958 E30.74873
G1 X156 Y101.93 E30.84238
G1 X156 Y133.26 E32.30124
G1 X155.581 Y134.964 E32.38294
G1 X154.635 Y136.786 E32.47854
G1 X153.224 Y138.106 E32.56851
G1 X151.542 Y139.105 E32.6596
G1 X149.57 Y139.5 E32.75325
G1 X139.5 Y139.5 E33.22215
G1 X139.5 Y142.26 E33.35067
G1 X139.081 Y143.964 E33.43238
G1 X138.135 Y145.786 E33.52797
G1 X136.724 Y147.106 E33.61794
G1 X135.042 Y148.105 E33.70904
G1 X133.07 Y148.5 E33.80268
G1 X101.74 Y148.5 E35.26154
G1 X100.036 Y148.081 E35.34325
G1 X98.214 Y147.135 E35.43884
G1 X96.894 Y145.724 E35.52881
G1 X95.895 Y144.042 E35.61991
G1 X95.5 Y142.07 E35.71356
G1 X95.5 Y139.5 E35.83323
G1 X85.24 Y139.5 E36.31097
G1 X83.536 Y139.081 E36.39268
G1 X81.714 Y138.135 E36.48828
G1 X80.394 Y136.724 E36.57825
G1 X79.395 Y135.042 E36.66934
G1 X79 Y133.07 E36.76299
G1 X79 Y107.769 E37.94111
G1 X78.236 Y107.581 E37.97775
G1 X76.414 Y106.635 E38.07334
G1 X75.094 Y105.224 E38.16331
G1 X74.095 Y103.542 E38.25441
G1 X73.7 Y101.57 E38.34805
G1 X73.7 Y85.24 E39.10845
G1 X74.119 Y83.536 E39.19016
G1 X75.065 Y81.714 E39.28575
G1 X76.476 Y80.394 E39.37572
G0 F6000 X76.717 Y80.716
G1 F1200 X78.304 Y79.773 E39.46168
G1 X80.168 Y79.4 E39.5502
G1 X111.443 Y79.4 E41.00649
G1 X112.259 Y79.604 E41.04566
G1 X126.899 Y79.604 E41.72736
G1 X128.506 Y79.999 E41.80441
G1 X130.226 Y80.892 E41.89465
G1 X131.469 Y82.221 E41.97939
G1 X132.412 Y83.808 E42.06534
G1 X132.785 Y85.672 E42.15386
G1 X132.785 Y96.036 E42.63645
G1 X133.468 Y95.9 E42.66888
G1 X149.714 Y95.9 E43.42536
G1 X151.321 Y96.295 E43.50242
G1 X153.041 Y97.188 E43.59266
G1 X154.284 Y98.517 E43.67739
G1 X155.227 Y100.104 E43.76335
G1 X155.6 Y101.968 E43.85187
G1 X155.6 Y133.214 E45.30681
G1 X155.205 Y134.821 E45.38387
G1 X154.312 Y136.541 E45.47411
G1 X152.983 Y137.784 E45.55884
G1 X151.396 Y138.727 E45.6448
G1 X149.532 Y139.1 E45.73332
G1 X139.1 Y139.1 E46.21907
G1 X139.1 Y142.214 E46.36408
G1 X138.705 Y143.821 E46.44113
G1 X137.812 Y145.541 E46.53137
G1 X136.483 Y146.784 E46.61611
G1 X134.896 Y147.727 E46.70206
G1 X133.032 Y148.1 E46.79058
G1 X101.786 Y148.1 E48.24553
G1 X100.179 Y147.705 E48.32258
G1 X98.459 Y146.812 E48.41282
G1 X97.216 Y145.483 E48.49756
G1 X96.273 Y143.896 E48.58351
G1 X95.9 Y142.032 E48.67203
G1 X95.9 Y139.1 E48.80856
G1 X85.286 Y139.1 E49.30279
G1 X83.679 Y138.705 E49.37984
G1 X81.959 Y137.812 E49.47009
G1 X80.716 Y136.483 E49.55482
G1 X79.773 Y134.896 E49.64078
G1 X79.4 Y133.032 E49.72929
G1 X79.4 Y107.456 E50.92022
G1 X78.379 Y107.205 E50.96918
G1 X76.659 Y106.312 E51.05942
G1 X75.416 Y104.983 E51.14415
G1 X74.473 Y103.396 E51.23011
G1 X74.1 Y101.532 E51.31863
G1 X74.1 Y85.286 E52.07511
G1 X74.495 Y83.679 E52.15216
G1 X75.388 Y81.959 E52.24241
G1 X76.717 Y80.716 E52.32714
G1 F2700 E47.32714
G0 F6000 X75.711 Y82.204
G1 F2700 E52.32714
G1 F1200 X76.958 Y81.038 E52.40663
G1 X78.45 Y80.151 E52.48746
G1 X80.206 Y79.8 E52.57084
G1 X111.394 Y79.8 E54.02309
G1 X112.21 Y80.004 E54.06225
G1 X126.853 Y80.004 E54.74409
G1 X128.363 Y80.375 E54.81649
G1 X129.981 Y81.215 E54.90138
G1 X131.147 Y82.462 E54.98088
G1 X132.034 Y83.954 E55.0617
G1 X132.385 Y85.71 E55.14509
G1 X132.385 Y96.524 E55.64863
G1 X133.506 Y96.3 E55.70186
G1 X149.668 Y96.3 E56.45443
G1 X151.178 Y96.671 E56.52683
G1 X152.796 Y97.511 E56.61172
G1 X153.962 Y98.758 E56.69122
G1 X154.849 Y100.25 E56.77204
G1 X155.2 Y102.006 E56.85543
G1 X155.2 Y133.168 E58.30646
G1 X154.829 Y134.678 E58.37886
G1 X153.989 Y136.296 E58.46375
G1 X152.742 Y137.462 E58.54325
G1 X151.25 Y138.349 E58.62407
G1 X149.494 Y138.7 E58.70745
G1 X138.7 Y138.7 E59.21007
G1 X138.7 Y142.168 E59.37155
G1 X138.329 Y143.678 E59.44396
G1 X137.489 Y145.296 E59.52885
G1 X136.242 Y146.462 E59.60834
G1 X134.75 Y147.349 E59.68916
G1 X132.994 Y147.7 E59.77255
G1 X101.832 Y147.7 E61.22358
G1 X100.322 Y147.329 E61.29598
G1 X98.704 Y146.489 E61.38087
G1 X97.538 Y145.242 E61.46037
G1 X96.651 Y143.75 E61.54119
G1 X96.3 Y141.994 E61.62458
G1 X96.3 Y138.7 E61.77796
G1 X85.332 Y138.7 E62.28867
G1 X83.822 Y138.329 E62.36108
G1 X82.204 Y137.489 E62.44597
G1 X81.038 Y136.242 E62.52546
G1 X80.151 Y134.75 E62.60629
G1 X79.8 Y132.994 E62.68967
G1 X79.8 Y107.143 E63.8934
G1 X78.522 Y106.829 E63.95468
G1 X76.904 Y105.989 E64.03957
G1 X75.738 Y104.742 E64.11906
G1 X74.851 Y103.25 E64.19989
G1 X74.5 Y101.494 E64.28327
G1 X74.5 Y85.332 E65.03584
G1 X74.871 Y83.822 E65.10824
G1 X75.711 Y82.204 E65.19313
G0 F6000 X76.034 Y82.449
G1 F1200 X77.199 Y81.36 E65.26739
G1 X78.596 Y80.529 E65.34308
G1 X80.244 Y80.2 E65.42133
G1 X111.345 Y80.2 E66.86952
G1 X112.161 Y80.404 E66.90869
G1 X126.806 Y80.404 E67.59062
G1 X128.221 Y80.752 E67.65847
G1 X129.736 Y81.538 E67.73795
G1 X130.825 Y82.703 E67.81221
G1 X131.656 Y84.1 E67.88789
G1 X131.985 Y85.748 E67.96615
G1 X131.985 Y97.012 E68.49065
G1 X133.544 Y96.7 E68.56468
G1 X149.621 Y96.7 E69.31329
G1 X151.036 Y97.048 E69.38114
G1 X152.551 Y97.834 E69.46062
G1 X153.64 Y98.999 E69.53487
G1 X154.471 Y100.396 E69.61056
G1 X154.8 Y102.044 E69.68881
G1 X154.8 Y133.121 E71.13589
G1 X154.452 Y134.536 E71.20374
G1 X153.666 Y136.051 E71.28322
G1 X152.501 Y137.14 E71.35747
G1 X151.104 Y137.971 E71.43316
G1 X149.456 Y138.3 E71.51141
G1 X138.3 Y138.3 E72.03088
G1 X138.3 Y142.121 E72.20881
G1 X137.952 Y143.536 E72.27666
G1 X137.166 Y145.051 E72.35613
G1 X136.001 Y146.14 E72.43039
G1 X134.604 Y146.971 E72.50608
G1 X132.956 Y147.3 E72.58433
G1 X101.879 Y147.3 E74.0314
G1 X100.464 Y146.952 E74.09926
G1 X98.949 Y146.166 E74.17873
G1 X97.86 Y145.001 E74.25299
G1 X97.029 Y143.604 E74.32868
G1 X96.7 Y141.956 E74.40693
G1 X96.7 Y138.3 E74.57717
G1 X85.379 Y138.3 E75.10432
G1 X83.964 Y137.952 E75.17217
G1 X82.449 Y137.166 E75.25164
G1 X81.36 Y136.001 E75.3259
G1 X80.529 Y134.604 E75.40159
G1 X80.2 Y132.956 E75.47984
G1 X80.2 Y106.8 E76.69778
G1 X80.03 Y106.788 E76.70571
G1 X78.664 Y106.452 E76.77121
G1 X77.149 Y105.666 E76.85069
G1 X76.06 Y104.501 E76.92494
G1 X75.229 Y103.104 E77.00063
G1 X74.9 Y101.456 E77.07889
G1 X74.9 Y85.379 E77.8275
G1 X75.248 Y83.964 E77.89535
G1 X76.034 Y82.449 E77.97482
G0 F6000 X76.357 Y82.694
G1 F1200 X77.438 Y81.684 E78.04371
G1 X78.744 Y80.907 E78.11447
G1 X80.282 Y80.6 E78.1875
G1 X111.296 Y80.6 E79.63164
G1 X112.112 Y80.804 E79.67081
G1 X126.76 Y80.804 E80.35288
G1 X128.078 Y81.128 E80.41608
G1 X129.491 Y81.861 E80.4902
G1 X130.501 Y82.942 E80.55909
G1 X131.278 Y84.248 E80.62985
G1 X131.585 Y85.786 E80.70288
G1 X131.585 Y97.681 E81.25676
G1 X132.046 Y97.407 E81.28173
G1 X133.582 Y97.1 E81.35467
G1 X149.575 Y97.1 E82.09937
G1 X150.893 Y97.424 E82.16257
G1 X152.306 Y98.157 E82.23669
G1 X153.316 Y99.238 E82.30558
G1 X154.093 Y100.544 E82.37634
G1 X154.4 Y102.082 E82.44937
G1 X154.4 Y133.075 E83.89253
G1 X154.076 Y134.393 E83.95573
G1 X153.343 Y135.806 E84.02985
G1 X152.262 Y136.816 E84.09874
G1 X150.956 Y137.593 E84.1695
G1 X149.418 Y137.9 E84.24253
G1 X137.9 Y137.9 E84.77886
G1 X137.9 Y142.075 E84.97326
G1 X137.576 Y143.393 E85.03646
G1 X136.843 Y144.806 E85.11058
G1 X135.762 Y145.816 E85.17947
G1 X134.456 Y146.593 E85.25023
G1 X132.918 Y146.9 E85.32326
G1 X101.925 Y146.9 E86.76642
G1 X100.607 Y146.576 E86.82962
G1 X99.194 Y145.843 E86.90374
G1 X98.184 Y144.762 E86.97263
G1 X97.407 Y143.456 E87.04339
G1 X97.1 Y141.918 E87.11642
G1 X97.1 Y137.9 E87.30352
G1 X85.425 Y137.9 E87.84715
G1 X84.107 Y137.576 E87.91035
G1 X82.694 Y136.843 E87.98447
G1 X81.684 Y135.762 E88.05336
G1 X80.907 Y134.456 E88.12412
G1 X80.6 Y132.918 E88.19715
G1 X80.6 Y106.4 E89.43194
G1 X80.125 Y106.4 E89.45406
G1 X78.807 Y106.076 E89.51726
G1 X77.394 Y105.343 E89.59138
G1 X76.384 Y104.262 E89.66027
G1 X75.607 Y102.956 E89.73103
G1 X75.3 Y101.418 E89.80406
G1 X75.3 Y85.425 E90.54876
G1 X75.624 Y84.107 E90.61196
G1 X76.357 Y82.694 E90.68608
G0 F6000 X76.68 Y82.939
G1 F1200 X77.677 Y82.008 E90.7496
G1 X78.892 Y81.285 E90.81543
G1 X80.32 Y81 E90.88324
G1 X111.247 Y81 E92.32333
G1 X112.063 Y81.204 E92.36249
G1 X126.714 Y81.204 E93.0447
G1 X127.935 Y81.504 E93.10325
G1 X129.246 Y82.184 E93.17202
G1 X130.177 Y83.181 E93.23554
G1 X130.9 Y84.396 E93.30137
G1 X131.185 Y85.824 E93.36918
G1 X131.185 Y98.384 E93.95402
G1 X132.192 Y97.785 E94.00858
G1 X133.62 Y97.5 E94.07639
G1 X149.529 Y97.5 E94.81718
G1 X150.75 Y97.8 E94.87572
G1 X152.061 Y98.48 E94.94449
G1 X152.992 Y99.477 E95.00801
G1 X153.715 Y100.692 E95.07384
G1 X154 Y102.12 E95.14165
G1 X154 Y133.029 E96.5809
G1 X153.7 Y134.25 E96.63945
G1 X153.02 Y135.561 E96.70822
G1 X152.023 Y136.492 E96.77173
G1 X150.808 Y137.215 E96.83757
G1 X149.38 Y137.5 E96.90537
G1 X137.5 Y137.5 E97.45856
G1 X137.5 Y142.029 E97.66944
G1 X137.2 Y143.25 E97.72799
G1 X136.52 Y144.561 E97.79676
G1 X135.523 Y145.492 E97.86028
G1 X134.308 Y146.215 E97.92611
G1 X132.88 Y146.5 E97.99392
G1 X101.971 Y146.5 E99.43317
G1 X100.75 Y146.2 E99.49172
G1 X99.439 Y145.52 E99.56048
G1 X98.508 Y144.523 E99.624
G1 X97.785 Y143.308 E99.68984
G1 X97.5 Y141.88 E99.75764
G1 X97.5 Y137.5 E99.96159
G1 X85.471 Y137.5 E100.52171
G1 X84.25 Y137.2 E100.58026
G1 X82.939 Y136.52 E100.64903
G1 X82.008 Y135.523 E100.71255
G1 X81.285 Y134.308 E100.77838
G1 X81 Y132.88 E100.84619
G1 X81 Y106 E102.09783
G1 X80.171 Y106 E102.13643
G1 X78.95 Y105.7 E102.19498
G1 X77.639 Y105.02 E102.26375
G1 X76.708 Y104.023 E102.32727
G1 X75.985 Y102.808 E102.3931
G1 X75.7 Y101.38 E102.46091
G1 X75.7 Y85.471 E103.2017
G1 X76 Y84.25 E103.26024
G1 X76.68 Y82.939 E103.32901
G0 F6000 X77.003 Y83.184
G1 F1200 X76.376 Y84.393 E103.39243
G1 X76.1 Y85.517 E103.44632
G1 X76.1 Y101.342 E104.1832
G1 X76.363 Y102.66 E104.24578
G1 X77.032 Y103.784 E104.30669
G1 X77.884 Y104.697 E104.36484
G1 X79.093 Y105.324 E104.42825
G1 X80.217 Y105.6 E104.48215
G1 X81.4 Y105.6 E104.53723
G1 X81.4 Y132.842 E105.80573
G1 X81.663 Y134.16 E105.86831
G1 X82.332 Y135.284 E105.92922
G1 X83.184 Y136.197 E105.98737
G1 X84.393 Y136.824 E106.05079
G1 X85.517 Y137.1 E106.10468
G1 X97.9 Y137.1 E106.68128
G1 X97.9 Y141.842 E106.90209
G1 X98.163 Y143.16 E106.96467
G1 X98.832 Y144.284 E107.02558
G1 X99.684 Y145.197 E107.08373
G1 X100.893 Y145.824 E107.14715
G1 X102.017 Y146.1 E107.20104
G1 X132.842 Y146.1 E108.63638
G1 X134.16 Y145.837 E108.69896
G1 X135.284 Y145.168 E108.75987
G1 X136.197 Y144.316 E108.81802
G1 X136.824 Y143.107 E108.88143
G1 X137.1 Y141.983 E108.93533
G1 X137.1 Y137.1 E109.1627
G1 X149.342 Y137.1 E109.73274
G1 X150.66 Y136.837 E109.79532
G1 X151.784 Y136.168 E109.85623
G1 X152.697 Y135.316 E109.91438
G1 X153.324 Y134.107 E109.97779
G1 X153.6 Y132.983 E110.03168
G1 X153.6 Y102.158 E111.46703
G1 X153.337 Y100.84 E111.52961
G1 X152.668 Y99.716 E111.59051
G1 X151.816 Y98.803 E111.64866
G1 X150.607 Y98.176 E111.71208
G1 X149.483 Y97.9 E111.76597
G1 X133.658 Y97.9 E112.50285
G1 X132.34 Y98.163 E112.56543
G1 X131.216 Y98.832 E112.62634
G1 X130.785 Y99.234 E112.65378
G1 X130.785 Y85.862 E113.27644
G1 X130.522 Y84.544 E113.33902
G1 X129.853 Y83.42 E113.39993
G1 X129.001 Y82.507 E113.45808
G1 X127.792 Y81.88 E113.52149
G1 X126.668 Y81.604 E113.57539
G1 X112.014 Y81.604 E114.25774
G1 X111.198 Y81.4 E114.2969
G1 X80.358 Y81.4 E115.73294
G1 X79.04 Y81.663 E115.79553
G1 X77.916 Y82.332 E115.85643
G1 X77.003 Y83.184 E115.91458
G0 F6000 X77.325 Y83.431
G1 F1200 X78.158 Y82.654 E115.96762
G1 X79.188 Y82.041 E116.02344
G1 X80.396 Y81.8 E116.08079
G1 X111.149 Y81.8 E117.51278
G1 X111.965 Y82.004 E117.55195
G1 X126.621 Y82.004 E118.23439
G1 X127.65 Y82.257 E118.28374
G1 X128.754 Y82.829 E118.34163
G1 X129.531 Y83.662 E118.39468
G1 X130.144 Y84.692 E118.45049
G1 X130.385 Y85.9 E118.50785
G1 X130.385 Y100.394 E119.18275
G1 X130.625 Y99.931 E119.20703
G1 X131.458 Y99.154 E119.26007
