;FLAVOR:Marlin
;TIME:15717
;Filament used: 13.8165m
;Layer height: 0.28
;MINX:5.484
;MINY:27.608
;MINZ:0.28
;MAXX:221.484
;MAXY:217.178
;MAXZ:14
;Generated with Cura_SteamEngine 5.3.1
M140 S50
M105
M190 S50
M104 S200
M105
M109 S200
M82 ;absolute extrusion mode
; Ender 3 Custom Start G-code
G92 E0 ; Reset Extruder
G28 ; Home all axes
G1 Z2.0 F3000 ; Move Z Axis up little to prevent scratching of Heat Bed
G1 X0.1 Y20 Z0.3 F5000.0 ; Move to start position
G1 X0.1 Y200.0 Z0.3 F1500.0 E15 ; Draw the first line
G1 X0.4 Y200.0 Z0.3 F5000.0 ; Move to side a little
G1 X0.4 Y20 Z0.3 F1500.0 E30 ; Draw the second line
G92 E0 ; Reset Extruder
G1 Z2.0 F3000 ; Move Z Axis up little to prevent scratching of Heat Bed
G1 X5 Y20 Z0.3 F5000.0 ; Move over to prevent blob squish
G92 E0
G92 E0
G1 F2700 E-5
;LAYER_COUNT:50
;LAYER:0
M107
G0 F6000 X46.019 Y60.172 Z0.28
;TYPE:SKIRT
G1 F2700 E0
G1 F1200 X48.007 Y58.61 E0.11773
G1 X49.952 Y56.992 E0.23553
G1 X51.883 Y55.29 E0.35539
G1 X53.721 Y53.577 E0.47238
G1 X55.528 Y51.791 E0.59069
G1 X57.292 Y49.95 E0.70941
G1 X58.995 Y48.066 E0.82767
G1 X60.661 Y46.116 E0.94709
G1 X62.236 Y44.163 E1.06392
G1 X63.762 Y42.157 E1.18128
G1 X65.273 Y40.05 E1.30202
G1 X66.662 Y37.994 E1.41755
G1 X68.038 Y35.825 E1.53716
G1 X69.481 Y33.4 E1.66856
G1 X69.977 Y32.646 E1.71058
G1 X70.537 Y31.938 E1.75261
G1 X71.158 Y31.282 E1.79468
G1 X71.835 Y30.684 E1.83674
G1 X72.562 Y30.148 E1.8788
G1 X73.333 Y29.678 E1.92084
G1 X74.143 Y29.279 E1.96289
G1 X74.985 Y28.952 E2.00495
G1 X75.853 Y28.702 E2.04701
G1 X76.739 Y28.529 E2.08904
G1 X77.962 Y28.421 E2.14621
G1 X78.569 Y28.408 E2.17448
G1 X181.678 Y28.409 E6.97567
G1 X182.377 Y28.419 E7.00822
G1 X183.278 Y28.472 E7.05025
G1 X184.172 Y28.604 E7.09233
G1 X185.05 Y28.815 E7.13437
G1 X185.906 Y29.103 E7.17643
G1 X186.733 Y29.465 E7.21846
G1 X187.525 Y29.899 E7.26052
G1 X188.276 Y30.402 E7.30261
G1 X188.979 Y30.969 E7.34466
G1 X189.629 Y31.596 E7.38671
G1 X190.221 Y32.278 E7.42877
G1 X190.75 Y33.009 E7.47078
G1 X191.213 Y33.785 E7.51286
G1 X191.605 Y34.598 E7.55489
G1 X192.022 Y35.759 E7.61233
G1 X192.272 Y36.618 E7.65399
G1 X192.587 Y37.755 E7.70893
G1 X193.337 Y40.194 E7.82774
G1 X194.147 Y42.582 E7.94516
G1 X195.039 Y44.991 E8.06478
G1 X195.984 Y47.334 E8.18242
G1 X197.003 Y49.67 E8.30109
G1 X198.076 Y51.952 E8.41851
G1 X199.235 Y54.245 E8.53815
G1 X200.427 Y56.446 E8.6547
G1 X201.702 Y58.649 E8.77322
G1 X203.052 Y60.836 E8.8929
G1 X204.431 Y62.935 E9.00984
G1 X205.895 Y65.031 E9.12889
G1 X207.403 Y67.068 E9.2469
G1 X208.953 Y69.04 E9.3637
G1 X210.606 Y71.025 E9.48398
G1 X212.284 Y72.927 E9.60208
G1 X214.018 Y74.786 E9.72046
G1 X215.796 Y76.588 E9.83834
G1 X217.537 Y78.259 E9.9507
G1 X218.161 Y78.912 E9.99276
G1 X218.724 Y79.618 E10.03481
G1 X219.222 Y80.372 E10.07688
G1 X219.652 Y81.166 E10.11893
G1 X220.009 Y81.995 E10.16096
G1 X220.292 Y82.853 E10.20303
G1 X220.498 Y83.732 E10.24507
G1 X220.626 Y84.626 E10.28712
G1 X220.669 Y85.303 E10.31871
G1 X220.684 Y85.942 E10.34847
G1 X220.683 Y122.027 E12.02874
G1 X220.673 Y122.749 E12.06236
G1 X220.621 Y123.651 E12.10443
G1 X220.489 Y124.544 E12.14646
G1 X220.278 Y125.422 E12.18851
G1 X219.991 Y126.279 E12.2306
G1 X219.515 Y127.33 E12.28432
G1 X218.216 Y129.818 E12.41501
G1 X217.094 Y132.125 E12.53447
G1 X216.055 Y134.424 E12.65194
G1 X215.069 Y136.787 E12.77117
G1 X214.164 Y139.137 E12.88843
G1 X213.315 Y141.54 E13.0071
G1 X212.535 Y143.965 E13.12571
G1 X211.835 Y146.375 E13.24257
G1 X211.187 Y148.86 E13.36215
G1 X210.612 Y151.362 E13.48169
G1 X210.123 Y153.8 E13.59748
G1 X209.692 Y156.321 E13.71657
G1 X209.334 Y158.833 E13.83472
G1 X209.046 Y161.366 E13.95343
G1 X208.834 Y163.854 E14.0697
G1 X208.688 Y166.433 E14.18998
G1 X208.615 Y168.991 E14.30914
G1 X208.606 Y170.305 E14.37033
G1 X208.605 Y189.263 E15.25309
G1 X208.594 Y189.99 E15.28695
G1 X208.54 Y190.892 E15.32902
G1 X208.407 Y191.785 E15.37106
G1 X208.195 Y192.663 E15.41312
G1 X207.907 Y193.519 E15.45518
G1 X207.544 Y194.346 E15.49723
G1 X207.109 Y195.137 E15.53927
G1 X206.606 Y195.887 E15.58132
G1 X206.039 Y196.59 E15.62337
G1 X205.411 Y197.24 E15.66546
G1 X204.729 Y197.831 E15.70748
G1 X203.997 Y198.36 E15.74953
G1 X203.221 Y198.822 E15.79159
G1 X202.407 Y199.214 E15.83365
G1 X201.562 Y199.532 E15.8757
G1 X200.692 Y199.774 E15.91774
G1 X199.804 Y199.938 E15.95979
G1 X198.683 Y200.032 E16.01217
G1 X198.076 Y200.045 E16.04045
G1 X168.426 Y200.045 E17.42107
G1 X165.82 Y200.082 E17.54243
G1 X163.255 Y200.191 E17.66198
G1 X160.748 Y200.369 E17.77901
G1 X158.207 Y200.62 E17.8979
G1 X155.699 Y200.941 E18.01564
G1 X153.194 Y201.335 E18.13372
G1 X150.707 Y201.797 E18.2515
G1 X148.193 Y202.338 E18.37124
G1 X145.747 Y202.937 E18.48851
G1 X143.303 Y203.61 E18.60654
G1 X140.868 Y204.355 E18.72512
G1 X138.466 Y205.166 E18.84317
G1 X136.053 Y206.056 E18.96293
G1 X133.746 Y206.982 E19.07868
G1 X131.375 Y208.014 E19.19909
G1 X129.069 Y209.095 E19.31768
G1 X126.827 Y210.224 E19.43456
G1 X124.569 Y211.444 E19.55407
G1 X122.406 Y212.691 E19.67033
G1 X120.104 Y214.108 E19.7962
G1 X119.034 Y214.79 E19.85528
G1 X118.251 Y215.241 E19.89736
G1 X117.432 Y215.621 E19.9394
G1 X116.582 Y215.926 E19.98145
G1 X115.709 Y216.156 E20.02349
G1 X114.818 Y216.307 E20.06557
G1 X113.918 Y216.38 E20.10761
G1 X113.015 Y216.372 E20.14966
G1 X112.116 Y216.284 E20.19172
G1 X110.963 Y216.051 E20.2465
G1 X109.99 Y215.794 E20.29336
G1 X36.327 Y195.227 E23.8546
G1 X35.668 Y195.032 E23.8866
G1 X34.814 Y194.737 E23.92867
G1 X33.99 Y194.369 E23.9707
G1 X33.201 Y193.929 E24.01276
G1 X32.455 Y193.42 E24.05481
G1 X31.756 Y192.848 E24.09687
G1 X31.111 Y192.216 E24.13892
G1 X30.524 Y191.53 E24.18096
G1 X30 Y190.794 E24.22303
G1 X29.543 Y190.015 E24.26509
G1 X29.157 Y189.199 E24.30712
G1 X28.845 Y188.351 E24.34919
G1 X28.608 Y187.48 E24.39122
G1 X28.45 Y186.591 E24.43327
G1 X28.363 Y185.395 E24.48911
G1 X28.346 Y184.169 E24.5462
G1 X28.275 Y181.56 E24.66773
G1 X28.135 Y179.032 E24.78563
G1 X27.923 Y176.499 E24.90399
G1 X27.641 Y173.988 E25.02164
G1 X27.287 Y171.477 E25.13972
G1 X26.856 Y168.938 E25.25964
G1 X26.368 Y166.484 E25.37615
G1 X25.798 Y163.996 E25.495
G1 X25.157 Y161.524 E25.61391
G1 X24.457 Y159.098 E25.73149
G1 X23.688 Y156.698 E25.84884
G1 X22.828 Y154.253 E25.96952
G1 X21.941 Y151.938 E26.08496
G1 X20.953 Y149.568 E26.20452
G1 X19.901 Y147.231 E26.32386
G1 X18.808 Y144.975 E26.44059
G1 X17.632 Y142.712 E26.55934
G1 X16.394 Y140.488 E26.67787
G1 X15.079 Y138.276 E26.79769
G1 X13.743 Y136.165 E26.91402
G1 X12.316 Y134.047 E27.03294
G1 X10.853 Y132.002 E27.15002
G1 X9.259 Y129.901 E27.27282
G1 X8.502 Y128.946 E27.32957
G1 X7.972 Y128.214 E27.37165
G1 X7.51 Y127.439 E27.41366
G1 X7.118 Y126.625 E27.45573
G1 X6.799 Y125.78 E27.49779
G1 X6.557 Y124.91 E27.53984
G1 X6.392 Y124.022 E27.58189
G1 X6.299 Y122.921 E27.63334
G1 X6.284 Y122.282 E27.66311
G1 X6.285 Y86.162 E29.34501
G1 X6.295 Y85.472 E29.37714
G1 X6.348 Y84.571 E29.41916
G1 X6.481 Y83.677 E29.46125
G1 X6.692 Y82.799 E29.5033
G1 X6.98 Y81.943 E29.54535
G1 X7.342 Y81.116 E29.58739
G1 X7.776 Y80.324 E29.62944
G1 X8.279 Y79.574 E29.67149
G1 X8.846 Y78.871 E29.71355
G1 X9.473 Y78.221 E29.7556
G1 X10.155 Y77.629 E29.79765
G1 X10.887 Y77.1 E29.83971
G1 X11.662 Y76.637 E29.88174
G1 X12.476 Y76.245 E29.92381
G1 X13.321 Y75.926 E29.96587
G1 X13.789 Y75.785 E29.98863
G1 X16.714 Y74.981 E30.12988
G1 X19.153 Y74.23 E30.24871
G1 X21.517 Y73.431 E30.36491
G1 X23.934 Y72.536 E30.48492
G1 X26.275 Y71.592 E30.60246
G1 X28.62 Y70.57 E30.72157
G1 X30.911 Y69.492 E30.83947
G1 X33.178 Y68.347 E30.95773
G1 X35.398 Y67.146 E31.07526
G1 X37.58 Y65.883 E31.19266
G1 X39.773 Y64.532 E31.31259
G1 X41.893 Y63.14 E31.43069
G1 X43.964 Y61.694 E31.5483
G1 X46.019 Y60.172 E31.66738
G0 F6000 X45.772 Y59.857
G1 F1200 X47.751 Y58.302 E31.78457
G1 X49.696 Y56.685 E31.90235
G1 X51.61 Y54.997 E32.02118
G1 X53.449 Y53.285 E32.13818
G1 X55.239 Y51.514 E32.25543
G1 X57.003 Y49.673 E32.37415
G1 X58.698 Y47.798 E32.49185
G1 X60.357 Y45.856 E32.61078
G1 X61.925 Y43.912 E32.72708
G1 X63.437 Y41.924 E32.84338
G1 X64.948 Y39.817 E32.96411
G1 X66.324 Y37.78 E33.07857
G1 X67.694 Y35.62 E33.19768
G1 X69.147 Y33.18 E33.32991
G1 X69.663 Y32.398 E33.37354
G1 X70.223 Y31.69 E33.41557
G1 X70.893 Y30.982 E33.46096
G1 X71.57 Y30.384 E33.50302
G1 X72.354 Y29.806 E33.54838
G1 X73.156 Y29.319 E33.59207
G1 X73.966 Y28.92 E33.63411
G1 X74.84 Y28.579 E33.6778
G1 X75.776 Y28.309 E33.72316
G1 X76.662 Y28.136 E33.76519
G1 X77.953 Y28.021 E33.82554
G1 X78.569 Y28.008 E33.85423
G1 X181.684 Y28.009 E38.6557
G1 X182.383 Y28.019 E38.68825
G1 X183.336 Y28.076 E38.73271
G1 X184.23 Y28.208 E38.77479
G1 X185.178 Y28.436 E38.82019
G1 X186.034 Y28.724 E38.86224
G1 X186.925 Y29.114 E38.90753
G1 X187.717 Y29.548 E38.94958
G1 X188.499 Y30.07 E38.99337
G1 X189.257 Y30.681 E39.0387
G1 X189.907 Y31.308 E39.08075
G1 X190.545 Y32.043 E39.12607
G1 X191.094 Y32.804 E39.16977
G1 X191.557 Y33.58 E39.21184
G1 X191.965 Y34.424 E39.25549
G1 X192.406 Y35.647 E39.31603
G1 X192.657 Y36.511 E39.35793
G1 X192.969 Y37.637 E39.41233
G1 X193.716 Y40.066 E39.53067
G1 X194.522 Y42.443 E39.64754
G1 X195.41 Y44.841 E39.76661
G1 X196.351 Y47.174 E39.88375
G1 X197.37 Y49.51 E40.00242
G1 X198.433 Y51.772 E40.1188
G1 X199.587 Y54.055 E40.23791
G1 X200.779 Y56.256 E40.35447
G1 X202.042 Y58.439 E40.4719
G1 X203.386 Y60.616 E40.59104
G1 X204.759 Y62.706 E40.70748
G1 X206.223 Y64.802 E40.82652
G1 X207.717 Y66.821 E40.94348
G1 X209.26 Y68.784 E41.05974
G1 X210.906 Y70.76 E41.17949
G1 X212.577 Y72.654 E41.2971
G1 X214.311 Y74.513 E41.41548
G1 X216.073 Y76.299 E41.5323
G1 X217.814 Y77.97 E41.64467
G1 X218.474 Y78.663 E41.68923
G1 X219.058 Y79.398 E41.73294
G1 X219.574 Y80.182 E41.77665
G1 X220.004 Y80.976 E41.81869
G1 X220.389 Y81.87 E41.86402
G1 X220.672 Y82.728 E41.90609
G1 X220.894 Y83.675 E41.95138
G1 X221.022 Y84.569 E41.99343
G1 X221.069 Y85.294 E42.02726
G1 X221.084 Y85.942 E42.05744
G1 X221.083 Y122.033 E43.73799
G1 X221.072 Y122.772 E43.7724
G1 X221.017 Y123.709 E43.81611
G1 X220.885 Y124.602 E43.85814
G1 X220.667 Y125.515 E43.90185
G1 X220.37 Y126.406 E43.94558
G1 X219.87 Y127.515 E44.00223
G1 X218.571 Y130.003 E44.13292
G1 X217.454 Y132.3 E44.25186
G1 X216.42 Y134.589 E44.36881
G1 X215.438 Y136.941 E44.48749
G1 X214.537 Y139.281 E44.60425
G1 X213.692 Y141.673 E44.72238
G1 X212.916 Y144.087 E44.84045
G1 X212.219 Y146.487 E44.95682
G1 X211.574 Y148.961 E45.07587
G1 X211.002 Y151.452 E45.19488
G1 X210.515 Y153.879 E45.31015
G1 X210.086 Y156.388 E45.42867
G1 X209.73 Y158.889 E45.5463
G1 X209.445 Y161.4 E45.66397
G1 X209.232 Y163.888 E45.78025
G1 X209.088 Y166.444 E45.89946
G1 X209.015 Y169.002 E46.01862
G1 X209.006 Y170.308 E46.07943
G1 X209.005 Y189.269 E46.96233
G1 X208.993 Y190.014 E46.99703
G1 X208.936 Y190.951 E47.04074
G1 X208.803 Y191.844 E47.08278
G1 X208.584 Y192.757 E47.1265
G1 X208.286 Y193.647 E47.1702
G1 X207.91 Y194.507 E47.21391
G1 X207.441 Y195.36 E47.25924
G1 X206.938 Y196.11 E47.30129
G1 X206.327 Y196.868 E47.34662
G1 X205.699 Y197.518 E47.38871
G1 X204.991 Y198.133 E47.43237
G1 X204.202 Y198.704 E47.47773
G1 X203.426 Y199.166 E47.51978
G1 X202.548 Y199.588 E47.56514
G1 X201.669 Y199.917 E47.60884
G1 X200.765 Y200.167 E47.65252
G1 X199.837 Y200.337 E47.69645
G1 X198.692 Y200.432 E47.74995
G1 X198.085 Y200.445 E47.77822
G1 X168.432 Y200.445 E49.15898
G1 X165.837 Y200.482 E49.27983
G1 X163.272 Y200.591 E49.39938
G1 X160.779 Y200.768 E49.51575
G1 X158.258 Y201.017 E49.63371
G1 X155.75 Y201.338 E49.75145
G1 X153.256 Y201.73 E49.869
G1 X150.791 Y202.188 E49.98575
G1 X148.288 Y202.727 E50.10497
G1 X145.842 Y203.326 E50.22223
G1 X143.409 Y203.995 E50.33973
G1 X140.996 Y204.734 E50.45724
G1 X138.594 Y205.545 E50.57529
G1 X136.202 Y206.427 E50.694
G1 X133.906 Y207.349 E50.80921
G1 X131.535 Y208.381 E50.92962
G1 X129.239 Y209.457 E51.04769
G1 X127.017 Y210.576 E51.16353
G1 X124.769 Y211.791 E51.28252
G1 X122.606 Y213.038 E51.39878
G1 X120.314 Y214.448 E51.52408
G1 X119.234 Y215.137 E51.58373
G1 X118.451 Y215.588 E51.62581
G1 X117.6 Y215.984 E51.66951
G1 X116.684 Y216.313 E51.71484
G1 X115.811 Y216.543 E51.75687
G1 X114.85 Y216.706 E51.80226
G1 X113.95 Y216.779 E51.84431
G1 X113.011 Y216.772 E51.88803
G1 X112.077 Y216.682 E51.93172
G1 X110.861 Y216.438 E51.98947
G1 X109.882 Y216.179 E52.03663
G1 X36.214 Y195.611 E55.59811
G1 X35.537 Y195.41 E55.63099
G1 X34.683 Y195.115 E55.67306
G1 X33.795 Y194.718 E55.71836
G1 X33.006 Y194.278 E55.76042
G1 X32.202 Y193.73 E55.80573
G1 X31.476 Y193.134 E55.84947
G1 X30.831 Y192.502 E55.89152
G1 X30.198 Y191.762 E55.93686
G1 X29.674 Y191.026 E55.97893
G1 X29.181 Y190.186 E56.02428
G1 X28.795 Y189.37 E56.06632
G1 X28.459 Y188.456 E56.11166
G1 X28.214 Y187.55 E56.15536
G1 X28.056 Y186.661 E56.19741
G1 X27.963 Y185.401 E56.25624
G1 X27.946 Y184.175 E56.31333
G1 X27.875 Y181.571 E56.43463
G1 X27.736 Y179.065 E56.5515
G1 X27.524 Y176.532 E56.66986
G1 X27.243 Y174.033 E56.78696
G1 X26.891 Y171.533 E56.90451
G1 X26.462 Y169.005 E57.02391
G1 X25.978 Y166.573 E57.13938
G1 X25.408 Y164.085 E57.25823
G1 X24.77 Y161.624 E57.37661
G1 X24.076 Y159.22 E57.49312
G1 X23.307 Y156.82 E57.61047
G1 X22.454 Y154.396 E57.73013
G1 X21.567 Y152.081 E57.84557
G1 X20.588 Y149.732 E57.96407
G1 X19.536 Y147.395 E58.0834
G1 X18.448 Y145.149 E58.19961
G1 X17.277 Y142.896 E58.31785
G1 X16.045 Y140.683 E58.43578
G1 X14.735 Y138.48 E58.55513
G1 X13.411 Y136.389 E58.67037
G1 X11.984 Y134.271 E58.78929
G1 X10.534 Y132.244 E58.90534
G1 X8.941 Y130.142 E59.02815
G1 X8.178 Y129.181 E59.08529
G1 X7.628 Y128.419 E59.12905
G1 X7.166 Y127.644 E59.17106
G1 X6.758 Y126.799 E59.21475
G1 X6.414 Y125.887 E59.26014
G1 X6.164 Y124.983 E59.30382
G1 X5.993 Y124.056 E59.34771
G1 X5.9 Y122.955 E59.39916
G1 X5.884 Y122.282 E59.43051
G1 X5.885 Y86.156 E61.11268
G1 X5.895 Y85.466 E61.14482
G1 X5.952 Y84.512 E61.18932
G1 X6.085 Y83.618 E61.2314
G1 X6.313 Y82.671 E61.27676
G1 X6.601 Y81.815 E61.31881
G1 X6.991 Y80.924 E61.3641
G1 X7.444 Y80.101 E61.40785
G1 X7.947 Y79.351 E61.4499
G1 X8.558 Y78.593 E61.49523
G1 X9.185 Y77.943 E61.53729
G1 X9.893 Y77.327 E61.58098
G1 X10.653 Y76.776 E61.6247
G1 X11.488 Y76.277 E61.66999
G1 X12.335 Y75.871 E61.71373
G1 X13.206 Y75.543 E61.75706
G1 X13.683 Y75.399 E61.78027
G1 X16.608 Y74.595 E61.92152
G1 X19.025 Y73.851 E62.03927
G1 X21.389 Y73.052 E62.15547
G1 X23.784 Y72.165 E62.27439
G1 X26.114 Y71.225 E62.39138
G1 X28.46 Y70.203 E62.51054
G1 X30.741 Y69.13 E62.62792
G1 X32.988 Y67.995 E62.74514
G1 X35.208 Y66.794 E62.86267
G1 X37.37 Y65.542 E62.979
G1 X39.563 Y64.191 E63.09894
G1 X41.673 Y62.806 E63.21646
G1 X43.735 Y61.366 E63.33358
G1 X45.772 Y59.857 E63.45162
G0 F6000 X45.525 Y59.542
G1 F1200 X47.495 Y57.994 E63.56828
G1 X49.44 Y56.377 E63.68606
G1 X51.345 Y54.697 E63.80433
G1 X53.177 Y52.993 E63.92083
G1 X54.95 Y51.237 E64.03703
G1 X56.714 Y49.396 E64.15575
G1 X58.401 Y47.53 E64.27289
G1 X60.053 Y45.596 E64.39132
G1 X61.614 Y43.661 E64.50709
G1 X63.112 Y41.691 E64.62233
G1 X64.623 Y39.584 E64.74306
G1 X65.986 Y37.566 E64.85645
G1 X67.35 Y35.415 E64.97505
G1 X68.813 Y32.96 E65.10813
G1 X69.349 Y32.15 E65.15335
G1 X69.932 Y31.415 E65.19704
G1 X70.628 Y30.682 E65.24411
G1 X71.305 Y30.084 E65.28617
G1 X72.146 Y29.464 E65.33482
G1 X72.979 Y28.96 E65.38015
G1 X73.789 Y28.561 E65.4222
G1 X74.695 Y28.206 E65.46751
G1 X75.699 Y27.916 E65.51617
G1 X76.585 Y27.743 E65.5582
G1 X77.945 Y27.621 E65.62179
G1 X78.569 Y27.608 E65.65085
G1 X181.69 Y27.609 E70.45259
G1 X182.407 Y27.62 E70.48598
G1 X183.394 Y27.68 E70.53203
G1 X184.324 Y27.819 E70.57581
G1 X185.272 Y28.047 E70.62122
G1 X186.162 Y28.345 E70.66492
G1 X187.117 Y28.763 E70.71346
G1 X187.939 Y29.215 E70.75714
G1 X188.721 Y29.737 E70.80092
G1 X189.535 Y30.393 E70.8496
G1 X190.185 Y31.02 E70.89166
G1 X190.869 Y31.809 E70.94028
G1 X191.438 Y32.599 E70.98561
G1 X191.901 Y33.375 E71.02769
G1 X192.341 Y34.288 E71.07488
G1 X192.79 Y35.535 E71.1366
G1 X193.042 Y36.404 E71.17873
G1 X193.351 Y37.519 E71.2326
G1 X194.095 Y39.938 E71.35045
G1 X194.897 Y42.304 E71.46678
G1 X195.781 Y44.691 E71.5853
G1 X196.718 Y47.014 E71.70194
G1 X197.737 Y49.35 E71.82061
G1 X198.79 Y51.592 E71.93595
