;FLAVOR:Marlin
;TIME:12893
;Filament used: 11.2344m
;Layer height: 0.28
;MINX:50.95
;MINY:45.2
;MINZ:0.28
;MAXX:184.05
;MAXY:189.8
;MAXZ:2.52
;Generated with Cura_SteamEngine 5.3.1
M140 S60
M105
M190 S60
M104 S195
M105
M109 S195
M82 ;absolute extrusion mode
; Ender 3 Custom Start G-code
G92 E0 ; Reset Extruder
G28 ; Home all axes
G1 Z2.0 F3000 ; Move Z Axis up little to prevent scratching of Heat Bed
G1 X0.1 Y20 Z0.3 F5000.0 ; Move to start position
G1 X0.1 Y200.0 Z0.3 F1500.0 E15 ; Draw the first line
G1 X0.4 Y200.0 Z0.3 F5000.0 ; Move to side a little
G1 X0.4 Y20 Z0.3 F1500.0 E30 ; Draw the second line
G92 E0 ; Reset Extruder
G1 Z2.0 F3000 ; Move Z Axis up little to prevent scratching of Heat Bed
G1 X5 Y20 Z0.3 F5000.0 ; Move over to prevent blob squish
G92 E0
G92 E0
G1 F2700 E-5
;LAYER_COUNT:9
;LAYER:0
M107
G0 F6000 X52.469 Y48.224 Z0.28
;TYPE:SKIRT
G1 F2700 E0
G1 F1200 X54.044 Y46.75 E0.10045
G1 X55.916 Y45.638 E0.20183
G1 X58.103 Y45.2 E0.30569
G1 X177.103 Y45.2 E5.84683
G1 X178.999 Y45.666 E5.93774
G1 X181.026 Y46.719 E6.0441
G1 X182.5 Y48.294 E6.14455
G1 X183.612 Y50.166 E6.24594
G1 X184.05 Y52.353 E6.3498
G1 X184.05 Y182.853 E12.42642
G1 X183.584 Y184.749 E12.51734
G1 X182.531 Y186.776 E12.6237
G1 X180.956 Y188.25 E12.72414
G1 X179.084 Y189.362 E12.82553
G1 X176.897 Y189.8 E12.92939
G1 X57.897 Y189.8 E18.47053
G1 X56.001 Y189.334 E18.56144
G1 X53.974 Y188.281 E18.6678
G1 X52.5 Y186.706 E18.76825
G1 X51.388 Y184.834 E18.86964
G1 X50.95 Y182.647 E18.97349
G1 X50.95 Y52.147 E25.05012
G1 X51.416 Y50.251 E25.14103
G1 X52.469 Y48.224 E25.2474
G0 F6000 X52.792 Y48.469
G1 F1200 X54.285 Y47.072 E25.3426
G1 X56.062 Y46.016 E25.43886
G1 X58.141 Y45.6 E25.53758
G1 X177.057 Y45.6 E31.07481
G1 X178.856 Y46.042 E31.16107
G1 X180.781 Y47.042 E31.26208
G1 X182.178 Y48.535 E31.35729
G1 X183.234 Y50.312 E31.45354
G1 X183.65 Y52.391 E31.55226
G1 X183.65 Y182.807 E37.62498
G1 X183.208 Y184.606 E37.71124
G1 X182.208 Y186.531 E37.81225
G1 X180.715 Y187.928 E37.90746
G1 X178.938 Y188.984 E38.00371
G1 X176.859 Y189.4 E38.10244
G1 X57.943 Y189.4 E43.63966
G1 X56.144 Y188.958 E43.72592
G1 X54.219 Y187.958 E43.82693
G1 X52.822 Y186.465 E43.92214
G1 X51.766 Y184.688 E44.01839
G1 X51.35 Y182.609 E44.11712
G1 X51.35 Y52.193 E50.18983
G1 X51.792 Y50.394 E50.27609
G1 X52.792 Y48.469 E50.3771
G0 F6000 X53.115 Y48.714
G1 F1200 X54.526 Y47.394 E50.46707
G1 X56.208 Y46.395 E50.55817
G1 X58.18 Y46 E50.65182
G1 X177.01 Y46 E56.18504
G1 X178.714 Y46.419 E56.26675
G1 X180.536 Y47.365 E56.36234
G1 X181.856 Y48.776 E56.45231
G1 X182.855 Y50.458 E56.54341
G1 X183.25 Y52.43 E56.63705
G1 X183.25 Y182.76 E62.70577
G1 X182.831 Y184.464 E62.78747
G1 X181.885 Y186.286 E62.88307
G1 X180.474 Y187.606 E62.97304
G1 X178.792 Y188.605 E63.06413
G1 X176.82 Y189 E63.15778
G1 X57.99 Y189 E68.691
G1 X56.286 Y188.581 E68.77271
G1 X54.464 Y187.635 E68.86831
G1 X53.144 Y186.224 E68.95828
G1 X52.145 Y184.542 E69.04937
G1 X51.75 Y182.57 E69.14302
G1 X51.75 Y52.24 E75.21173
G1 X52.169 Y50.536 E75.29344
G1 X53.115 Y48.714 E75.38903
G0 F6000 X53.438 Y48.959
G1 F1200 X54.767 Y47.716 E75.47377
G1 X56.354 Y46.773 E75.55972
G1 X58.218 Y46.4 E75.64824
G1 X176.964 Y46.4 E81.17755
G1 X178.571 Y46.795 E81.25461
G1 X180.291 Y47.688 E81.34485
G1 X181.534 Y49.017 E81.42958
G1 X182.477 Y50.604 E81.51554
G1 X182.85 Y52.468 E81.60406
G1 X182.85 Y182.714 E87.66886
G1 X182.455 Y184.321 E87.74591
G1 X181.562 Y186.041 E87.83615
G1 X180.233 Y187.284 E87.92089
G1 X178.646 Y188.227 E88.00684
G1 X176.782 Y188.6 E88.09536
G1 X58.036 Y188.6 E93.62467
G1 X56.429 Y188.205 E93.70173
G1 X54.709 Y187.312 E93.79197
G1 X53.466 Y185.983 E93.8767
G1 X52.523 Y184.396 E93.96266
G1 X52.15 Y182.532 E94.05118
G1 X52.15 Y52.286 E100.11598
G1 X52.545 Y50.679 E100.19303
G1 X53.438 Y48.959 E100.28327
G0 F6000 X53.761 Y49.204
G1 F1200 X55.008 Y48.038 E100.36277
G1 X56.5 Y47.151 E100.44359
G1 X58.256 Y46.8 E100.52698
G1 X176.918 Y46.8 E106.05238
G1 X178.428 Y47.171 E106.12478
G1 X180.046 Y48.011 E106.20967
G1 X181.212 Y49.258 E106.28916
G1 X182.099 Y50.75 E106.36999
G1 X182.45 Y52.506 E106.45337
G1 X182.45 Y182.668 E112.51426
G1 X182.079 Y184.178 E112.58666
G1 X181.239 Y185.796 E112.67155
G1 X179.992 Y186.962 E112.75105
G1 X178.5 Y187.849 E112.83187
G1 X176.744 Y188.2 E112.91526
G1 X58.082 Y188.2 E118.44065
G1 X56.572 Y187.829 E118.51306
G1 X54.954 Y186.989 E118.59795
G1 X53.788 Y185.742 E118.67744
G1 X52.901 Y184.25 E118.75827
G1 X52.55 Y182.494 E118.84165
G1 X52.55 Y52.332 E124.90254
G1 X52.921 Y50.822 E124.97494
G1 X53.761 Y49.204 E125.05983
G0 F6000 X54.084 Y49.449
G1 F1200 X55.249 Y48.36 E125.13409
G1 X56.646 Y47.529 E125.20978
G1 X58.294 Y47.2 E125.28803
G1 X176.871 Y47.2 E130.80947
G1 X178.286 Y47.548 E130.87732
G1 X179.801 Y48.334 E130.9568
G1 X180.89 Y49.499 E131.03105
G1 X181.721 Y50.896 E131.10674
G1 X182.05 Y52.544 E131.18499
G1 X182.05 Y182.621 E137.24192
G1 X181.702 Y184.036 E137.30977
G1 X180.916 Y185.551 E137.38925
G1 X179.751 Y186.64 E137.46351
G1 X178.354 Y187.471 E137.53919
G1 X176.706 Y187.8 E137.61745
G1 X58.129 Y187.8 E143.13889
G1 X56.714 Y187.452 E143.20674
G1 X55.199 Y186.666 E143.28621
G1 X54.11 Y185.501 E143.36047
G1 X53.279 Y184.104 E143.43616
G1 X52.95 Y182.456 E143.51441
G1 X52.95 Y52.379 E149.57134
G1 X53.298 Y50.964 E149.63919
G1 X54.084 Y49.449 E149.71867
G0 F6000 X54.407 Y49.694
G1 F1200 X55.488 Y48.684 E149.78756
G1 X56.794 Y47.907 E149.85832
G1 X58.332 Y47.6 E149.93135
G1 X176.825 Y47.6 E155.44888
G1 X178.143 Y47.924 E155.51207
G1 X179.556 Y48.657 E155.5862
G1 X180.566 Y49.738 E155.65508
G1 X181.343 Y51.044 E155.72585
G1 X181.65 Y52.582 E155.79887
G1 X181.65 Y182.575 E161.85189
G1 X181.326 Y183.893 E161.91509
G1 X180.593 Y185.306 E161.98921
G1 X179.512 Y186.316 E162.0581
G1 X178.206 Y187.093 E162.12886
G1 X176.668 Y187.4 E162.20189
G1 X58.175 Y187.4 E167.71942
G1 X56.857 Y187.076 E167.78262
G1 X55.444 Y186.343 E167.85674
G1 X54.434 Y185.262 E167.92563
G1 X53.657 Y183.956 E167.99639
G1 X53.35 Y182.418 E168.06942
G1 X53.35 Y52.425 E174.12244
G1 X53.674 Y51.107 E174.18564
G1 X54.407 Y49.694 E174.25976
G0 F6000 X54.73 Y49.939
G1 F1200 X55.727 Y49.008 E174.32328
G1 X56.942 Y48.285 E174.38911
G1 X58.37 Y48 E174.45692
G1 X176.779 Y48 E179.97053
G1 X178 Y48.3 E180.02908
G1 X179.311 Y48.98 E180.09785
G1 X180.242 Y49.977 E180.16137
G1 X180.965 Y51.192 E180.2272
G1 X181.25 Y52.62 E180.29501
G1 X181.25 Y182.529 E186.34411
G1 X180.95 Y183.75 E186.40266
G1 X180.27 Y185.061 E186.47143
G1 X179.273 Y185.992 E186.53495
G1 X178.058 Y186.715 E186.60078
G1 X176.63 Y187 E186.66859
G1 X58.221 Y187 E192.18221
G1 X57 Y186.7 E192.24075
G1 X55.689 Y186.02 E192.30952
G1 X54.758 Y185.023 E192.37304
G1 X54.035 Y183.808 E192.43887
G1 X53.75 Y182.38 E192.50668
G1 X53.75 Y52.471 E198.55579
G1 X54.05 Y51.25 E198.61433
G1 X54.73 Y49.939 E198.6831
G0 F6000 X55.053 Y50.184
G1 F1200 X55.966 Y49.332 E198.74125
G1 X57.09 Y48.663 E198.80216
G1 X58.408 Y48.4 E198.86474
G1 X176.733 Y48.4 E204.37445
G1 X177.857 Y48.676 E204.42834
G1 X179.066 Y49.303 E204.49175
G1 X179.918 Y50.216 E204.5499
G1 X180.587 Y51.34 E204.61081
G1 X180.85 Y52.658 E204.67339
G1 X180.85 Y182.483 E210.71859
G1 X180.574 Y183.607 E210.77248
G1 X179.947 Y184.816 E210.8359
G1 X179.034 Y185.668 E210.89405
G1 X177.91 Y186.337 E210.95495
G1 X176.592 Y186.6 E211.01754
G1 X58.267 Y186.6 E216.52724
G1 X57.143 Y186.324 E216.58114
G1 X55.934 Y185.697 E216.64455
G1 X55.082 Y184.784 E216.7027
G1 X54.413 Y183.66 E216.76361
G1 X54.15 Y182.342 E216.82619
G1 X54.15 Y52.517 E222.87139
G1 X54.426 Y51.393 E222.92528
G1 X55.053 Y50.184 E222.98869
G0 F6000 X55.375 Y50.431
G1 F1200 X56.208 Y49.654 E223.04174
G1 X57.238 Y49.041 E223.09755
G1 X58.446 Y48.8 E223.15491
G1 X176.686 Y48.8 E228.66066
G1 X177.715 Y49.053 E228.71
G1 X178.819 Y49.625 E228.7679
G1 X179.596 Y50.458 E228.82094
G1 X180.209 Y51.488 E228.87675
G1 X180.45 Y52.696 E228.93411
G1 X180.45 Y182.436 E234.97535
G1 X180.197 Y183.465 E235.02469
G1 X179.625 Y184.569 E235.08259
G1 X178.792 Y185.346 E235.13563
G1 X177.762 Y185.959 E235.19144
G1 X176.554 Y186.2 E235.2488
G1 X58.314 Y186.2 E240.75455
G1 X57.285 Y185.947 E240.80389
G1 X56.181 Y185.375 E240.86179
G1 X55.404 Y184.542 E240.91483
G1 X54.791 Y183.512 E240.97064
G1 X54.55 Y182.304 E241.028
G1 X54.55 Y52.564 E247.06924
G1 X54.803 Y51.535 E247.11858
G1 X55.375 Y50.431 E247.17648
G0 F6000 X55.697 Y50.678
G1 F1200 X56.45 Y49.976 E247.22441
G1 X57.386 Y49.419 E247.27513
G1 X58.484 Y49.2 E247.32727
G1 X176.64 Y49.2 E252.8291
G1 X177.572 Y49.429 E252.87379
G1 X178.572 Y49.947 E252.92623
G1 X179.274 Y50.7 E252.97417
G1 X179.831 Y51.636 E253.02489
G1 X180.05 Y52.734 E253.07702
G1 X180.05 Y182.39 E259.11435
G1 X179.821 Y183.322 E259.15904
G1 X179.303 Y184.322 E259.21148
G1 X178.55 Y185.024 E259.25941
G1 X177.614 Y185.581 E259.31013
G1 X176.516 Y185.8 E259.36227
G1 X58.36 Y185.8 E264.8641
G1 X57.428 Y185.571 E264.90879
G1 X56.428 Y185.053 E264.96123
G1 X55.726 Y184.3 E265.00917
G1 X55.169 Y183.364 E265.05989
G1 X54.95 Y182.266 E265.11202
G1 X54.95 Y52.61 E271.14935
G1 X55.179 Y51.678 E271.19404
G1 X55.697 Y50.678 E271.24648
G0 F6000 X56.019 Y50.925
G1 F1200 X56.692 Y50.298 E271.28931
G1 X57.534 Y49.797 E271.33493
G1 X58.522 Y49.6 E271.38184
G1 X176.594 Y49.6 E276.87977
G1 X177.429 Y49.805 E276.9198
G1 X178.325 Y50.269 E276.96679
G1 X178.952 Y50.942 E277.00962
G1 X179.453 Y51.784 E277.05524
G1 X179.65 Y52.772 E277.10215
G1 X179.65 Y182.344 E283.13557
G1 X179.445 Y183.179 E283.1756
G1 X178.981 Y184.075 E283.22259
G1 X178.308 Y184.702 E283.26542
G1 X177.466 Y185.203 E283.31104
G1 X176.478 Y185.4 E283.35795
G1 X58.406 Y185.4 E288.85588
G1 X57.571 Y185.195 E288.89591
G1 X56.675 Y184.731 E288.9429
G1 X56.048 Y184.058 E288.98573
G1 X55.547 Y183.216 E289.03135
G1 X55.35 Y182.228 E289.07826
G1 X55.35 Y52.656 E295.11168
G1 X55.555 Y51.821 E295.15171
G1 X56.019 Y50.925 E295.1987
G0 F6000 X56.341 Y51.172
G1 F1200 X56.934 Y50.62 E295.23642
G1 X57.682 Y50.175 E295.27695
G1 X58.56 Y50 E295.31864
G1 X176.548 Y50 E300.81265
G1 X177.286 Y50.181 E300.84803
G1 X178.078 Y50.591 E300.88956
G1 X178.63 Y51.184 E300.92729
G1 X179.075 Y51.932 E300.96781
G1 X179.25 Y52.81 E301.0095
G1 X179.25 Y182.298 E307.039
G1 X179.069 Y183.036 E307.07439
G1 X178.659 Y183.828 E307.11592
G1 X178.066 Y184.38 E307.15364
G1 X177.318 Y184.825 E307.19417
G1 X176.44 Y185 E307.23585
G1 X58.452 Y185 E312.72987
G1 X57.714 Y184.819 E312.76525
G1 X56.922 Y184.409 E312.80678
G1 X56.37 Y183.816 E312.8445
G1 X55.925 Y183.068 E312.88503
G1 X55.75 Y182.19 E312.92672
G1 X55.75 Y52.702 E318.95622
G1 X55.931 Y51.964 E318.99161
G1 X56.341 Y51.172 E319.03313
G0 F6000 X56.664 Y51.417
G1 F1200 X57.173 Y50.944 E319.06549
G1 X57.83 Y50.553 E319.10109
G1 X58.598 Y50.4 E319.13755
G1 X176.498 Y50.4 E324.62747
G1 X177.147 Y50.559 E324.65859
G1 X177.833 Y50.914 E324.69455
G1 X178.306 Y51.423 E324.72691
G1 X178.697 Y52.08 E324.76251
G1 X178.85 Y52.848 E324.79897
G1 X178.85 Y182.248 E330.82438
G1 X178.691 Y182.897 E330.85549
G1 X178.336 Y183.583 E330.89146
G1 X177.827 Y184.056 E330.92381
G1 X177.17 Y184.447 E330.95941
G1 X176.402 Y184.6 E330.99588
G1 X58.502 Y184.6 E336.4858
G1 X57.853 Y184.441 E336.51691
G1 X57.167 Y184.086 E336.55288
G1 X56.694 Y183.577 E336.58523
G1 X56.303 Y182.92 E336.62083
G1 X56.15 Y182.152 E336.6573
G1 X56.15 Y52.752 E342.6827
G1 X56.309 Y52.103 E342.71382
G1 X56.664 Y51.417 E342.74978
G0 F6000 X56.987 Y51.662
G1 F1200 X57.412 Y51.268 E342.77677
G1 X57.978 Y50.931 E342.80744
G1 X58.636 Y50.8 E342.83868
G1 X176.448 Y50.8 E348.3245
G1 X177.008 Y50.937 E348.35135
G1 X177.588 Y51.237 E348.38175
G1 X177.982 Y51.662 E348.40874
G1 X178.319 Y52.228 E348.43941
G1 X178.45 Y52.886 E348.47065
G1 X178.45 Y182.198 E354.49196
G1 X178.313 Y182.758 E354.51881
G1 X178.013 Y183.338 E354.54921
G1 X177.588 Y183.732 E354.5762
G1 X177.022 Y184.069 E354.60687
G1 X176.364 Y184.2 E354.63811
G1 X58.552 Y184.2 E360.12393
G1 X57.992 Y184.063 E360.15078
G1 X57.412 Y183.763 E360.18118
G1 X57.018 Y183.338 E360.20817
G1 X56.681 Y182.772 E360.23884
G1 X56.55 Y182.114 E360.27008
G1 X56.55 Y52.802 E366.29139
G1 X56.687 Y52.242 E366.31823
G1 X56.987 Y51.662 E366.34864
G0 F6000 X57.31 Y51.908
G1 F1200 X57.651 Y51.592 E366.37029
G1 X58.126 Y51.309 E366.39603
G1 X58.674 Y51.2 E366.42205
G1 X176.398 Y51.2 E371.90377
G1 X176.869 Y51.315 E371.92635
G1 X177.342 Y51.56 E371.95115
G1 X177.658 Y51.901 E371.9728
G1 X177.941 Y52.376 E371.99855
G1 X178.05 Y52.924 E372.02457
G1 X178.05 Y182.148 E378.04178
G1 X177.935 Y182.619 E378.06435
G1 X177.69 Y183.092 E378.08916
G1 X177.349 Y183.408 E378.1108
G1 X176.874 Y183.691 E378.13655
G1 X176.326 Y183.8 E378.16257
G1 X58.602 Y183.8 E383.64429
G1 X58.131 Y183.685 E383.66687
G1 X57.658 Y183.44 E383.69167
G1 X57.342 Y183.099 E383.71332
G1 X57.059 Y182.624 E383.73906
G1 X56.95 Y182.076 E383.76508
G1 X56.95 Y52.852 E389.78229
G1 X57.065 Y52.381 E389.80487
G1 X57.31 Y51.908 E389.82967
G0 F6000 X57.633 Y52.154
G1 F1200 X57.89 Y51.916 E389.84598
G1 X58.274 Y51.687 E389.8668
G1 X58.712 Y51.6 E389.88759
G1 X176.348 Y51.6 E395.36522
G1 X176.73 Y51.693 E395.38353
G1 X177.096 Y51.883 E395.40273
G1 X177.334 Y52.14 E395.41904
G1 X177.563 Y52.524 E395.43986
G1 X177.65 Y52.962 E395.46065
G1 X177.65 Y182.098 E401.47376
G1 X177.557 Y182.48 E401.49207
G1 X177.367 Y182.846 E401.51127
G1 X177.11 Y183.084 E401.52758
G1 X176.726 Y183.313 E401.5484
G1 X176.288 Y183.4 E401.5692
G1 X58.652 Y183.4 E407.04682
G1 X58.27 Y183.307 E407.06513
G1 X57.904 Y183.117 E407.08433
G1 X57.666 Y182.86 E407.10064
G1 X57.437 Y182.476 E407.12146
G1 X57.35 Y182.038 E407.14225
G1 X57.35 Y52.902 E413.15537
G1 X57.443 Y52.52 E413.17367
G1 X57.633 Y52.154 E413.19287
G0 F6000 X57.957 Y52.399
G1 F1200 X58.095 Y52.26 E413.202
G1 X58.422 Y52.065 E413.21972
G1 X58.75 Y52 E413.23529
G1 X176.299 Y52 E418.70887
G1 X176.588 Y52.07 E418.72271
G1 X176.851 Y52.207 E418.73652
G1 X176.99 Y52.345 E418.74564
G1 X177.185 Y52.672 E418.76337
G1 X177.25 Y53 E418.77894
G1 X177.25 Y182.049 E424.788
G1 X177.18 Y182.338 E424.80185
G1 X177.043 Y182.601 E424.81566
G1 X176.905 Y182.74 E424.82478
G1 X176.578 Y182.935 E424.84251
G1 X176.25 Y183 E424.85808
G1 X58.701 Y183 E430.33165
G1 X58.412 Y182.93 E430.3455
G1 X58.149 Y182.793 E430.3593
G1 X58.01 Y182.655 E430.36843
G1 X57.815 Y182.328 E430.38615
G1 X57.75 Y182 E430.40172
G1 X57.75 Y52.951 E436.41079
G1 X57.82 Y52.662 E436.42463
G1 X57.957 Y52.399 E436.43844
G0 F6000 X58.3 Y52.604
G1 F1200 X58.57 Y52.443 E436.45308
G1 X58.75 Y52.4 E436.4617
G1 X176.25 Y52.4 E441.93299
G1 X176.494 Y52.459 E441.94468
G1 X176.646 Y52.55 E441.95293
G1 X176.807 Y52.82 E441.96756
G1 X176.85 Y53 E441.97618
G1 X176.85 Y182 E447.98296
G1 X176.791 Y182.244 E447.99465
G1 X176.7 Y182.396 E448.0029
G1 X176.43 Y182.557 E448.01754
G1 X176.25 Y182.6 E448.02616
G1 X58.75 Y182.6 E453.49745
G1 X58.506 Y182.541 E453.50914
G1 X58.354 Y182.45 E453.51739
G1 X58.193 Y182.18 E453.53202
G1 X58.15 Y182 E453.54064
G1 X58.15 Y53 E459.54742
G1 X58.209 Y52.756 E459.55911
G1 X58.3 Y52.604 E459.56736
G0 F6000 X58.589 Y52.881
G1 F1200 X58.75 Y52.8 E459.57575
G1 X176.25 Y52.8 E465.04704
G1 X176.369 Y52.839 E465.05287
G1 X176.45 Y53 E465.06127
G1 X176.45 Y182 E471.06805
G1 X176.411 Y182.119 E471.07388
G1 X176.25 Y182.2 E471.08227
G1 X58.75 Y182.2 E476.55356
G1 X58.631 Y182.161 E476.55939
G1 X58.55 Y182 E476.56779
G1 X58.55 Y53 E482.57457
G1 X58.589 Y52.881 E482.5804
G1 F2700 E477.5804
;MESH:megav1-NewBasePanelSection.stl
G0 F6000 X59.55 Y53.8
G0 X175.65 Y181.4
;TYPE:WALL-INNER
G1 F2700 E482.5804
G1 F1200 X175.65 Y53.6 E488.5313
G1 X59.35 Y53.6 E493.94672
G1 X59.35 Y181.4 E499.89762
G1 X175.65 Y181.4 E505.31303
G0 F6000 X176.05 Y181.8
;TYPE:WALL-OUTER
G1 F1200 X176.05 Y53.2 E511.30119
G1 X58.95 Y53.2 E516.75386
G1 X58.95 Y181.8 E522.74201
G1 X176.05 Y181.8 E528.19468
G0 F6000 X175.78 Y181.53
G0 X175.55 Y181.04
G0 X175.29 Y181.04
;TYPE:SKIN
G1 F1200 X59.71 Y181.04 E533.57657
G1 X59.71 Y53.96 E539.49394
G1 X175.29 Y53.96 E544.87583
G1 X175.29 Y181.04 E550.79321
G1 F2700 E545.79321
G0 F6000 X175.55 Y181.04
G0 X60.348 Y181.3
G0 X60.348 Y180.839
G1 F2700 E550.79321
