;FLAVOR:Marlin
;TIME:32533
;Filament used: 30.7133m
;Layer height: 0.28
;MINX:2.644
;MINY:42.265
;MINZ:0.28
;MAXX:214.644
;MAXY:193.265
;MAXZ:70.84
;POSTPROCESSED
;Generated with Cura_SteamEngine 5.3.1
M140 S50
M105
M190 S50
M104 S200
M105
M109 S200
M82 ;absolute extrusion mode
; Ender 3 Custom Start G-code
G92 E0 ; Reset Extruder
G28 ; Home all axes
G1 Z2.0 F3000 ; Move Z Axis up little to prevent scratching of Heat Bed
G1 X0.1 Y20 Z0.3 F5000.0 ; Move to start position
G1 X0.1 Y200.0 Z0.3 F1500.0 E15 ; Draw the first line
G1 X0.4 Y200.0 Z0.3 F5000.0 ; Move to side a little
G1 X0.4 Y20 Z0.3 F1500.0 E30 ; Draw the second line
G92 E0 ; Reset Extruder
G1 Z2.0 F3000 ; Move Z Axis up little to prevent scratching of Heat Bed
G1 X5 Y20 Z0.3 F5000.0 ; Move over to prevent blob squish
G92 E0
G92 E0
G1 F2700 E-5
;LAYER_COUNT:254
;LAYER:0
M107
G0 F6000 X11.34 Y43.34 Z0.28
;TYPE:SKIRT
G1 F2700 E0
G1 F1200 X12.228 Y43.174 E0.04207
G1 X13.367 Y43.078 E0.09529
G1 X13.974 Y43.065 E0.12356
G1 X203.083 Y43.066 E8.92927
G1 X203.781 Y43.076 E8.96177
G1 X204.683 Y43.129 E9.00385
G1 X205.576 Y43.261 E9.04588
G1 X206.454 Y43.472 E9.08793
G1 X207.31 Y43.76 E9.12998
G1 X208.137 Y44.122 E9.17202
G1 X208.929 Y44.557 E9.21409
G1 X209.68 Y45.059 E9.25616
G1 X210.383 Y45.626 E9.29821
G1 X211.033 Y46.253 E9.34026
G1 X211.625 Y46.935 E9.38232
G1 X212.155 Y47.666 E9.42436
G1 X212.617 Y48.442 E9.46641
G1 X213.01 Y49.255 E9.50846
G1 X213.328 Y50.1 E9.5505
G1 X213.571 Y50.97 E9.59256
G1 X213.736 Y51.858 E9.63462
G1 X213.831 Y52.988 E9.68742
G1 X213.844 Y53.595 E9.71569
G1 X213.843 Y181.655 E15.6787
G1 X213.834 Y182.382 E15.71256
G1 X213.783 Y183.284 E15.75463
G1 X213.652 Y184.178 E15.7967
G1 X213.443 Y185.056 E15.83873
G1 X213.157 Y185.913 E15.88079
G1 X212.796 Y186.741 E15.92285
G1 X212.364 Y187.533 E15.96486
G1 X211.863 Y188.285 E16.00694
G1 X211.297 Y188.989 E16.049
G1 X210.672 Y189.64 E16.09102
G1 X209.991 Y190.234 E16.1331
G1 X209.26 Y190.765 E16.17517
G1 X208.486 Y191.229 E16.21719
G1 X207.673 Y191.623 E16.25926
G1 X206.829 Y191.943 E16.30129
G1 X205.959 Y192.188 E16.34338
G1 X205.072 Y192.354 E16.3854
G1 X203.921 Y192.452 E16.43919
G1 X203.314 Y192.465 E16.46746
G1 X14.219 Y192.464 E25.27251
G1 X13.521 Y192.455 E25.30502
G1 X12.62 Y192.404 E25.34704
G1 X11.726 Y192.272 E25.38912
G1 X10.848 Y192.063 E25.43114
G1 X9.991 Y191.776 E25.47323
G1 X9.164 Y191.415 E25.51524
G1 X8.371 Y190.982 E25.55732
G1 X7.62 Y190.481 E25.59935
G1 X6.916 Y189.915 E25.64142
G1 X6.265 Y189.289 E25.68347
G1 X5.672 Y188.608 E25.72552
G1 X5.142 Y187.877 E25.76756
G1 X4.678 Y187.102 E25.80962
G1 X4.284 Y186.289 E25.85169
G1 X3.964 Y185.445 E25.89372
G1 X3.72 Y184.575 E25.93579
G1 X3.554 Y183.687 E25.97786
G1 X3.457 Y182.532 E26.03183
G1 X3.444 Y181.923 E26.06019
G1 X3.445 Y53.801 E32.02609
G1 X3.454 Y53.136 E32.05706
G1 X3.506 Y52.234 E32.09913
G1 X3.638 Y51.341 E32.14116
G1 X3.848 Y50.463 E32.1832
G1 X4.135 Y49.606 E32.22528
G1 X4.497 Y48.779 E32.26732
G1 X4.93 Y47.987 E32.30935
G1 X5.432 Y47.236 E32.35141
G1 X5.999 Y46.532 E32.3935
G1 X6.625 Y45.882 E32.43552
G1 X7.306 Y45.289 E32.47757
G1 X8.038 Y44.759 E32.51965
G1 X8.813 Y44.296 E32.56169
G1 X9.626 Y43.903 E32.60374
G1 X10.471 Y43.583 E32.64581
G1 X11.34 Y43.34 E32.68783
G0 F6000 X11.266 Y42.947
G1 F1200 X12.194 Y42.775 E32.73178
G1 X13.333 Y42.679 E32.785
G1 X13.974 Y42.665 E32.81486
G1 X203.089 Y42.666 E41.62084
G1 X203.804 Y42.677 E41.65414
G1 X204.741 Y42.733 E41.69785
G1 X205.634 Y42.865 E41.73988
G1 X206.582 Y43.093 E41.78528
G1 X207.438 Y43.381 E41.82734
G1 X208.33 Y43.771 E41.87267
G1 X209.122 Y44.206 E41.91474
G1 X209.902 Y44.726 E41.9584
G1 X210.661 Y45.338 E42.0038
G1 X211.311 Y45.965 E42.04585
G1 X211.949 Y46.7 E42.09117
G1 X212.499 Y47.461 E42.13489
G1 X212.961 Y48.237 E42.17694
G1 X213.384 Y49.114 E42.22228
G1 X213.713 Y49.992 E42.26594
G1 X213.964 Y50.897 E42.30967
G1 X214.135 Y51.824 E42.35357
G1 X214.23 Y52.954 E42.40637
G1 X214.244 Y53.595 E42.43622
G1 X214.243 Y181.66 E48.39947
G1 X214.233 Y182.405 E48.43416
G1 X214.179 Y183.342 E48.47786
G1 X214.048 Y184.236 E48.51994
G1 X213.832 Y185.149 E48.56362
G1 X213.524 Y186.073 E48.60898
G1 X213.163 Y186.901 E48.65104
G1 X212.697 Y187.755 E48.69634
G1 X212.175 Y188.536 E48.74008
G1 X211.609 Y189.24 E48.78214
G1 X210.961 Y189.917 E48.82578
G1 X210.226 Y190.558 E48.87119
G1 X209.495 Y191.089 E48.91326
G1 X208.692 Y191.572 E48.95689
G1 X207.815 Y191.997 E49.00227
G1 X206.971 Y192.317 E49.0443
G1 X206.033 Y192.581 E49.08968
G1 X205.106 Y192.753 E49.13358
G1 X203.955 Y192.851 E49.18737
G1 X203.323 Y192.865 E49.2168
G1 X14.214 Y192.864 E58.02251
G1 X13.498 Y192.854 E58.05585
G1 X12.562 Y192.8 E58.09951
G1 X11.668 Y192.668 E58.14159
G1 X10.755 Y192.452 E58.18528
G1 X9.831 Y192.143 E58.23064
G1 X9.004 Y191.782 E58.27266
G1 X8.149 Y191.315 E58.31803
G1 X7.369 Y190.793 E58.36173
G1 X6.665 Y190.227 E58.40379
G1 X5.963 Y189.552 E58.44914
G1 X5.37 Y188.871 E58.49119
G1 X4.818 Y188.112 E58.53489
G1 X4.318 Y187.276 E58.58025
G1 X3.91 Y186.431 E58.62394
G1 X3.59 Y185.587 E58.66597
G1 X3.327 Y184.649 E58.71133
G1 X3.155 Y183.72 E58.75532
G1 X3.057 Y182.541 E58.81041
G1 X3.044 Y181.923 E58.8392
G1 X3.045 Y53.796 E64.80533
G1 X3.055 Y53.113 E64.83713
G1 X3.11 Y52.176 E64.88084
G1 X3.242 Y51.283 E64.92287
G1 X3.459 Y50.37 E64.96657
G1 X3.756 Y49.479 E65.0103
G1 X4.146 Y48.587 E65.05563
G1 X4.597 Y47.765 E65.09929
G1 X5.12 Y46.985 E65.14302
G1 X5.687 Y46.281 E65.18511
G1 X6.362 Y45.58 E65.23043
G1 X7.043 Y44.987 E65.27247
G1 X7.803 Y44.435 E65.31621
G1 X8.639 Y43.936 E65.36155
G1 X9.484 Y43.529 E65.40522
G1 X10.329 Y43.209 E65.44729
G1 X11.266 Y42.947 E65.4926
G0 F6000 X11.193 Y42.554
G1 F1200 X12.16 Y42.376 E65.53838
G1 X13.299 Y42.28 E65.59161
G1 X13.974 Y42.265 E65.62304
G1 X203.095 Y42.266 E74.42931
G1 X203.828 Y42.278 E74.46345
G1 X204.799 Y42.337 E74.50874
G1 X205.728 Y42.476 E74.55248
G1 X206.676 Y42.704 E74.59789
G1 X207.598 Y43.014 E74.64318
G1 X208.523 Y43.42 E74.69022
G1 X209.315 Y43.855 E74.73229
G1 X210.124 Y44.393 E74.77753
G1 X210.939 Y45.05 E74.82628
G1 X211.589 Y45.677 E74.86833
G1 X212.251 Y46.438 E74.9153
G1 X212.843 Y47.256 E74.96232
G1 X213.305 Y48.032 E75.00437
G1 X213.759 Y48.974 E75.05306
G1 X214.088 Y49.852 E75.09672
G1 X214.357 Y50.824 E75.14368
G1 X214.534 Y51.79 E75.18941
G1 X214.629 Y52.92 E75.24221
G1 X214.644 Y53.595 E75.27365
G1 X214.643 Y181.665 E81.23713
G1 X214.632 Y182.428 E81.27266
G1 X214.575 Y183.4 E81.318
G1 X214.444 Y184.294 E81.36007
G1 X214.221 Y185.241 E81.40537
G1 X213.891 Y186.233 E81.45405
G1 X213.53 Y187.061 E81.49612
G1 X213.03 Y187.977 E81.54471
G1 X212.487 Y188.787 E81.59012
G1 X211.921 Y189.491 E81.63218
G1 X211.25 Y190.194 E81.67743
G1 X210.461 Y190.882 E81.72618
G1 X209.73 Y191.413 E81.76825
G1 X208.898 Y191.915 E81.81349
G1 X207.957 Y192.371 E81.86218
G1 X207.113 Y192.691 E81.90421
G1 X206.141 Y192.966 E81.95125
G1 X205.14 Y193.152 E81.99866
G1 X203.989 Y193.25 E82.05245
G1 X203.332 Y193.265 E82.08305
G1 X14.208 Y193.264 E90.88946
G1 X13.475 Y193.253 E90.92359
G1 X12.504 Y193.196 E90.96888
G1 X11.61 Y193.064 E91.01096
G1 X10.628 Y192.831 E91.05796
G1 X9.671 Y192.51 E91.10496
G1 X8.844 Y192.149 E91.14698
G1 X7.957 Y191.666 E91.19401
G1 X7.118 Y191.105 E91.241
G1 X6.414 Y190.539 E91.28306
G1 X5.661 Y189.815 E91.33171
G1 X5.068 Y189.134 E91.37375
G1 X4.475 Y188.317 E91.42076
G1 X3.958 Y187.45 E91.46776
G1 X3.536 Y186.573 E91.51308
G1 X3.216 Y185.729 E91.55511
G1 X2.942 Y184.757 E91.60214
G1 X2.756 Y183.753 E91.64968
G1 X2.658 Y182.574 E91.70477
G1 X2.644 Y181.923 E91.73509
G1 X2.645 Y53.79 E97.7015
G1 X2.656 Y53.09 E97.7341
G1 X2.714 Y52.118 E97.77944
G1 X2.846 Y51.225 E97.82147
G1 X3.07 Y50.278 E97.86679
G1 X3.389 Y49.319 E97.91385
G1 X3.779 Y48.427 E97.95918
G1 X4.246 Y47.573 E98.0045
G1 X4.808 Y46.734 E98.05153
G1 X5.375 Y46.03 E98.09362
G1 X6.099 Y45.278 E98.14222
G1 X6.78 Y44.685 E98.18427
G1 X7.568 Y44.111 E98.22967
G1 X8.465 Y43.576 E98.2783
G1 X9.342 Y43.155 E98.3236
G1 X10.187 Y42.835 E98.36567
G1 X11.193 Y42.554 E98.41431
G1 F2700 E93.41431
;MESH:megav2-RightSide.stl
G0 F6000 X14.444 Y52.6
G0 X203.044 Y181.665
;TYPE:WALL-INNER
G1 F2700 E98.41431
G1 F1200 X203.044 Y53.865 E104.36521
G1 X14.244 Y53.865 E113.15653
G1 X14.244 Y181.665 E119.10743
G1 X203.044 Y181.665 E127.89875
G0 F6000 X203.444 Y182.065
;TYPE:WALL-OUTER
G1 F1200 X203.444 Y53.465 E133.88691
G1 X13.844 Y53.465 E142.71548
G1 X13.844 Y182.065 E148.70363
G1 X203.444 Y182.065 E157.5322
G0 F6000 X203.174 Y181.795
G0 X202.944 Y181.305
G0 X202.684 Y181.305
;TYPE:SKIN
G1 F1200 X14.604 Y181.305 E166.29
G1 X14.604 Y54.225 E172.20737
G1 X202.684 Y54.225 E180.96517
G1 X202.684 Y181.305 E186.88254
G1 F2700 E181.88254
G0 F6000 X202.944 Y181.305
G0 X202.944 Y54.839
G0 X202.483 Y54.839
G1 F2700 E186.88254
G1 F1200 X202.069 Y54.425 E186.90981
G0 F6000 X201.503 Y54.425
G1 F1200 X202.483 Y55.405 E186.97434
G0 F6000 X202.483 Y55.971
G1 F1200 X200.937 Y54.425 E187.07615
G0 F6000 X200.372 Y54.425
G1 F1200 X202.483 Y56.536 E187.21516
G0 F6000 X202.483 Y57.102
G1 F1200 X199.806 Y54.425 E187.39144
G0 F6000 X199.24 Y54.425
G1 F1200 X202.483 Y57.668 E187.605
G0 F6000 X202.483 Y58.233
G1 F1200 X198.675 Y54.425 E187.85577
G0 F6000 X198.109 Y54.425
G1 F1200 X202.483 Y58.799 E188.1438
G0 F6000 X202.483 Y59.365
G1 F1200 X197.543 Y54.425 E188.46911
G0 F6000 X196.978 Y54.425
G1 F1200 X202.483 Y59.93 E188.83162
G0 F6000 X202.483 Y60.496
G1 F1200 X196.412 Y54.425 E189.23141
G0 F6000 X195.846 Y54.425
G1 F1200 X202.483 Y61.062 E189.66847
G0 F6000 X202.483 Y61.627
G1 F1200 X195.28 Y54.425 E190.14276
G0 F6000 X194.715 Y54.425
G1 F1200 X202.483 Y62.193 E190.6543
G0 F6000 X202.483 Y62.759
G1 F1200 X194.149 Y54.425 E191.20311
G0 F6000 X193.583 Y54.425
G1 F1200 X202.483 Y63.324 E191.78915
G0 F6000 X202.483 Y63.89
G1 F1200 X193.018 Y54.425 E192.41244
G0 F6000 X192.452 Y54.425
G1 F1200 X202.483 Y64.456 E193.073
G0 F6000 X202.483 Y65.022
G1 F1200 X191.886 Y54.425 E193.77083
G0 F6000 X191.321 Y54.425
G1 F1200 X202.483 Y65.587 E194.50587
G0 F6000 X202.483 Y66.153
G1 F1200 X190.755 Y54.425 E195.27817
G0 F6000 X190.189 Y54.425
G1 F1200 X202.483 Y66.719 E196.08776
G0 F6000 X202.483 Y67.284
G1 F1200 X189.624 Y54.425 E196.93454
G0 F6000 X189.058 Y54.425
G1 F1200 X202.483 Y67.85 E197.8186
G0 F6000 X202.483 Y68.416
G1 F1200 X188.492 Y54.425 E198.73993
G0 F6000 X187.927 Y54.425
G1 F1200 X202.483 Y68.981 E199.69847
G0 F6000 X202.483 Y69.547
G1 F1200 X187.361 Y54.425 E200.69428
G0 F6000 X186.795 Y54.425
G1 F1200 X202.483 Y70.113 E201.72736
G0 F6000 X202.483 Y70.678
G1 F1200 X186.23 Y54.425 E202.79765
G0 F6000 X185.664 Y54.425
G1 F1200 X202.483 Y71.244 E203.90521
G0 F6000 X202.483 Y71.81
G1 F1200 X185.098 Y54.425 E205.05004
G0 F6000 X184.532 Y54.425
G1 F1200 X202.483 Y72.375 E206.23211
G0 F6000 X202.483 Y72.941
G1 F1200 X183.967 Y54.425 E207.45142
G0 F6000 X183.401 Y54.425
G1 F1200 X202.483 Y73.507 E208.708
G0 F6000 X202.483 Y74.072
G1 F1200 X182.835 Y54.425 E210.00183
G0 F6000 X182.27 Y54.425
G1 F1200 X202.483 Y74.638 E211.33289
G0 F6000 X202.483 Y75.204
G1 F1200 X181.704 Y54.425 E212.70122
G0 F6000 X181.138 Y54.425
G1 F1200 X202.483 Y75.77 E214.10682
G0 F6000 X202.483 Y76.335
G1 F1200 X180.573 Y54.425 E215.54963
G0 F6000 X180.007 Y54.425
G1 F1200 X202.483 Y76.901 E217.02972
G0 F6000 X202.483 Y77.467
G1 F1200 X179.441 Y54.425 E218.54707
G0 F6000 X178.876 Y54.425
G1 F1200 X202.483 Y78.032 E220.10163
G0 F6000 X202.483 Y78.598
G1 F1200 X178.31 Y54.425 E221.69347
G0 F6000 X177.744 Y54.425
G1 F1200 X202.483 Y79.164 E223.32257
G0 F6000 X202.483 Y79.729
G1 F1200 X177.179 Y54.425 E224.98888
G0 F6000 X176.613 Y54.425
G1 F1200 X202.483 Y80.295 E226.69247
G0 F6000 X202.483 Y80.861
G1 F1200 X176.047 Y54.425 E228.43332
G0 F6000 X175.481 Y54.425
G1 F1200 X202.483 Y81.426 E230.21142
G0 F6000 X202.483 Y81.992
G1 F1200 X174.916 Y54.425 E232.02675
G0 F6000 X174.35 Y54.425
G1 F1200 X202.483 Y82.558 E233.87936
G0 F6000 X202.483 Y83.123
G1 F1200 X173.784 Y54.425 E235.7692
G0 F6000 X173.219 Y54.425
G1 F1200 X202.483 Y83.689 E237.69629
G0 F6000 X202.483 Y84.255
G1 F1200 X172.653 Y54.425 E239.66064
G0 F6000 X172.087 Y54.425
G1 F1200 X202.483 Y84.82 E241.66224
G0 F6000 X202.483 Y85.386
G1 F1200 X171.522 Y54.425 E243.70108
G0 F6000 X170.956 Y54.425
G1 F1200 X202.483 Y85.952 E245.77718
G0 F6000 X202.483 Y86.518
G1 F1200 X170.39 Y54.425 E247.89056
G0 F6000 X169.825 Y54.425
G1 F1200 X202.483 Y87.083 E250.04115
G0 F6000 X202.483 Y87.649
G1 F1200 X169.259 Y54.425 E252.229
G0 F6000 X168.693 Y54.425
G1 F1200 X202.483 Y88.215 E254.45413
G0 F6000 X202.483 Y88.78
G1 F1200 X168.128 Y54.425 E256.71647
G0 F6000 X167.562 Y54.425
G1 F1200 X202.483 Y89.346 E259.01608
G0 F6000 X202.483 Y89.912
G1 F1200 X166.996 Y54.425 E261.35295
G0 F6000 X166.431 Y54.425
G1 F1200 X202.483 Y90.477 E263.72704
G0 F6000 X202.483 Y91.043
G1 F1200 X165.865 Y54.425 E266.1384
G0 F6000 X165.299 Y54.425
G1 F1200 X202.483 Y91.609 E268.58703
G0 F6000 X202.483 Y92.174
G1 F1200 X164.733 Y54.425 E271.0729
G0 F6000 X164.168 Y54.425
G1 F1200 X202.483 Y92.74 E273.59601
G0 F6000 X202.483 Y93.306
G1 F1200 X163.602 Y54.425 E276.15639
G0 F6000 X163.036 Y54.425
G1 F1200 X202.483 Y93.871 E278.75401
G0 F6000 X202.483 Y94.437
G1 F1200 X162.471 Y54.425 E281.38886
G0 F6000 X161.905 Y54.425
G1 F1200 X202.483 Y95.003 E284.06099
G0 F6000 X202.483 Y95.569
G1 F1200 X161.339 Y54.425 E286.7704
G0 F6000 X160.774 Y54.425
G1 F1200 X202.483 Y96.134 E289.51701
G0 F6000 X202.483 Y96.7
G1 F1200 X160.208 Y54.425 E292.30089
G0 F6000 X159.642 Y54.425
G1 F1200 X202.483 Y97.266 E295.12204
G0 F6000 X202.483 Y97.831
G1 F1200 X159.077 Y54.425 E297.9804
G0 F6000 X158.511 Y54.425
G1 F1200 X202.483 Y98.397 E300.87603
G0 F6000 X202.483 Y98.963
G1 F1200 X157.945 Y54.425 E303.80893
G0 F6000 X157.38 Y54.425
G1 F1200 X202.483 Y99.528 E306.77904
G0 F6000 X202.483 Y100.094
G1 F1200 X156.814 Y54.425 E309.78642
G0 F6000 X156.248 Y54.425
G1 F1200 X202.483 Y100.66 E312.83108
G0 F6000 X202.483 Y101.225
G1 F1200 X155.682 Y54.425 E315.91297
G0 F6000 X155.117 Y54.425
G1 F1200 X202.483 Y101.791 E319.0321
G0 F6000 X202.483 Y102.357
G1 F1200 X154.551 Y54.425 E322.18851
G0 F6000 X153.985 Y54.425
G1 F1200 X202.483 Y102.922 E325.38215
G0 F6000 X202.483 Y103.488
G1 F1200 X153.42 Y54.425 E328.61303
G0 F6000 X152.854 Y54.425
G1 F1200 X202.483 Y104.054 E331.88119
G0 F6000 X202.483 Y104.619
G1 F1200 X152.288 Y54.425 E335.18658
G0 F6000 X151.723 Y54.425
G1 F1200 X202.483 Y105.185 E338.52921
G0 F6000 X202.483 Y105.751
G1 F1200 X151.157 Y54.425 E341.90912
G0 F6000 X150.591 Y54.425
G1 F1200 X202.483 Y106.317 E345.3263
G0 F6000 X202.483 Y106.882
G1 F1200 X150.026 Y54.425 E348.78068
G0 F6000 X149.46 Y54.425
G1 F1200 X202.483 Y107.448 E352.27233
G0 F6000 X202.483 Y108.014
G1 F1200 X148.894 Y54.425 E355.80126
G0 F6000 X148.329 Y54.425
G1 F1200 X202.483 Y108.579 E359.36739
G0 F6000 X202.483 Y109.145
G1 F1200 X147.763 Y54.425 E362.9708
G0 F6000 X147.197 Y54.425
G1 F1200 X202.483 Y109.711 E366.61148
G0 F6000 X202.483 Y110.276
G1 F1200 X146.632 Y54.425 E370.28936
G0 F6000 X146.066 Y54.425
G1 F1200 X202.483 Y110.842 E374.00452
G0 F6000 X202.483 Y111.408
G1 F1200 X145.5 Y54.425 E377.75694
G0 F6000 X144.934 Y54.425
G1 F1200 X202.483 Y111.973 E381.54661
G0 F6000 X202.483 Y112.539
G1 F1200 X144.369 Y54.425 E385.37352
G0 F6000 X143.803 Y54.425
G1 F1200 X202.483 Y113.105 E389.2377
G0 F6000 X202.483 Y113.67
G1 F1200 X143.237 Y54.425 E393.13911
G0 F6000 X142.672 Y54.425
G1 F1200 X202.483 Y114.236 E397.07777
G0 F6000 X202.483 Y114.802
G1 F1200 X142.106 Y54.425 E401.0537
G0 F6000 X141.54 Y54.425
G1 F1200 X202.483 Y115.368 E405.0669
G0 F6000 X202.483 Y115.933
G1 F1200 X140.975 Y54.425 E409.11731
G0 F6000 X140.409 Y54.425
G1 F1200 X202.483 Y116.499 E413.20498
G0 F6000 X202.483 Y117.065
G1 F1200 X139.843 Y54.425 E417.32994
G0 F6000 X139.278 Y54.425
G1 F1200 X202.483 Y117.63 E421.49209
G0 F6000 X202.483 Y118.196
G1 F1200 X138.712 Y54.425 E425.69152
G0 F6000 X138.146 Y54.425
G1 F1200 X202.483 Y118.762 E429.92822
G0 F6000 X202.483 Y119.327
G1 F1200 X137.581 Y54.425 E434.20213
G0 F6000 X137.015 Y54.425
G1 F1200 X202.483 Y119.893 E438.51331
