;FLAVOR:Marlin
;TIME:3124
;Filament used: 2.38275m
;Layer height: 0.28
;MINX:58.2
;MINY:75.033
;MINZ:0.28
;MAXX:177.8
;MAXY:139.633
;MAXZ:10.08
;Generated with Cura_SteamEngine 5.3.1
M140 S60
M105
M190 S60
M104 S195
M105
M109 S195
M82 ;absolute extrusion mode
; Ender 3 Custom Start G-code
G92 E0 ; Reset Extruder
G28 ; Home all axes
G1 Z2.0 F3000 ; Move Z Axis up little to prevent scratching of Heat Bed
G1 X0.1 Y20 Z0.3 F5000.0 ; Move to start position
G1 X0.1 Y200.0 Z0.3 F1500.0 E15 ; Draw the first line
G1 X0.4 Y200.0 Z0.3 F5000.0 ; Move to side a little
G1 X0.4 Y20 Z0.3 F1500.0 E30 ; Draw the second line
G92 E0 ; Reset Extruder
G1 Z2.0 F3000 ; Move Z Axis up little to prevent scratching of Heat Bed
G1 X5 Y20 Z0.3 F5000.0 ; Move over to prevent blob squish
G92 E0
G92 E0
G1 F2700 E-5
;LAYER_COUNT:36
;LAYER:0
M107
G0 F6000 X61.294 Y76.583 Z0.28
;TYPE:SKIRT
G1 F2700 E0
G1 F1200 X63.166 Y75.471 E0.10139
G1 X65.353 Y75.033 E0.20525
G1 X170.853 Y75.033 E5.11777
G1 X172.749 Y75.499 E5.20868
G1 X174.776 Y76.552 E5.31504
G1 X176.25 Y78.127 E5.41549
G1 X177.362 Y79.999 E5.51688
G1 X177.8 Y82.186 E5.62073
G1 X177.8 Y111.686 E6.99438
G1 X177.334 Y113.582 E7.08529
G1 X176.281 Y115.609 E7.19165
G1 X174.706 Y117.083 E7.2921
G1 X172.834 Y118.195 E7.39349
G1 X170.647 Y118.633 E7.49734
G1 X149.147 Y118.633 E8.49847
G1 X147.251 Y118.167 E8.58939
G1 X145.224 Y117.114 E8.69575
G1 X143.75 Y115.539 E8.79619
G1 X142.638 Y113.667 E8.89758
G1 X142.2 Y111.48 E9.00144
G1 X142.2 Y105.633 E9.2737
G1 X111.147 Y105.633 E10.71966
G1 X109.251 Y105.167 E10.81057
G1 X107.224 Y104.114 E10.91693
G1 X105.75 Y102.539 E11.01738
G1 X104.638 Y100.667 E11.11877
G1 X104.2 Y98.48 E11.22262
G1 X104.2 Y96.633 E11.30863
G1 X96.8 Y96.633 E11.6532
G1 X96.8 Y132.686 E13.33198
G1 X96.334 Y134.582 E13.4229
G1 X95.281 Y136.609 E13.52926
G1 X93.706 Y138.083 E13.6297
G1 X91.834 Y139.195 E13.73109
G1 X89.647 Y139.633 E13.83495
G1 X65.147 Y139.633 E14.97577
G1 X63.251 Y139.167 E15.06668
G1 X61.224 Y138.114 E15.17305
G1 X59.75 Y136.539 E15.27349
G1 X58.638 Y134.667 E15.37488
G1 X58.2 Y132.48 E15.47874
G1 X58.2 Y81.98 E17.83023
G1 X58.666 Y80.084 E17.92114
G1 X59.719 Y78.057 E18.0275
G1 X61.294 Y76.583 E18.12795
G0 F6000 X61.535 Y76.905
G1 F1200 X63.312 Y75.849 E18.2242
G1 X65.391 Y75.433 E18.32293
G1 X170.807 Y75.433 E23.23154
G1 X172.606 Y75.875 E23.3178
G1 X174.531 Y76.875 E23.41881
G1 X175.928 Y78.368 E23.51402
G1 X176.984 Y80.145 E23.61027
G1 X177.4 Y82.224 E23.70899
G1 X177.4 Y111.64 E25.07873
G1 X176.958 Y113.439 E25.16499
G1 X175.958 Y115.364 E25.266
G1 X174.465 Y116.761 E25.3612
G1 X172.688 Y117.817 E25.45746
G1 X170.609 Y118.233 E25.55618
G1 X149.193 Y118.233 E26.5534
G1 X147.394 Y117.791 E26.63966
G1 X145.469 Y116.791 E26.74067
G1 X144.072 Y115.298 E26.83588
G1 X143.016 Y113.521 E26.93213
G1 X142.6 Y111.442 E27.03086
G1 X142.6 Y105.233 E27.31997
G1 X111.193 Y105.233 E28.78242
G1 X109.394 Y104.791 E28.86868
G1 X107.469 Y103.791 E28.96969
G1 X106.072 Y102.298 E29.06489
G1 X105.016 Y100.521 E29.16115
G1 X104.6 Y98.442 E29.25987
G1 X104.6 Y96.233 E29.36273
G1 X96.4 Y96.233 E29.74456
G1 X96.4 Y132.64 E31.43982
G1 X95.958 Y134.439 E31.52608
G1 X94.958 Y136.364 E31.62709
G1 X93.465 Y137.761 E31.7223
G1 X91.688 Y138.817 E31.81855
G1 X89.609 Y139.233 E31.91728
G1 X65.193 Y139.233 E33.05419
G1 X63.394 Y138.791 E33.14045
G1 X61.469 Y137.791 E33.24146
G1 X60.072 Y136.298 E33.33667
G1 X59.016 Y134.521 E33.43292
G1 X58.6 Y132.442 E33.53164
G1 X58.6 Y82.026 E35.87922
G1 X59.042 Y80.227 E35.96548
G1 X60.042 Y78.302 E36.06649
G1 X61.535 Y76.905 E36.1617
G0 F6000 X61.776 Y77.227
G1 F1200 X63.458 Y76.228 E36.2528
G1 X65.43 Y75.833 E36.34644
G1 X170.76 Y75.833 E41.25105
G1 X172.464 Y76.252 E41.33276
G1 X174.286 Y77.198 E41.42835
G1 X175.606 Y78.609 E41.51832
G1 X176.605 Y80.291 E41.60942
G1 X177 Y82.263 E41.70307
G1 X177 Y111.593 E43.06879
G1 X176.581 Y113.297 E43.1505
G1 X175.635 Y115.119 E43.2461
G1 X174.224 Y116.439 E43.33607
G1 X172.542 Y117.438 E43.42716
G1 X170.57 Y117.833 E43.52081
G1 X149.24 Y117.833 E44.51402
G1 X147.536 Y117.414 E44.59573
G1 X145.714 Y116.468 E44.69133
G1 X144.394 Y115.057 E44.7813
G1 X143.395 Y113.375 E44.87239
G1 X143 Y111.403 E44.96604
G1 X143 Y104.833 E45.27197
G1 X111.24 Y104.833 E46.75084
G1 X109.536 Y104.414 E46.83255
G1 X107.714 Y103.468 E46.92815
G1 X106.394 Y102.057 E47.01812
G1 X105.395 Y100.375 E47.10921
G1 X105 Y98.403 E47.20286
G1 X105 Y95.833 E47.32253
G1 X96 Y95.833 E47.74161
G1 X96 Y132.593 E49.45331
G1 X95.581 Y134.297 E49.53502
G1 X94.635 Y136.119 E49.63061
G1 X93.224 Y137.439 E49.72058
G1 X91.542 Y138.438 E49.81167
G1 X89.57 Y138.833 E49.90532
G1 X65.24 Y138.833 E51.03823
G1 X63.536 Y138.414 E51.11994
G1 X61.714 Y137.468 E51.21553
G1 X60.394 Y136.057 E51.3055
G1 X59.395 Y134.375 E51.3966
G1 X59 Y132.403 E51.49024
G1 X59 Y82.073 E53.83382
G1 X59.419 Y80.369 E53.91553
G1 X60.365 Y78.547 E54.01112
G1 X61.776 Y77.227 E54.10109
G0 F6000 X62.017 Y77.549
G1 F1200 X63.604 Y76.606 E54.18705
G1 X65.468 Y76.233 E54.27557
G1 X170.714 Y76.233 E59.17626
G1 X172.321 Y76.628 E59.25332
G1 X174.041 Y77.521 E59.34356
G1 X175.284 Y78.85 E59.42829
G1 X176.227 Y80.437 E59.51425
G1 X176.6 Y82.301 E59.60277
G1 X176.6 Y111.547 E60.96458
G1 X176.205 Y113.154 E61.04164
G1 X175.312 Y114.874 E61.13188
G1 X173.983 Y116.117 E61.21661
G1 X172.396 Y117.06 E61.30257
G1 X170.532 Y117.433 E61.39109
G1 X149.286 Y117.433 E62.38039
G1 X147.679 Y117.038 E62.45745
G1 X145.959 Y116.145 E62.54769
G1 X144.716 Y114.816 E62.63242
G1 X143.773 Y113.229 E62.71838
G1 X143.4 Y111.365 E62.8069
G1 X143.4 Y104.433 E63.12968
G1 X111.286 Y104.433 E64.62504
G1 X109.679 Y104.038 E64.7021
G1 X107.959 Y103.145 E64.79234
G1 X106.716 Y101.816 E64.87707
G1 X105.773 Y100.229 E64.96303
G1 X105.4 Y98.365 E65.05155
G1 X105.4 Y95.433 E65.18807
G1 X95.6 Y95.433 E65.6444
G1 X95.6 Y132.547 E67.37259
G1 X95.205 Y134.154 E67.44964
G1 X94.312 Y135.874 E67.53988
G1 X92.983 Y137.117 E67.62462
G1 X91.396 Y138.06 E67.71058
G1 X89.532 Y138.433 E67.79909
G1 X65.286 Y138.433 E68.92809
G1 X63.679 Y138.038 E69.00514
G1 X61.959 Y137.145 E69.09538
G1 X60.716 Y135.816 E69.18012
G1 X59.773 Y134.229 E69.26608
G1 X59.4 Y132.365 E69.35459
G1 X59.4 Y82.119 E71.69426
G1 X59.795 Y80.512 E71.77131
G1 X60.688 Y78.792 E71.86155
G1 X62.017 Y77.549 E71.94629
G0 F6000 X62.258 Y77.871
G1 F1200 X63.75 Y76.984 E72.02711
G1 X65.506 Y76.633 E72.11049
G1 X170.668 Y76.633 E77.00728
G1 X172.178 Y77.004 E77.07968
G1 X173.796 Y77.844 E77.16457
G1 X174.962 Y79.091 E77.24406
G1 X175.849 Y80.583 E77.32489
G1 X176.2 Y82.339 E77.40827
G1 X176.2 Y111.501 E78.76618
G1 X175.829 Y113.011 E78.83858
G1 X174.989 Y114.629 E78.92347
G1 X173.742 Y115.795 E79.00296
G1 X172.25 Y116.682 E79.08379
G1 X170.494 Y117.033 E79.16717
G1 X149.332 Y117.033 E80.15256
G1 X147.822 Y116.662 E80.22497
G1 X146.204 Y115.822 E80.30986
G1 X145.038 Y114.575 E80.38935
G1 X144.151 Y113.083 E80.47017
G1 X143.8 Y111.327 E80.55356
G1 X143.8 Y104.033 E80.8932
G1 X111.332 Y104.033 E82.40504
G1 X109.822 Y103.662 E82.47745
G1 X108.204 Y102.822 E82.56234
G1 X107.038 Y101.575 E82.64183
G1 X106.151 Y100.083 E82.72266
G1 X105.8 Y98.327 E82.80604
G1 X105.8 Y95.033 E82.95942
G1 X95.2 Y95.033 E83.453
G1 X95.2 Y132.501 E85.19767
G1 X94.829 Y134.011 E85.27007
G1 X93.989 Y135.629 E85.35496
G1 X92.742 Y136.795 E85.43446
G1 X91.25 Y137.682 E85.51528
G1 X89.494 Y138.033 E85.59866
G1 X65.332 Y138.033 E86.72375
G1 X63.822 Y137.662 E86.79615
G1 X62.204 Y136.822 E86.88104
G1 X61.038 Y135.575 E86.96054
G1 X60.151 Y134.083 E87.04136
G1 X59.8 Y132.327 E87.12474
G1 X59.8 Y82.165 E89.4605
G1 X60.171 Y80.655 E89.5329
G1 X61.011 Y79.037 E89.61779
G1 X62.258 Y77.871 E89.69728
G0 F6000 X62.499 Y78.193
G1 F1200 X63.896 Y77.362 E89.77297
G1 X65.544 Y77.033 E89.85122
G1 X170.621 Y77.033 E94.74405
G1 X172.036 Y77.381 E94.8119
G1 X173.551 Y78.167 E94.89137
G1 X174.64 Y79.332 E94.96563
G1 X175.471 Y80.729 E95.04132
G1 X175.8 Y82.377 E95.11957
G1 X175.8 Y111.454 E96.47352
G1 X175.452 Y112.869 E96.54137
G1 X174.666 Y114.384 E96.62084
G1 X173.501 Y115.473 E96.6951
G1 X172.104 Y116.304 E96.77079
G1 X170.456 Y116.633 E96.84904
G1 X149.379 Y116.633 E97.83048
G1 X147.964 Y116.285 E97.89833
G1 X146.449 Y115.499 E97.9778
G1 X145.36 Y114.334 E98.05206
G1 X144.529 Y112.937 E98.12775
G1 X144.2 Y111.289 E98.206
G1 X144.2 Y103.633 E98.5625
G1 X111.379 Y103.633 E100.09078
G1 X109.964 Y103.285 E100.15863
G1 X108.449 Y102.499 E100.2381
G1 X107.36 Y101.334 E100.31236
G1 X106.529 Y99.937 E100.38805
G1 X106.2 Y98.289 E100.4663
G1 X106.2 Y94.633 E100.63654
G1 X94.8 Y94.633 E101.16737
G1 X94.8 Y132.454 E102.92848
G1 X94.452 Y133.869 E102.99633
G1 X93.666 Y135.384 E103.0758
G1 X92.501 Y136.473 E103.15006
G1 X91.104 Y137.304 E103.22575
G1 X89.456 Y137.633 E103.304
G1 X65.379 Y137.633 E104.42513
G1 X63.964 Y137.285 E104.49298
G1 X62.449 Y136.499 E104.57245
G1 X61.36 Y135.334 E104.64671
G1 X60.529 Y133.937 E104.7224
G1 X60.2 Y132.289 E104.80065
G1 X60.2 Y82.212 E107.13244
G1 X60.548 Y80.797 E107.2003
G1 X61.334 Y79.282 E107.27977
G1 X62.499 Y78.193 E107.35403
G0 F6000 X62.738 Y78.517
G1 F1200 X64.044 Y77.74 E107.42479
G1 X65.582 Y77.433 E107.49782
G1 X170.575 Y77.433 E112.38673
G1 X171.893 Y77.757 E112.44993
G1 X173.306 Y78.49 E112.52405
G1 X174.316 Y79.571 E112.59294
G1 X175.093 Y80.877 E112.6637
G1 X175.4 Y82.415 E112.73673
G1 X175.4 Y111.408 E114.08676
G1 X175.076 Y112.726 E114.14996
G1 X174.343 Y114.139 E114.22408
G1 X173.262 Y115.149 E114.29297
G1 X171.956 Y115.926 E114.36373
G1 X170.418 Y116.233 E114.43676
G1 X149.425 Y116.233 E115.41428
G1 X148.107 Y115.909 E115.47748
G1 X146.694 Y115.176 E115.5516
G1 X145.684 Y114.095 E115.62049
G1 X144.907 Y112.789 E115.69125
G1 X144.6 Y111.251 E115.76428
G1 X144.6 Y103.233 E116.13763
G1 X111.425 Y103.233 E117.6824
G1 X110.107 Y102.909 E117.7456
G1 X108.694 Y102.176 E117.81972
G1 X107.684 Y101.095 E117.88861
G1 X106.907 Y99.789 E117.95937
G1 X106.6 Y98.251 E118.0324
G1 X106.6 Y94.233 E118.21949
G1 X94.4 Y94.233 E118.78758
G1 X94.4 Y132.408 E120.56517
G1 X94.076 Y133.726 E120.62836
G1 X93.343 Y135.139 E120.70249
G1 X92.262 Y136.149 E120.77137
G1 X90.956 Y136.926 E120.84213
G1 X89.418 Y137.233 E120.91516
G1 X65.425 Y137.233 E122.03238
G1 X64.107 Y136.909 E122.09558
G1 X62.694 Y136.176 E122.1697
G1 X61.684 Y135.095 E122.23859
G1 X60.907 Y133.789 E122.30935
G1 X60.6 Y132.251 E122.38238
G1 X60.6 Y82.258 E124.71026
G1 X60.924 Y80.94 E124.77346
G1 X61.657 Y79.527 E124.84758
G1 X62.738 Y78.517 E124.91647
G0 F6000 X62.977 Y78.841
G1 F1200 X64.192 Y78.118 E124.9823
G1 X65.62 Y77.833 E125.05011
G1 X170.529 Y77.833 E129.93511
G1 X171.75 Y78.133 E129.99365
G1 X173.061 Y78.813 E130.06242
G1 X173.992 Y79.81 E130.12594
G1 X174.715 Y81.025 E130.19178
G1 X175 Y82.453 E130.25958
G1 X175 Y111.362 E131.60571
G1 X174.7 Y112.583 E131.66425
G1 X174.02 Y113.894 E131.73302
G1 X173.023 Y114.825 E131.79654
G1 X171.808 Y115.548 E131.86237
G1 X170.38 Y115.833 E131.93018
G1 X149.471 Y115.833 E132.90379
G1 X148.25 Y115.533 E132.96233
G1 X146.939 Y114.853 E133.0311
G1 X146.008 Y113.856 E133.09462
G1 X145.285 Y112.641 E133.16046
G1 X145 Y111.213 E133.22826
G1 X145 Y102.833 E133.61847
G1 X111.471 Y102.833 E135.17972
G1 X110.25 Y102.533 E135.23827
G1 X108.939 Y101.853 E135.30703
G1 X108.008 Y100.856 E135.37055
G1 X107.285 Y99.641 E135.43639
G1 X107 Y98.213 E135.50419
G1 X107 Y93.833 E135.70814
G1 X94 Y93.833 E136.31348
G1 X94 Y132.362 E138.10755
G1 X93.7 Y133.583 E138.1661
G1 X93.02 Y134.894 E138.23486
G1 X92.023 Y135.825 E138.29838
G1 X90.808 Y136.548 E138.36422
G1 X89.38 Y136.833 E138.43202
G1 X65.471 Y136.833 E139.54533
G1 X64.25 Y136.533 E139.60387
G1 X62.939 Y135.853 E139.67264
G1 X62.008 Y134.856 E139.73616
G1 X61.285 Y133.641 E139.80199
G1 X61 Y132.213 E139.8698
G1 X61 Y82.304 E142.19377
G1 X61.3 Y81.083 E142.25232
G1 X61.98 Y79.772 E142.32108
G1 X62.977 Y78.841 E142.3846
G0 F6000 X63.216 Y79.165
G1 F1200 X64.34 Y78.496 E142.44551
G1 X65.658 Y78.233 E142.50809
G1 X170.483 Y78.233 E147.38918
G1 X171.607 Y78.509 E147.44308
G1 X172.816 Y79.136 E147.50649
G1 X173.668 Y80.049 E147.56464
G1 X174.337 Y81.173 E147.62555
G1 X174.6 Y82.491 E147.68813
G1 X174.6 Y111.316 E149.03034
G1 X174.324 Y112.44 E149.08424
G1 X173.697 Y113.649 E149.14765
G1 X172.784 Y114.501 E149.2058
G1 X171.66 Y115.17 E149.26671
G1 X170.342 Y115.433 E149.32929
G1 X149.517 Y115.433 E150.29899
G1 X148.393 Y115.157 E150.35288
G1 X147.184 Y114.53 E150.4163
G1 X146.332 Y113.617 E150.47445
G1 X145.663 Y112.493 E150.53535
G1 X145.4 Y111.175 E150.59794
G1 X145.4 Y102.433 E151.005
G1 X111.517 Y102.433 E152.58273
G1 X110.393 Y102.157 E152.63663
G1 X109.184 Y101.53 E152.70004
G1 X108.332 Y100.617 E152.75819
G1 X107.663 Y99.493 E152.8191
G1 X107.4 Y98.175 E152.88168
G1 X107.4 Y93.433 E153.10249
G1 X93.6 Y93.433 E153.74507
G1 X93.6 Y132.316 E155.55563
G1 X93.324 Y133.44 E155.60952
G1 X92.697 Y134.649 E155.67294
G1 X91.784 Y135.501 E155.73109
G1 X90.66 Y136.17 E155.79199
G1 X89.342 Y136.433 E155.85458
G1 X65.517 Y136.433 E156.96397
G1 X64.393 Y136.157 E157.01786
G1 X63.184 Y135.53 E157.08128
G1 X62.332 Y134.617 E157.13943
G1 X61.663 Y133.493 E157.20033
G1 X61.4 Y132.175 E157.26292
G1 X61.4 Y82.35 E159.58298
G1 X61.676 Y81.226 E159.63687
G1 X62.303 Y80.017 E159.70029
G1 X63.216 Y79.165 E159.75843
G0 F6000 X63.458 Y79.487
G1 F1200 X64.488 Y78.874 E159.81425
G1 X65.696 Y78.633 E159.8716
G1 X170.436 Y78.633 E164.74874
G1 X171.465 Y78.886 E164.79808
G1 X172.569 Y79.458 E164.85598
G1 X173.346 Y80.291 E164.90902
G1 X173.959 Y81.321 E164.96483
G1 X174.2 Y82.529 E165.02219
G1 X174.2 Y111.269 E166.36044
G1 X173.947 Y112.298 E166.40979
G1 X173.375 Y113.402 E166.46768
G1 X172.542 Y114.179 E166.52073
G1 X171.512 Y114.792 E166.57654
G1 X170.304 Y115.033 E166.6339
G1 X149.564 Y115.033 E167.59964
G1 X148.535 Y114.78 E167.64898
G1 X147.431 Y114.208 E167.70688
G1 X146.654 Y113.375 E167.75992
G1 X146.041 Y112.345 E167.81573
G1 X145.8 Y111.137 E167.87309
G1 X145.8 Y102.033 E168.29701
G1 X111.564 Y102.033 E169.89118
G1 X110.535 Y101.78 E169.94052
G1 X109.431 Y101.208 E169.99842
G1 X108.654 Y100.375 E170.05146
G1 X108.041 Y99.345 E170.10727
G1 X107.8 Y98.137 E170.16463
G1 X107.8 Y93.033 E170.4023
G1 X93.2 Y93.033 E171.08213
G1 X93.2 Y132.269 E172.90913
G1 X92.947 Y133.298 E172.95847
G1 X92.375 Y134.402 E173.01636
G1 X91.542 Y135.179 E173.06941
G1 X90.512 Y135.792 E173.12522
G1 X89.304 Y136.033 E173.18258
G1 X65.564 Y136.033 E174.28801
G1 X64.535 Y135.78 E174.33735
G1 X63.431 Y135.208 E174.39525
G1 X62.654 Y134.375 E174.44829
G1 X62.041 Y133.345 E174.50411
G1 X61.8 Y132.137 E174.56146
G1 X61.8 Y82.397 E176.87757
G1 X62.053 Y81.368 E176.92691
G1 X62.625 Y80.264 E176.9848
G1 X63.458 Y79.487 E177.03785
G0 F6000 X63.7 Y79.809
G1 F1200 X64.636 Y79.252 E177.08856
G1 X65.734 Y79.033 E177.1407
G1 X170.39 Y79.033 E182.01392
G1 X171.322 Y79.262 E182.05861
G1 X172.322 Y79.78 E182.11105
G1 X173.024 Y80.533 E182.15899
G1 X173.581 Y81.469 E182.2097
G1 X173.8 Y82.567 E182.26184
G1 X173.8 Y111.223 E183.59618
G1 X173.571 Y112.155 E183.64087
G1 X173.053 Y113.155 E183.69331
G1 X172.3 Y113.857 E183.74125
G1 X171.364 Y114.414 E183.79197
G1 X170.266 Y114.633 E183.8441
G1 X149.61 Y114.633 E184.80593
G1 X148.678 Y114.404 E184.85062
G1 X147.678 Y113.886 E184.90306
G1 X146.976 Y113.133 E184.951
G1 X146.419 Y112.197 E185.00171
G1 X146.2 Y111.099 E185.05385
G1 X146.2 Y101.633 E185.49462
G1 X111.61 Y101.633 E187.10528
G1 X110.678 Y101.404 E187.14997
G1 X109.678 Y100.886 E187.20241
G1 X108.976 Y100.133 E187.25035
G1 X108.419 Y99.197 E187.30106
G1 X108.2 Y98.099 E187.3532
G1 X108.2 Y92.633 E187.60772
G1 X92.8 Y92.633 E188.32481
G1 X92.8 Y132.223 E190.16828
G1 X92.571 Y133.155 E190.21297
G1 X92.053 Y134.155 E190.26541
G1 X91.3 Y134.857 E190.31335
G1 X90.364 Y135.414 E190.36407
G1 X89.266 Y135.633 E190.4162
G1 X65.61 Y135.633 E191.51772
G1 X64.678 Y135.404 E191.56241
G1 X63.678 Y134.886 E191.61485
G1 X62.976 Y134.133 E191.66279
G1 X62.419 Y133.197 E191.71351
G1 X62.2 Y132.099 E191.76564
G1 X62.2 Y82.443 E194.07783
G1 X62.429 Y81.511 E194.12252
G1 X62.947 Y80.511 E194.17496
G1 X63.7 Y79.809 E194.2229
