;FLAVOR:Marlin
;TIME:8488
;Filament used: 7.47513m
;Layer height: 0.28
;MINX:64
;MINY:90.982
;MINZ:0.28
;MAXX:171
;MAXY:169.982
;MAXZ:57.12
;POSTPROCESSED
;Generated with Cura_SteamEngine 5.3.1
M140 S50
M105
M190 S50
M104 S200
M105
M109 S200
M82 ;absolute extrusion mode
; Ender 3 Custom Start G-code
G92 E0 ; Reset Extruder
G28 ; Home all axes
G1 Z2.0 F3000 ; Move Z Axis up little to prevent scratching of Heat Bed
G1 X0.1 Y20 Z0.3 F5000.0 ; Move to start position
G1 X0.1 Y200.0 Z0.3 F1500.0 E15 ; Draw the first line
G1 X0.4 Y200.0 Z0.3 F5000.0 ; Move to side a little
G1 X0.4 Y20 Z0.3 F1500.0 E30 ; Draw the second line
G92 E0 ; Reset Extruder
G1 Z2.0 F3000 ; Move Z Axis up little to prevent scratching of Heat Bed
G1 X5 Y20 Z0.3 F5000.0 ; Move over to prevent blob squish
G92 E0
G92 E0
G1 F2700 E-5
;LAYER_COUNT:204
;LAYER:0
M107
G0 F6000 X68.675 Y93.996 Z0.28
;TYPE:SKIRT
G1 F2700 E0
G1 F1200 X69.407 Y93.467 E0.04205
G1 X70.183 Y93.005 E0.08411
G1 X70.997 Y92.614 E0.12616
G1 X71.842 Y92.295 E0.16821
G1 X72.712 Y92.053 E0.21026
G1 X73.6 Y91.889 E0.25231
G1 X74.723 Y91.795 E0.30478
G1 X75.33 Y91.782 E0.33306
G1 X159.439 Y91.783 E4.24952
G1 X160.137 Y91.793 E4.28203
G1 X161.039 Y91.846 E4.3241
G1 X161.932 Y91.978 E4.36614
G1 X162.81 Y92.189 E4.40818
G1 X163.666 Y92.477 E4.45024
G1 X164.493 Y92.839 E4.49227
G1 X165.285 Y93.274 E4.53435
G1 X166.036 Y93.776 E4.57641
G1 X166.739 Y94.343 E4.61847
G1 X167.389 Y94.97 E4.66052
G1 X167.981 Y95.652 E4.70257
G1 X168.511 Y96.383 E4.74462
G1 X168.973 Y97.159 E4.78667
G1 X169.366 Y97.972 E4.82872
G1 X169.684 Y98.817 E4.87076
G1 X169.927 Y99.687 E4.91282
G1 X170.092 Y100.575 E4.95487
G1 X170.187 Y101.705 E5.00768
G1 X170.2 Y102.312 E5.03595
G1 X170.199 Y145.872 E7.06428
G1 X170.19 Y146.599 E7.09814
G1 X170.139 Y147.501 E7.14021
G1 X170.008 Y148.395 E7.18228
G1 X169.799 Y149.273 E7.22431
G1 X169.513 Y150.13 E7.26638
G1 X169.152 Y150.958 E7.30844
G1 X168.72 Y151.75 E7.35044
G1 X168.219 Y152.502 E7.39252
G1 X167.653 Y153.206 E7.43458
G1 X167.028 Y153.857 E7.4766
G1 X166.347 Y154.451 E7.51868
G1 X165.616 Y154.982 E7.56075
G1 X164.842 Y155.446 E7.60277
G1 X164.029 Y155.84 E7.64484
G1 X163.185 Y156.16 E7.68687
G1 X162.315 Y156.405 E7.72896
G1 X161.428 Y156.571 E7.77098
G1 X160.277 Y156.669 E7.82477
G1 X159.67 Y156.682 E7.85304
G1 X155.978 Y156.682 E8.02495
G1 X153.372 Y156.719 E8.14631
G1 X150.807 Y156.828 E8.26586
G1 X148.3 Y157.006 E8.38289
G1 X145.759 Y157.257 E8.50178
G1 X143.251 Y157.578 E8.61952
G1 X140.746 Y157.972 E8.73759
G1 X138.259 Y158.434 E8.85538
G1 X135.745 Y158.975 E8.97512
G1 X133.299 Y159.574 E9.09238
G1 X130.855 Y160.247 E9.21042
G1 X128.42 Y160.992 E9.329
G1 X126.018 Y161.803 E9.44705
G1 X123.605 Y162.693 E9.5668
G1 X121.298 Y163.619 E9.68256
G1 X118.927 Y164.651 E9.80297
G1 X116.621 Y165.732 E9.92156
G1 X114.397 Y166.852 E10.03751
G1 X113.625 Y167.273 E10.07845
G1 X112.273 Y167.984 E10.14958
G1 X111.457 Y168.371 E10.19163
G1 X110.61 Y168.685 E10.2337
G1 X109.739 Y168.922 E10.27573
G1 X108.85 Y169.082 E10.31779
G1 X107.678 Y169.17 E10.37252
G1 X106.938 Y169.182 E10.40698
G1 X75.575 Y169.181 E11.86737
G1 X74.877 Y169.172 E11.89988
G1 X73.976 Y169.121 E11.9419
G1 X73.082 Y168.989 E11.98398
G1 X72.204 Y168.78 E12.026
G1 X71.347 Y168.493 E12.06809
G1 X70.52 Y168.132 E12.1101
G1 X69.727 Y167.699 E12.15217
G1 X68.976 Y167.198 E12.19421
G1 X68.272 Y166.632 E12.23627
G1 X67.621 Y166.006 E12.27833
G1 X67.028 Y165.325 E12.32038
G1 X66.498 Y164.594 E12.36242
G1 X66.034 Y163.819 E12.40448
G1 X65.64 Y163.006 E12.44655
G1 X65.32 Y162.162 E12.48858
G1 X65.076 Y161.292 E12.53065
G1 X64.91 Y160.404 E12.57272
G1 X64.813 Y159.249 E12.62669
G1 X64.8 Y158.64 E12.65505
G1 X64.801 Y102.503 E15.26903
G1 X64.811 Y101.838 E15.29999
G1 X64.865 Y100.936 E15.34207
G1 X64.998 Y100.043 E15.38411
G1 X65.209 Y99.165 E15.42616
G1 X65.498 Y98.309 E15.46823
G1 X65.861 Y97.482 E15.51028
G1 X66.295 Y96.691 E15.5523
G1 X66.798 Y95.94 E15.59438
G1 X67.366 Y95.238 E15.63643
G1 X67.993 Y94.588 E15.67849
G1 X68.675 Y93.996 E15.72054
G0 F6000 X68.413 Y93.694
G1 F1200 X69.202 Y93.123 E15.76589
G1 X69.978 Y92.661 E15.80794
G1 X70.824 Y92.253 E15.85168
G1 X71.735 Y91.91 E15.897
G1 X72.639 Y91.66 E15.94068
G1 X73.567 Y91.49 E15.98461
G1 X74.714 Y91.395 E16.0382
G1 X75.33 Y91.382 E16.06689
G1 X159.445 Y91.383 E19.98364
G1 X160.16 Y91.394 E20.01693
G1 X161.097 Y91.45 E20.06064
G1 X161.99 Y91.582 E20.10268
G1 X162.938 Y91.81 E20.14808
G1 X163.794 Y92.098 E20.19013
G1 X164.686 Y92.488 E20.23546
G1 X165.478 Y92.923 E20.27754
G1 X166.258 Y93.443 E20.32119
G1 X167.017 Y94.055 E20.36659
G1 X167.667 Y94.682 E20.40864
G1 X168.305 Y95.417 E20.45396
G1 X168.855 Y96.178 E20.49768
G1 X169.317 Y96.954 E20.53974
G1 X169.74 Y97.831 E20.58508
G1 X170.069 Y98.709 E20.62874
G1 X170.32 Y99.614 E20.67247
G1 X170.491 Y100.541 E20.71636
G1 X170.586 Y101.671 E20.76916
G1 X170.6 Y102.312 E20.79902
G1 X170.599 Y145.877 E22.82759
G1 X170.589 Y146.622 E22.86228
G1 X170.535 Y147.559 E22.90598
G1 X170.404 Y148.453 E22.94806
G1 X170.188 Y149.366 E22.99174
G1 X169.88 Y150.29 E23.0371
G1 X169.519 Y151.118 E23.07916
G1 X169.053 Y151.972 E23.12446
G1 X168.531 Y152.753 E23.1682
G1 X167.965 Y153.457 E23.21026
G1 X167.317 Y154.134 E23.2539
G1 X166.582 Y154.775 E23.29931
G1 X165.851 Y155.306 E23.34138
G1 X165.048 Y155.789 E23.38501
G1 X164.171 Y156.214 E23.43039
G1 X163.327 Y156.534 E23.47242
G1 X162.389 Y156.798 E23.5178
G1 X161.462 Y156.97 E23.5617
G1 X160.311 Y157.068 E23.61549
G1 X159.679 Y157.082 E23.64492
G1 X155.984 Y157.082 E23.81698
G1 X153.389 Y157.119 E23.93783
G1 X150.824 Y157.228 E24.05737
G1 X148.331 Y157.405 E24.17375
G1 X145.81 Y157.654 E24.29171
G1 X143.302 Y157.975 E24.40944
G1 X140.808 Y158.367 E24.527
G1 X138.343 Y158.825 E24.64374
G1 X135.84 Y159.364 E24.76297
G1 X133.394 Y159.963 E24.88023
G1 X130.961 Y160.632 E24.99772
G1 X128.548 Y161.371 E25.11523
G1 X126.146 Y162.182 E25.23328
G1 X123.754 Y163.064 E25.352
G1 X121.458 Y163.986 E25.46721
G1 X119.087 Y165.018 E25.58761
G1 X116.791 Y166.094 E25.70568
G1 X114.589 Y167.203 E25.82049
G1 X113.811 Y167.627 E25.86174
G1 X112.444 Y168.345 E25.93364
G1 X111.596 Y168.746 E25.97732
G1 X110.715 Y169.071 E26.02105
G1 X109.81 Y169.316 E26.06471
G1 X108.921 Y169.476 E26.10677
G1 X107.708 Y169.569 E26.16341
G1 X106.938 Y169.582 E26.19927
G1 X75.57 Y169.581 E27.6599
G1 X74.854 Y169.571 E27.69324
G1 X73.918 Y169.517 E27.7369
G1 X73.024 Y169.385 E27.77898
G1 X72.111 Y169.169 E27.82267
G1 X71.187 Y168.86 E27.86803
G1 X70.36 Y168.499 E27.91005
G1 X69.505 Y168.032 E27.95541
G1 X68.725 Y167.51 E27.99912
G1 X68.021 Y166.944 E28.04118
G1 X67.319 Y166.269 E28.08653
G1 X66.726 Y165.588 E28.12857
G1 X66.174 Y164.829 E28.17228
G1 X65.674 Y163.993 E28.21763
G1 X65.266 Y163.148 E28.26133
G1 X64.946 Y162.304 E28.30336
G1 X64.683 Y161.366 E28.34872
G1 X64.511 Y160.437 E28.39271
G1 X64.413 Y159.258 E28.4478
G1 X64.4 Y158.64 E28.47658
G1 X64.401 Y102.497 E31.09084
G1 X64.412 Y101.814 E31.12264
G1 X64.469 Y100.877 E31.16636
G1 X64.602 Y99.984 E31.2084
G1 X64.83 Y99.037 E31.25375
G1 X65.119 Y98.181 E31.29582
G1 X65.51 Y97.29 E31.34113
G1 X65.944 Y96.499 E31.38314
G1 X66.487 Y95.688 E31.42859
G1 X67.078 Y94.96 E31.47225
G1 X67.705 Y94.31 E31.5143
G1 X68.413 Y93.694 E31.558
G0 F6000 X68.15 Y93.392
G1 F1200 X68.997 Y92.779 E31.60669
G1 X69.773 Y92.317 E31.64874
G1 X70.683 Y91.879 E31.69577
G1 X71.628 Y91.524 E31.74277
G1 X72.532 Y91.274 E31.78645
G1 X73.534 Y91.091 E31.83388
G1 X74.681 Y90.996 E31.88747
G1 X75.33 Y90.982 E31.9177
G1 X159.451 Y90.983 E35.83472
G1 X160.184 Y90.995 E35.86886
G1 X161.155 Y91.054 E35.91416
G1 X162.084 Y91.193 E35.95789
G1 X163.032 Y91.421 E36.0033
G1 X163.954 Y91.731 E36.04859
G1 X164.879 Y92.137 E36.09563
G1 X165.671 Y92.572 E36.1377
G1 X166.48 Y93.11 E36.18294
G1 X167.295 Y93.767 E36.23169
G1 X167.945 Y94.394 E36.27374
G1 X168.607 Y95.155 E36.32071
G1 X169.199 Y95.973 E36.36773
G1 X169.661 Y96.749 E36.40978
G1 X170.115 Y97.691 E36.45847
G1 X170.444 Y98.569 E36.50213
G1 X170.713 Y99.541 E36.54909
G1 X170.89 Y100.507 E36.59482
G1 X170.985 Y101.637 E36.64763
G1 X171 Y102.312 E36.67906
G1 X170.999 Y145.882 E38.70787
G1 X170.988 Y146.645 E38.7434
G1 X170.931 Y147.617 E38.78874
G1 X170.8 Y148.511 E38.83081
G1 X170.577 Y149.458 E38.87611
G1 X170.247 Y150.45 E38.92479
G1 X169.886 Y151.278 E38.96685
G1 X169.386 Y152.194 E39.01545
G1 X168.843 Y153.004 E39.06085
G1 X168.277 Y153.708 E39.10292
G1 X167.606 Y154.411 E39.14817
G1 X166.817 Y155.099 E39.19691
G1 X166.086 Y155.63 E39.23898
G1 X165.254 Y156.132 E39.28423
G1 X164.313 Y156.588 E39.33292
G1 X163.469 Y156.908 E39.37495
G1 X162.497 Y157.183 E39.42199
G1 X161.496 Y157.369 E39.4694
G1 X160.345 Y157.467 E39.52319
G1 X159.688 Y157.482 E39.55379
G1 X155.99 Y157.482 E39.72598
G1 X153.406 Y157.519 E39.84632
G1 X150.841 Y157.628 E39.96586
G1 X148.362 Y157.804 E40.08158
G1 X145.861 Y158.051 E40.19861
G1 X143.353 Y158.372 E40.31634
G1 X140.87 Y158.762 E40.43338
G1 X138.427 Y159.216 E40.54908
G1 X135.935 Y159.753 E40.66778
G1 X133.489 Y160.352 E40.78505
G1 X131.067 Y161.017 E40.902
G1 X128.676 Y161.75 E41.01845
G1 X126.274 Y162.561 E41.1365
G1 X123.903 Y163.435 E41.25416
G1 X121.618 Y164.353 E41.36883
G1 X119.247 Y165.385 E41.48924
G1 X116.961 Y166.456 E41.60679
G1 X114.769 Y167.56 E41.72107
G1 X113.997 Y167.981 E41.76201
G1 X112.615 Y168.707 E41.83471
G1 X111.767 Y169.108 E41.87838
G1 X110.82 Y169.457 E41.92538
G1 X109.881 Y169.71 E41.97066
G1 X108.992 Y169.87 E42.01272
G1 X107.715 Y169.969 E42.07236
G1 X106.945 Y169.982 E42.10822
G1 X75.564 Y169.981 E43.56945
G1 X74.831 Y169.97 E43.60359
G1 X73.86 Y169.913 E43.64888
G1 X72.966 Y169.781 E43.69096
G1 X71.984 Y169.548 E43.73796
G1 X71.027 Y169.227 E43.78496
G1 X70.2 Y168.866 E43.82698
G1 X69.313 Y168.383 E43.87401
G1 X68.474 Y167.822 E43.921
G1 X67.77 Y167.256 E43.96306
G1 X67.017 Y166.532 E44.0117
G1 X66.424 Y165.851 E44.05375
G1 X65.831 Y165.034 E44.10076
G1 X65.314 Y164.167 E44.14776
G1 X64.892 Y163.29 E44.19308
G1 X64.572 Y162.446 E44.23511
G1 X64.298 Y161.474 E44.28214
G1 X64.112 Y160.47 E44.32968
G1 X64.014 Y159.291 E44.38477
G1 X64 Y158.64 E44.41509
G1 X64.001 Y102.491 E47.02962
G1 X64.013 Y101.79 E47.06227
G1 X64.073 Y100.818 E47.10762
G1 X64.206 Y99.925 E47.14966
G1 X64.441 Y98.943 E47.19667
G1 X64.74 Y98.053 E47.24039
G1 X65.159 Y97.098 E47.28895
G1 X65.593 Y96.307 E47.33097
G1 X66.176 Y95.436 E47.37977
G1 X66.79 Y94.682 E47.42505
G1 X67.442 Y94.008 E47.46871
G1 X68.15 Y93.392 E47.51241
G1 F2700 E42.51241
;MESH:megav2-PowerBox.stl
G0 F6000 X75.42 Y101.317
G0 X107.25 Y158.381
;TYPE:WALL-INNER
G1 F2700 E47.51241
G1 F1200 X119.602 Y146.032 E48.32571
G1 X119.752 Y145.935 E48.33403
G1 X119.956 Y145.883 E48.34383
G1 X159.4 Y145.882 E50.18051
G1 X159.4 Y102.582 E52.19674
G1 X75.601 Y102.583 E56.09877
G1 X75.601 Y158.381 E58.69696
G1 X107.25 Y158.381 E60.17067
G0 F6000 X107.416 Y158.781
;TYPE:WALL-OUTER
G1 F1200 X119.877 Y146.323 E60.99115
G1 X119.985 Y146.282 E60.99653
G1 X159.8 Y146.282 E62.85048
G1 X159.8 Y102.182 E64.90397
G1 X75.201 Y102.183 E68.84325
G1 X75.201 Y158.781 E71.47869
G1 X107.416 Y158.781 E72.97875
G0 F6000 X107.1 Y158.02
;TYPE:SKIN
G1 F1200 X75.962 Y158.02 E74.42867
G1 X75.961 Y102.943 E76.99329
G1 X159.04 Y102.942 E80.86179
G1 X159.04 Y145.522 E82.8445
G1 X119.903 Y145.526 E84.66688
G1 X119.617 Y145.601 E84.68065
G1 X119.393 Y145.736 E84.69282
G1 X107.1 Y158.02 E85.50204
G1 F2700 E80.50204
G0 F6000 X107.1 Y158.281
G0 X76.36 Y158.281
G0 X76.36 Y157.819
G1 F2700 E85.50204
G1 F1200 X76.161 Y157.62 E85.51515
G0 F6000 X76.161 Y157.054
G1 F1200 X76.926 Y157.819 E85.56552
G0 F6000 X77.491 Y157.819
G1 F1200 X76.161 Y156.489 E85.65311
G0 F6000 X76.161 Y155.923
G1 F1200 X78.057 Y157.819 E85.77796
G0 F6000 X78.623 Y157.819
G1 F1200 X76.161 Y155.357 E85.94009
G0 F6000 X76.161 Y154.792
G1 F1200 X79.188 Y157.819 E86.13942
G0 F6000 X79.754 Y157.819
G1 F1200 X76.161 Y154.226 E86.37603
G0 F6000 X76.161 Y153.66
G1 F1200 X80.32 Y157.819 E86.6499
G0 F6000 X80.885 Y157.819
G1 F1200 X76.161 Y153.094 E86.96102
G0 F6000 X76.161 Y152.529
G1 F1200 X81.451 Y157.819 E87.30938
G0 F6000 X82.017 Y157.819
G1 F1200 X76.161 Y151.963 E87.695
G0 F6000 X76.161 Y151.397
G1 F1200 X82.583 Y157.819 E88.1179
G0 F6000 X83.148 Y157.819
G1 F1200 X76.161 Y150.832 E88.57801
G0 F6000 X76.161 Y150.266
G1 F1200 X83.714 Y157.819 E89.07539
G0 F6000 X84.28 Y157.819
G1 F1200 X76.161 Y149.7 E89.61004
G0 F6000 X76.161 Y149.135
G1 F1200 X84.845 Y157.819 E90.18189
G0 F6000 X85.411 Y157.819
G1 F1200 X76.161 Y148.569 E90.79102
G0 F6000 X76.161 Y148.003
G1 F1200 X85.977 Y157.819 E91.43742
G0 F6000 X86.542 Y157.819
G1 F1200 X76.161 Y147.438 E92.12103
G0 F6000 X76.161 Y146.872
G1 F1200 X87.108 Y157.819 E92.84191
G0 F6000 X87.674 Y157.819
G1 F1200 X76.161 Y146.306 E93.60006
G0 F6000 X76.161 Y145.741
G1 F1200 X88.239 Y157.819 E94.39541
G0 F6000 X88.805 Y157.819
G1 F1200 X76.161 Y145.175 E95.22804
G0 F6000 X76.161 Y144.609
G1 F1200 X89.371 Y157.819 E96.09794
G0 F6000 X89.936 Y157.819
G1 F1200 X76.161 Y144.044 E97.00505
G0 F6000 X76.161 Y143.478
G1 F1200 X90.502 Y157.819 E97.94943
G0 F6000 X91.068 Y157.819
G1 F1200 X76.161 Y142.912 E98.93108
G0 F6000 X76.161 Y142.346
G1 F1200 X91.633 Y157.819 E99.94997
G0 F6000 X92.199 Y157.819
G1 F1200 X76.161 Y141.781 E101.0061
G0 F6000 X76.161 Y141.215
G1 F1200 X92.765 Y157.819 E102.0995
G0 F6000 X93.331 Y157.819
G1 F1200 X76.161 Y140.649 E103.23018
G0 F6000 X76.161 Y140.084
G1 F1200 X93.896 Y157.819 E104.39806
G0 F6000 X94.462 Y157.819
G1 F1200 X76.161 Y139.518 E105.60321
G0 F6000 X76.161 Y138.952
G1 F1200 X95.028 Y157.819 E106.84563
G0 F6000 X95.593 Y157.819
G1 F1200 X76.161 Y138.387 E108.12526
G0 F6000 X76.161 Y137.821
G1 F1200 X96.159 Y157.819 E109.44217
G0 F6000 X96.725 Y157.819
G1 F1200 X76.161 Y137.255 E110.79634
G0 F6000 X76.161 Y136.69
G1 F1200 X97.29 Y157.819 E112.18772
G0 F6000 X97.856 Y157.819
G1 F1200 X76.161 Y136.124 E113.61638
G0 F6000 X76.161 Y135.558
G1 F1200 X98.422 Y157.819 E115.0823
G0 F6000 X98.987 Y157.819
G1 F1200 X76.161 Y134.993 E116.58543
G0 F6000 X76.161 Y134.427
G1 F1200 X99.553 Y157.819 E118.12583
G0 F6000 X100.119 Y157.819
G1 F1200 X76.161 Y133.861 E119.70351
G0 F6000 X76.161 Y133.295
G1 F1200 X100.684 Y157.819 E121.31842
G0 F6000 X101.25 Y157.819
G1 F1200 X76.161 Y132.73 E122.97058
G0 F6000 X76.161 Y132.164
G1 F1200 X101.816 Y157.819 E124.66
G0 F6000 X102.381 Y157.819
G1 F1200 X76.161 Y131.598 E126.38667
G0 F6000 X76.161 Y131.033
G1 F1200 X102.947 Y157.819 E128.15057
G0 F6000 X103.513 Y157.819
G1 F1200 X76.161 Y130.466 E129.95178
G0 F6000 X76.161 Y129.901
G1 F1200 X104.079 Y157.819 E131.79023
G0 F6000 X104.644 Y157.819
G1 F1200 X76.161 Y129.335 E133.66592
G0 F6000 X76.161 Y128.769
G1 F1200 X105.21 Y157.819 E135.57887
G0 F6000 X105.776 Y157.819
G1 F1200 X76.161 Y128.204 E137.52907
G0 F6000 X76.161 Y127.638
G1 F1200 X106.341 Y157.819 E139.51651
G0 F6000 X106.907 Y157.819
G1 F1200 X76.161 Y127.072 E141.54122
G0 F6000 X76.161 Y126.507
G1 F1200 X107.245 Y157.591 E143.58815
G0 F6000 X107.528 Y157.308
G1 F1200 X76.161 Y125.941 E145.65373
G0 F6000 X76.161 Y125.375
G1 F1200 X107.811 Y157.025 E147.73793
G0 F6000 X108.093 Y156.742
G1 F1200 X76.161 Y124.81 E149.84071
G0 F6000 X76.161 Y124.244
G1 F1200 X108.376 Y156.46 E151.96215
G0 F6000 X108.659 Y156.177
G1 F1200 X76.161 Y123.678 E154.10224
G0 F6000 X76.161 Y123.112
G1 F1200 X108.942 Y155.894 E156.26095
G0 F6000 X109.225 Y155.611
G1 F1200 X76.161 Y122.547 E158.43827
G0 F6000 X76.161 Y121.981
G1 F1200 X109.508 Y155.328 E160.63423
G0 F6000 X109.791 Y155.045
G1 F1200 X76.161 Y121.415 E162.84882
G0 F6000 X76.161 Y120.85
G1 F1200 X110.074 Y154.763 E165.08205
G0 F6000 X110.357 Y154.48
G1 F1200 X76.161 Y120.284 E167.33392
G0 F6000 X76.161 Y119.718
G1 F1200 X110.64 Y154.198 E169.60445
G0 F6000 X110.923 Y153.915
G1 F1200 X76.161 Y119.153 E171.89359
G0 F6000 X76.161 Y118.587
G1 F1200 X111.205 Y153.632 E174.20133
G0 F6000 X111.488 Y153.349
G1 F1200 X76.161 Y118.021 E176.52771
G0 F6000 X76.161 Y117.456
G1 F1200 X111.771 Y153.066 E178.87268
G0 F6000 X112.054 Y152.783
G1 F1200 X76.161 Y116.89 E181.2363
G0 F6000 X76.161 Y116.324
