;FLAVOR:Marlin
;TIME:667
;Filament used: 0.361213m
;Layer height: 0.28
;MINX:104.038
;MINY:105.382
;MINZ:0.28
;MAXX:131.638
;MAXY:143.56
;MAXZ:10.92
;Generated with Cura_SteamEngine 5.3.1
M140 S60
M105
M190 S60
M104 S195
M105
M109 S195
M82 ;absolute extrusion mode
; Ender 3 Custom Start G-code
G92 E0 ; Reset Extruder
G28 ; Home all axes
G1 Z2.0 F3000 ; Move Z Axis up little to prevent scratching of Heat Bed
G1 X0.1 Y20 Z0.3 F5000.0 ; Move to start position
G1 X0.1 Y200.0 Z0.3 F1500.0 E15 ; Draw the first line
G1 X0.4 Y200.0 Z0.3 F5000.0 ; Move to side a little
G1 X0.4 Y20 Z0.3 F1500.0 E30 ; Draw the second line
G92 E0 ; Reset Extruder
G1 Z2.0 F3000 ; Move Z Axis up little to prevent scratching of Heat Bed
G1 X5 Y20 Z0.3 F5000.0 ; Move over to prevent blob squish
G92 E0
G92 E0
G1 F2700 E-5
;LAYER_COUNT:39
;LAYER:0
M107
G0 F6000 X109.178 Y108.406 Z0.28
;TYPE:SKIRT
G1 F2700 E0
G1 F1200 X110.753 Y106.932 E0.10045
G1 X112.625 Y105.82 E0.20183
G1 X114.812 Y105.382 E0.30569
G1 X121.812 Y105.382 E0.63164
G1 X123.708 Y105.848 E0.72255
G1 X125.735 Y106.901 E0.82892
G1 X127.209 Y108.476 E0.92936
G1 X128.321 Y110.348 E1.03075
G1 X128.759 Y112.535 E1.13461
G1 X128.759 Y117.633 E1.37199
G1 X130.088 Y119.054 E1.46259
G1 X131.2 Y120.926 E1.56398
G1 X131.638 Y123.113 E1.66783
G1 X131.638 Y136.613 E2.29645
G1 X131.172 Y138.509 E2.38736
G1 X130.119 Y140.536 E2.49372
G1 X128.544 Y142.01 E2.59417
G1 X126.672 Y143.122 E2.69556
G1 X124.485 Y143.56 E2.79942
G1 X110.985 Y143.56 E3.42803
G1 X109.089 Y143.094 E3.51895
G1 X107.062 Y142.041 E3.62531
G1 X105.588 Y140.466 E3.72575
G1 X104.476 Y138.594 E3.82714
G1 X104.038 Y136.407 E3.931
G1 X104.038 Y122.907 E4.55962
G1 X104.504 Y121.011 E4.65053
G1 X105.557 Y118.984 E4.75689
G1 X107.132 Y117.51 E4.85734
G1 X107.659 Y117.197 E4.88588
G1 X107.659 Y112.329 E5.11255
G1 X108.125 Y110.433 E5.20347
G1 X109.178 Y108.406 E5.30983
G0 F6000 X109.501 Y108.651
G1 F1200 X110.994 Y107.254 E5.40503
G1 X112.771 Y106.198 E5.50129
G1 X114.85 Y105.782 E5.60001
G1 X121.766 Y105.782 E5.92205
G1 X123.565 Y106.224 E6.00831
G1 X125.49 Y107.224 E6.10932
G1 X126.887 Y108.717 E6.20453
G1 X127.943 Y110.494 E6.30078
G1 X128.359 Y112.573 E6.39951
G1 X128.359 Y117.82 E6.64383
G1 X128.461 Y117.9 E6.64987
G1 X129.766 Y119.295 E6.73881
G1 X130.822 Y121.072 E6.83507
G1 X131.238 Y123.151 E6.93379
G1 X131.238 Y136.567 E7.5585
G1 X130.796 Y138.366 E7.64476
G1 X129.796 Y140.291 E7.74577
G1 X128.303 Y141.688 E7.84098
G1 X126.526 Y142.744 E7.93723
G1 X124.447 Y143.16 E8.03595
G1 X111.031 Y143.16 E8.66066
G1 X109.232 Y142.718 E8.74692
G1 X107.307 Y141.718 E8.84793
G1 X105.91 Y140.225 E8.94314
G1 X104.854 Y138.448 E9.03939
G1 X104.438 Y136.369 E9.13812
G1 X104.438 Y122.953 E9.76282
G1 X104.88 Y121.154 E9.84908
G1 X105.88 Y119.229 E9.95009
G1 X107.373 Y117.832 E10.0453
G1 X108.059 Y117.424 E10.08246
G1 X108.059 Y112.375 E10.31757
G1 X108.501 Y110.576 E10.40383
G1 X109.501 Y108.651 E10.50484
G0 F6000 X109.824 Y108.896
G1 F1200 X111.235 Y107.576 E10.59481
G1 X112.917 Y106.577 E10.6859
G1 X114.889 Y106.182 E10.77955
G1 X121.719 Y106.182 E11.09758
G1 X123.423 Y106.601 E11.17929
G1 X125.245 Y107.547 E11.27488
G1 X126.565 Y108.958 E11.36486
G1 X127.564 Y110.64 E11.45595
G1 X127.959 Y112.612 E11.5496
G1 X127.959 Y118.037 E11.80221
G1 X128.169 Y118.173 E11.81386
G1 X129.444 Y119.536 E11.90076
G1 X130.443 Y121.218 E11.99186
G1 X130.838 Y123.19 E12.08551
G1 X130.838 Y136.52 E12.70621
G1 X130.419 Y138.224 E12.78792
G1 X129.473 Y140.046 E12.88351
G1 X128.062 Y141.366 E12.97348
G1 X126.38 Y142.365 E13.06457
G1 X124.408 Y142.76 E13.15822
G1 X111.078 Y142.76 E13.77892
G1 X109.374 Y142.341 E13.86063
G1 X107.552 Y141.395 E13.95623
G1 X106.232 Y139.984 E14.0462
G1 X105.233 Y138.302 E14.13729
G1 X104.838 Y136.33 E14.23094
G1 X104.838 Y123 E14.85164
G1 X105.257 Y121.296 E14.93335
G1 X106.203 Y119.474 E15.02894
G1 X107.614 Y118.154 E15.11891
G1 X108.459 Y117.652 E15.16468
G1 X108.459 Y112.422 E15.40821
G1 X108.878 Y110.718 E15.48992
G1 X109.824 Y108.896 E15.58551
G0 F6000 X110.147 Y109.141
G1 F1200 X111.476 Y107.898 E15.67025
G1 X113.063 Y106.955 E15.7562
G1 X114.927 Y106.582 E15.84472
G1 X121.673 Y106.582 E16.15884
G1 X123.28 Y106.977 E16.2359
G1 X125 Y107.87 E16.32614
G1 X126.243 Y109.199 E16.41087
G1 X127.186 Y110.786 E16.49683
G1 X127.559 Y112.65 E16.58535
G1 X127.559 Y118.28 E16.8475
G1 X127.877 Y118.446 E16.86421
G1 X129.122 Y119.777 E16.94907
G1 X130.065 Y121.364 E17.03503
G1 X130.438 Y123.228 E17.12355
G1 X130.438 Y136.474 E17.74034
G1 X130.043 Y138.081 E17.81739
G1 X129.15 Y139.801 E17.90763
G1 X127.821 Y141.044 E17.99237
G1 X126.234 Y141.987 E18.07833
G1 X124.37 Y142.36 E18.16684
G1 X111.124 Y142.36 E18.78363
G1 X109.517 Y141.965 E18.86069
G1 X107.797 Y141.072 E18.95093
G1 X106.554 Y139.743 E19.03566
G1 X105.611 Y138.156 E19.12162
G1 X105.238 Y136.292 E19.21014
G1 X105.238 Y123.046 E19.82693
G1 X105.633 Y121.439 E19.90398
G1 X106.526 Y119.719 E19.99422
G1 X107.855 Y118.476 E20.07896
G1 X108.859 Y117.879 E20.13335
G1 X108.859 Y112.468 E20.38531
G1 X109.254 Y110.861 E20.46236
G1 X110.147 Y109.141 E20.5526
G0 F6000 X110.47 Y109.386
G1 F1200 X111.717 Y108.22 E20.6321
G1 X113.209 Y107.333 E20.71292
G1 X114.965 Y106.982 E20.79631
G1 X121.627 Y106.982 E21.10652
G1 X123.137 Y107.353 E21.17892
G1 X124.755 Y108.193 E21.26381
G1 X125.921 Y109.44 E21.3433
G1 X126.808 Y110.932 E21.42413
G1 X127.159 Y112.688 E21.50751
G1 X127.159 Y118.523 E21.77921
G1 X127.633 Y118.77 E21.8041
G1 X128.8 Y120.018 E21.88366
G1 X129.687 Y121.51 E21.96449
G1 X130.038 Y123.266 E22.04787
G1 X130.038 Y136.428 E22.66075
G1 X129.667 Y137.938 E22.73315
G1 X128.827 Y139.556 E22.81804
G1 X127.58 Y140.722 E22.89754
G1 X126.088 Y141.609 E22.97836
G1 X124.332 Y141.96 E23.06174
G1 X111.17 Y141.96 E23.67462
G1 X109.66 Y141.589 E23.74702
G1 X108.042 Y140.749 E23.83191
G1 X106.876 Y139.502 E23.91141
G1 X105.989 Y138.01 E23.99223
G1 X105.638 Y136.254 E24.07562
G1 X105.638 Y123.092 E24.68849
G1 X106.009 Y121.582 E24.7609
G1 X106.849 Y119.964 E24.84579
G1 X108.096 Y118.798 E24.92528
G1 X109.259 Y118.107 E24.98827
G1 X109.259 Y112.514 E25.24871
G1 X109.63 Y111.004 E25.32111
G1 X110.47 Y109.386 E25.406
G0 F6000 X110.793 Y109.631
G1 F1200 X111.958 Y108.542 E25.48026
G1 X113.355 Y107.711 E25.55594
G1 X115.003 Y107.382 E25.6342
G1 X121.58 Y107.382 E25.94045
G1 X122.995 Y107.73 E26.0083
G1 X124.51 Y108.516 E26.08777
G1 X125.599 Y109.681 E26.16203
G1 X126.43 Y111.078 E26.23772
G1 X126.759 Y112.726 E26.31597
G1 X126.759 Y118.766 E26.59722
G1 X127.389 Y119.094 E26.63029
G1 X128.478 Y120.259 E26.70455
G1 X129.309 Y121.656 E26.78024
G1 X129.638 Y123.304 E26.85849
G1 X129.638 Y136.381 E27.46741
G1 X129.29 Y137.796 E27.53526
G1 X128.504 Y139.311 E27.61474
G1 X127.339 Y140.4 E27.68899
G1 X125.942 Y141.231 E27.76468
G1 X124.294 Y141.56 E27.84293
G1 X111.217 Y141.56 E28.45185
G1 X109.802 Y141.212 E28.51971
G1 X108.287 Y140.426 E28.59918
G1 X107.198 Y139.261 E28.67344
G1 X106.367 Y137.864 E28.74913
G1 X106.038 Y136.216 E28.82738
G1 X106.038 Y123.139 E29.4363
G1 X106.386 Y121.724 E29.50415
G1 X107.172 Y120.209 E29.58362
G1 X108.337 Y119.12 E29.65788
G1 X109.659 Y118.334 E29.7295
G1 X109.659 Y112.561 E29.99831
G1 X110.007 Y111.146 E30.06616
G1 X110.793 Y109.631 E30.14564
G0 F6000 X111.116 Y109.876
G1 F1200 X110.383 Y111.289 E30.21976
G1 X110.059 Y112.607 E30.28296
G1 X110.059 Y118.631 E30.56346
G1 X109.825 Y118.701 E30.57483
G1 X108.576 Y119.444 E30.6425
G1 X107.495 Y120.454 E30.71139
G1 X106.762 Y121.867 E30.78551
G1 X106.438 Y123.185 E30.84871
G1 X106.438 Y136.178 E31.45372
G1 X106.745 Y137.716 E31.52675
G1 X107.522 Y139.022 E31.59751
G1 X108.532 Y140.103 E31.6664
G1 X109.945 Y140.836 E31.74052
G1 X111.263 Y141.16 E31.80372
G1 X124.256 Y141.16 E32.40873
G1 X125.794 Y140.853 E32.48176
G1 X127.1 Y140.076 E32.55252
G1 X128.181 Y139.066 E32.6214
G1 X128.914 Y137.653 E32.69553
G1 X129.238 Y136.335 E32.75872
G1 X129.238 Y123.342 E33.36373
G1 X128.931 Y121.804 E33.43676
G1 X128.154 Y120.498 E33.50752
G1 X127.144 Y119.417 E33.57641
G1 X126.359 Y119.009 E33.61761
G1 X126.359 Y112.764 E33.9084
G1 X126.052 Y111.226 E33.98143
G1 X125.275 Y109.92 E34.05219
G1 X124.265 Y108.839 E34.12108
G1 X122.852 Y108.106 E34.1952
G1 X121.534 Y107.782 E34.2584
G1 X115.041 Y107.782 E34.56074
G1 X113.503 Y108.089 E34.63377
G1 X112.197 Y108.866 E34.70453
G1 X111.116 Y109.876 E34.77342
G0 F6000 X111.439 Y110.121
G1 F1200 X110.759 Y111.432 E34.84219
G1 X110.459 Y112.653 E34.90073
G1 X110.459 Y118.959 E35.19437
G1 X110.03 Y119.045 E35.21474
G1 X108.815 Y119.768 E35.28057
G1 X107.818 Y120.699 E35.34409
G1 X107.138 Y122.01 E35.41286
G1 X106.838 Y123.231 E35.47141
G1 X106.838 Y136.14 E36.0725
G1 X107.123 Y137.568 E36.14031
G1 X107.846 Y138.783 E36.20614
G1 X108.777 Y139.78 E36.26966
G1 X110.088 Y140.46 E36.33843
G1 X111.309 Y140.76 E36.39698
G1 X124.218 Y140.76 E36.99807
G1 X125.646 Y140.475 E37.06588
G1 X126.861 Y139.752 E37.13171
G1 X127.858 Y138.821 E37.19523
G1 X128.538 Y137.51 E37.264
G1 X128.838 Y136.289 E37.32255
G1 X128.838 Y123.38 E37.92364
G1 X128.553 Y121.952 E37.99145
G1 X127.83 Y120.737 E38.05728
G1 X126.899 Y119.74 E38.1208
G1 X125.959 Y119.252 E38.17012
G1 X125.959 Y112.802 E38.47046
G1 X125.674 Y111.374 E38.53826
G1 X124.951 Y110.159 E38.6041
G1 X124.02 Y109.162 E38.66761
G1 X122.709 Y108.482 E38.73638
G1 X121.488 Y108.182 E38.79493
G1 X115.079 Y108.182 E39.09336
G1 X113.651 Y108.467 E39.16116
G1 X112.436 Y109.19 E39.227
G1 X111.439 Y110.121 E39.29052
G0 F6000 X111.762 Y110.366
G1 F1200 X112.675 Y109.514 E39.34867
G1 X113.799 Y108.845 E39.40957
G1 X115.117 Y108.582 E39.47215
G1 X121.442 Y108.582 E39.76667
G1 X122.566 Y108.858 E39.82057
G1 X123.775 Y109.485 E39.88398
G1 X124.627 Y110.398 E39.94213
G1 X125.296 Y111.522 E40.00304
G1 X125.559 Y112.84 E40.06562
G1 X125.559 Y119.495 E40.3755
G1 X126.654 Y120.063 E40.43294
G1 X127.506 Y120.976 E40.49109
G1 X128.175 Y122.1 E40.552
G1 X128.438 Y123.418 E40.61458
G1 X128.438 Y136.243 E41.21177
G1 X128.162 Y137.367 E41.26566
G1 X127.535 Y138.576 E41.32908
G1 X126.622 Y139.428 E41.38723
G1 X125.498 Y140.097 E41.44813
G1 X124.18 Y140.36 E41.51071
G1 X111.355 Y140.36 E42.1079
G1 X110.231 Y140.084 E42.16179
G1 X109.022 Y139.457 E42.22521
G1 X108.17 Y138.544 E42.28336
G1 X107.501 Y137.42 E42.34427
G1 X107.238 Y136.102 E42.40685
G1 X107.238 Y123.277 E43.00403
G1 X107.514 Y122.153 E43.05793
G1 X108.141 Y120.944 E43.12134
G1 X109.054 Y120.092 E43.17949
G1 X110.178 Y119.423 E43.2404
G1 X110.859 Y119.287 E43.27273
G1 X110.859 Y112.699 E43.5795
G1 X111.135 Y111.575 E43.63339
G1 X111.762 Y110.366 E43.69681
G0 F6000 X112.084 Y110.613
G1 F1200 X112.917 Y109.836 E43.74985
G1 X113.947 Y109.223 E43.80566
G1 X115.155 Y108.982 E43.86302
G1 X121.395 Y108.982 E44.15358
G1 X122.424 Y109.235 E44.20292
G1 X123.528 Y109.807 E44.26082
G1 X124.305 Y110.64 E44.31386
G1 X124.918 Y111.67 E44.36968
G1 X125.159 Y112.878 E44.42703
G1 X125.159 Y119.776 E44.74823
G1 X125.343 Y119.833 E44.7572
G1 X126.407 Y120.385 E44.81302
G1 X127.184 Y121.218 E44.86606
G1 X127.797 Y122.248 E44.92187
G1 X128.038 Y123.456 E44.97923
G1 X128.038 Y136.196 E45.57246
G1 X127.785 Y137.225 E45.6218
G1 X127.213 Y138.329 E45.6797
G1 X126.38 Y139.106 E45.73274
G1 X125.35 Y139.719 E45.78855
G1 X124.142 Y139.96 E45.84591
G1 X111.402 Y139.96 E46.43914
G1 X110.373 Y139.707 E46.48848
G1 X109.269 Y139.135 E46.54638
G1 X108.492 Y138.302 E46.59942
G1 X107.879 Y137.272 E46.65523
G1 X107.638 Y136.064 E46.71259
G1 X107.638 Y123.324 E47.30582
G1 X107.891 Y122.295 E47.35516
G1 X108.463 Y121.191 E47.41306
G1 X109.296 Y120.414 E47.4661
G1 X110.326 Y119.801 E47.52191
G1 X111.259 Y119.615 E47.56621
G1 X111.259 Y112.746 E47.88606
G1 X111.512 Y111.717 E47.9354
G1 X112.084 Y110.613 E47.9933
G0 F6000 X112.406 Y110.86
G1 F1200 X113.159 Y110.158 E48.04124
G1 X114.095 Y109.601 E48.09195
G1 X115.193 Y109.382 E48.14409
G1 X121.349 Y109.382 E48.43074
G1 X122.281 Y109.611 E48.47543
G1 X123.281 Y110.129 E48.52787
G1 X123.983 Y110.882 E48.5758
G1 X124.54 Y111.818 E48.62652
G1 X124.759 Y112.916 E48.67865
G1 X124.759 Y120.09 E49.01271
G1 X125.159 Y120.188 E49.03188
G1 X126.16 Y120.707 E49.08439
G1 X126.862 Y121.46 E49.13232
G1 X127.419 Y122.396 E49.18304
G1 X127.638 Y123.494 E49.23517
G1 X127.638 Y136.15 E49.82449
G1 X127.409 Y137.082 E49.86918
G1 X126.891 Y138.082 E49.92162
G1 X126.138 Y138.784 E49.96956
G1 X125.202 Y139.341 E50.02027
G1 X124.104 Y139.56 E50.07241
G1 X111.448 Y139.56 E50.66172
G1 X110.516 Y139.331 E50.70641
G1 X109.516 Y138.813 E50.75885
G1 X108.814 Y138.06 E50.80679
G1 X108.257 Y137.124 E50.85751
G1 X108.038 Y136.026 E50.90964
G1 X108.038 Y123.37 E51.49896
G1 X108.267 Y122.438 E51.54365
G1 X108.785 Y121.438 E51.59609
G1 X109.538 Y120.736 E51.64402
G1 X110.474 Y120.179 E51.69474
G1 X111.659 Y119.943 E51.751
G1 X111.659 Y112.792 E52.08398
G1 X111.888 Y111.86 E52.12867
G1 X112.406 Y110.86 E52.18111
G0 F6000 X112.728 Y111.107
G1 F1200 X113.401 Y110.48 E52.22394
G1 X114.243 Y109.979 E52.26957
G1 X115.231 Y109.782 E52.31648
G1 X121.303 Y109.782 E52.59922
G1 X122.138 Y109.987 E52.63925
G1 X123.034 Y110.451 E52.68624
G1 X123.661 Y111.124 E52.72907
G1 X124.162 Y111.966 E52.77469
G1 X124.359 Y112.954 E52.8216
G1 X124.359 Y120.403 E53.16846
G1 X125.017 Y120.565 E53.20001
G1 X125.913 Y121.029 E53.24699
G1 X126.54 Y121.702 E53.28982
G1 X127.041 Y122.544 E53.33545
G1 X127.238 Y123.532 E53.38236
G1 X127.238 Y136.104 E53.96776
G1 X127.033 Y136.939 E54.0078
G1 X126.569 Y137.835 E54.05478
G1 X125.896 Y138.462 E54.09761
G1 X125.054 Y138.963 E54.14324
G1 X124.066 Y139.16 E54.19015
G1 X111.494 Y139.16 E54.77555
G1 X110.659 Y138.955 E54.81559
G1 X109.763 Y138.491 E54.86257
G1 X109.136 Y137.818 E54.9054
G1 X108.635 Y136.976 E54.95102
G1 X108.438 Y135.988 E54.99794
G1 X108.438 Y123.416 E55.58334
G1 X108.643 Y122.581 E55.62338
G1 X109.107 Y121.685 E55.67036
G1 X109.78 Y121.058 E55.71319
G1 X110.622 Y120.557 E55.75881
G1 X111.61 Y120.36 E55.80572
G1 X112.059 Y120.36 E55.82663
G1 X112.059 Y112.838 E56.17689
G1 X112.264 Y112.003 E56.21692
G1 X112.728 Y111.107 E56.26391
G0 F6000 X113.05 Y111.354
G1 F1200 X113.643 Y110.802 E56.30163
G1 X114.391 Y110.357 E56.34216
G1 X115.269 Y110.182 E56.38385
G1 X121.257 Y110.182 E56.66267
G1 X121.995 Y110.363 E56.69806
G1 X122.787 Y110.773 E56.73958
G1 X123.339 Y111.366 E56.77731
G1 X123.784 Y112.114 E56.81784
G1 X123.959 Y112.992 E56.85952
G1 X123.959 Y120.76 E57.22123
G1 X124.181 Y120.771 E57.23158
G1 X124.874 Y120.941 E57.26481
G1 X125.666 Y121.351 E57.30634
G1 X126.218 Y121.944 E57.34406
G1 X126.663 Y122.692 E57.38459
G1 X126.838 Y123.57 E57.42628
G1 X126.838 Y136.058 E58.00777
G1 X126.657 Y136.796 E58.04315
G1 X126.247 Y137.588 E58.08468
G1 X125.654 Y138.14 E58.1224
G1 X124.906 Y138.585 E58.16293
G1 X124.028 Y138.76 E58.20462
G1 X111.54 Y138.76 E58.78611
G1 X110.802 Y138.579 E58.8215
G1 X110.01 Y138.169 E58.86302
G1 X109.458 Y137.576 E58.90075
G1 X109.013 Y136.828 E58.94128
G1 X108.838 Y135.95 E58.98296
G1 X108.838 Y123.462 E59.56446
G1 X109.019 Y122.724 E59.59984
G1 X109.429 Y121.932 E59.64137
G1 X110.022 Y121.38 E59.67909
G1 X110.77 Y120.935 E59.71962
G1 X111.648 Y120.76 E59.76131
G1 X112.459 Y120.76 E59.79907
G1 X112.459 Y112.884 E60.16581
G1 X112.64 Y112.146 E60.20119
G1 X113.05 Y111.354 E60.24272
G0 F6000 X113.373 Y111.599
G1 F1200 X113.018 Y112.285 E60.27869
G1 X112.859 Y112.934 E60.3098
G1 X112.859 Y121.16 E60.69284
G1 X111.686 Y121.16 E60.74746
G1 X110.918 Y121.313 E60.78392
G1 X110.261 Y121.704 E60.81952
G1 X109.752 Y122.177 E60.85188
G1 X109.397 Y122.863 E60.88784
G1 X109.238 Y123.512 E60.91896
G1 X109.238 Y135.912 E61.49635
G1 X109.391 Y136.68 E61.53282
G1 X109.782 Y137.337 E61.56842
G1 X110.255 Y137.846 E61.60077
G1 X110.941 Y138.201 E61.63674
G1 X111.59 Y138.36 E61.66785
G1 X123.99 Y138.36 E62.24525
G1 X124.758 Y138.207 E62.28171
G1 X125.415 Y137.816 E62.31731
G1 X125.924 Y137.343 E62.34967
G1 X126.279 Y136.657 E62.38563
G1 X126.438 Y136.008 E62.41675
G1 X126.438 Y123.608 E62.99414
G1 X126.285 Y122.84 E63.03061
G1 X125.894 Y122.183 E63.06621
G1 X125.421 Y121.674 E63.09856
G1 X124.735 Y121.319 E63.13453
