;FLAVOR:Marlin
;TIME:3036
;Filament used: 2.69715m
;Layer height: 0.28
;MINX:17.588
;MINY:15.319
;MINZ:0.28
;MAXX:217.815
;MAXY:215.546
;MAXZ:5.04
;Generated with Cura_SteamEngine 5.3.1
M140 S60
M105
M190 S60
M104 S195
M105
M109 S195
M82 ;absolute extrusion mode
; Ender 3 Custom Start G-code
G92 E0 ; Reset Extruder
G28 ; Home all axes
G1 Z2.0 F3000 ; Move Z Axis up little to prevent scratching of Heat Bed
G1 X0.1 Y20 Z0.3 F5000.0 ; Move to start position
G1 X0.1 Y200.0 Z0.3 F1500.0 E15 ; Draw the first line
G1 X0.4 Y200.0 Z0.3 F5000.0 ; Move to side a little
G1 X0.4 Y20 Z0.3 F1500.0 E30 ; Draw the second line
G92 E0 ; Reset Extruder
G1 Z2.0 F3000 ; Move Z Axis up little to prevent scratching of Heat Bed
G1 X5 Y20 Z0.3 F5000.0 ; Move over to prevent blob squish
G92 E0
G92 E0
G1 F2700 E-5
;LAYER_COUNT:18
;LAYER:0
M107
G0 F6000 X19.438 Y61.239 Z0.28
;TYPE:SKIRT
G1 F2700 E0
G1 F1200 X63.484 Y17.192 E2.90054
G1 X65.179 Y16.067 E2.99527
G1 X67.525 Y15.319 E3.10992
G1 X69.643 Y15.413 E3.20864
G1 X71.781 Y15.953 E3.31132
G1 X73.607 Y17.169 E3.41348
G1 X215.942 Y159.504 E12.78648
G1 X217.067 Y161.199 E12.88121
G1 X217.815 Y163.545 E12.99587
G1 X217.721 Y165.663 E13.09459
G1 X217.181 Y167.801 E13.19727
G1 X215.965 Y169.627 E13.29942
G1 X171.918 Y213.673 E16.19996
G1 X170.223 Y214.798 E16.29469
G1 X167.877 Y215.546 E16.40935
G1 X165.759 Y215.452 E16.50807
G1 X163.621 Y214.912 E16.61075
G1 X161.795 Y213.696 E16.7129
G1 X19.461 Y71.362 E26.08584
G1 X18.336 Y69.667 E26.18057
G1 X17.588 Y67.321 E26.29523
G1 X17.682 Y65.203 E26.39395
G1 X18.222 Y63.065 E26.49663
G1 X19.438 Y61.239 E26.59878
G0 F6000 X19.749 Y61.494
G1 F1200 X63.741 Y17.501 E29.49576
G1 X65.353 Y16.431 E29.58585
G1 X67.577 Y15.722 E29.69455
G1 X69.586 Y15.811 E29.78819
G1 X71.616 Y16.324 E29.88568
G1 X73.352 Y17.48 E29.9828
G1 X215.633 Y159.761 E39.35225
G1 X216.703 Y161.373 E39.44234
G1 X217.412 Y163.597 E39.55103
G1 X217.323 Y165.606 E39.64467
G1 X216.81 Y167.636 E39.74217
G1 X215.654 Y169.372 E39.83929
G1 X171.661 Y213.364 E42.73627
G1 X170.049 Y214.434 E42.82636
G1 X167.825 Y215.143 E42.93506
G1 X165.816 Y215.054 E43.02869
G1 X163.786 Y214.541 E43.12619
G1 X162.05 Y213.385 E43.22331
G1 X19.77 Y71.105 E52.59269
G1 X18.7 Y69.493 E52.68278
G1 X17.991 Y67.269 E52.79148
G1 X18.08 Y65.26 E52.88512
G1 X18.593 Y63.23 E52.98261
G1 X19.749 Y61.494 E53.07973
G0 F6000 X20.06 Y61.749
G1 F1200 X63.998 Y17.81 E55.97316
G1 X65.527 Y16.795 E56.05861
G1 X67.629 Y16.125 E56.16134
G1 X69.529 Y16.209 E56.2499
G1 X71.451 Y16.695 E56.34221
G1 X73.097 Y17.791 E56.43429
G1 X215.324 Y160.018 E65.80018
G1 X216.339 Y161.547 E65.88564
G1 X217.009 Y163.649 E65.98837
G1 X216.925 Y165.549 E66.07693
G1 X216.439 Y167.471 E66.16924
G1 X215.343 Y169.117 E66.26132
G1 X171.404 Y213.055 E69.15475
G1 X169.875 Y214.07 E69.2402
G1 X167.773 Y214.74 E69.34293
G1 X165.873 Y214.656 E69.43149
G1 X163.951 Y214.17 E69.52381
G1 X162.305 Y213.074 E69.61589
G1 X20.079 Y70.848 E78.98171
G1 X19.064 Y69.319 E79.06717
G1 X18.394 Y67.217 E79.1699
G1 X18.478 Y65.317 E79.25846
G1 X18.964 Y63.395 E79.35077
G1 X20.06 Y61.749 E79.44285
G0 F6000 X20.371 Y62.004
G1 F1200 X64.255 Y18.119 E82.33272
G1 X65.701 Y17.159 E82.41354
G1 X67.681 Y16.528 E82.5103
G1 X69.472 Y16.607 E82.59378
G1 X71.286 Y17.066 E82.68091
G1 X72.842 Y18.102 E82.76796
G1 X215.015 Y160.275 E92.13029
G1 X215.975 Y161.721 E92.21111
G1 X216.606 Y163.701 E92.30788
G1 X216.527 Y165.492 E92.39135
G1 X216.068 Y167.306 E92.47848
G1 X215.032 Y168.862 E92.56553
G1 X171.147 Y212.746 E95.4554
G1 X169.701 Y213.706 E95.53622
G1 X167.721 Y214.337 E95.63298
G1 X165.93 Y214.258 E95.71646
G1 X164.116 Y213.799 E95.80359
G1 X162.56 Y212.763 E95.89063
G1 X20.388 Y70.591 E105.2529
G1 X19.428 Y69.145 E105.33372
G1 X18.797 Y67.165 E105.43049
G1 X18.876 Y65.374 E105.51396
G1 X19.335 Y63.56 E105.60109
G1 X20.371 Y62.004 E105.68814
G0 F6000 X20.682 Y62.259
G1 F1200 X64.512 Y18.428 E108.57445
G1 X65.874 Y17.524 E108.65057
G1 X67.734 Y16.931 E108.74147
G1 X69.415 Y17.005 E108.81983
G1 X71.121 Y17.437 E108.90177
G1 X72.587 Y18.413 E108.98378
G1 X214.706 Y160.532 E118.34256
G1 X215.61 Y161.894 E118.41868
G1 X216.203 Y163.754 E118.50958
G1 X216.129 Y165.435 E118.58793
G1 X215.697 Y167.141 E118.66988
G1 X214.721 Y168.607 E118.75188
G1 X170.89 Y212.437 E121.6382
G1 X169.528 Y213.341 E121.71432
G1 X167.668 Y213.934 E121.80522
G1 X165.987 Y213.86 E121.88357
G1 X164.281 Y213.428 E121.96552
G1 X162.815 Y212.452 E122.04752
G1 X20.697 Y70.334 E131.40624
G1 X19.793 Y68.972 E131.48236
G1 X19.2 Y67.112 E131.57326
G1 X19.274 Y65.431 E131.65161
G1 X19.706 Y63.725 E131.73356
G1 X20.682 Y62.259 E131.81556
G0 F6000 X20.993 Y62.514
G1 F1200 X64.769 Y18.737 E134.69832
G1 X66.048 Y17.888 E134.7698
G1 X67.786 Y17.334 E134.85474
G1 X69.358 Y17.403 E134.92801
G1 X70.956 Y17.808 E135.00478
G1 X72.332 Y18.724 E135.08175
G1 X214.397 Y160.789 E144.43697
G1 X215.246 Y162.068 E144.50845
G1 X215.8 Y163.806 E144.59339
G1 X215.731 Y165.378 E144.66666
G1 X215.326 Y166.976 E144.74342
G1 X214.41 Y168.352 E144.8204
G1 X170.633 Y212.128 E147.70315
G1 X169.354 Y212.977 E147.77464
G1 X167.616 Y213.531 E147.85958
G1 X166.044 Y213.462 E147.93284
G1 X164.446 Y213.057 E148.00961
G1 X163.07 Y212.141 E148.08658
G1 X21.006 Y70.077 E157.44174
G1 X20.157 Y68.798 E157.51322
G1 X19.603 Y67.06 E157.59816
G1 X19.672 Y65.488 E157.67143
G1 X20.077 Y63.89 E157.74819
G1 X20.993 Y62.514 E157.82516
G0 F6000 X21.304 Y62.769
G1 F1200 X65.026 Y19.046 E160.70436
G1 X66.222 Y18.252 E160.77121
G1 X67.838 Y17.737 E160.85018
G1 X69.3 Y17.801 E160.91833
G1 X70.791 Y18.179 E160.98995
G1 X72.077 Y19.035 E161.06188
G1 X214.088 Y161.046 E170.41355
G1 X214.882 Y162.242 E170.4804
G1 X215.397 Y163.858 E170.55937
G1 X215.333 Y165.32 E170.62752
G1 X214.955 Y166.811 E170.69914
G1 X214.099 Y168.097 E170.77107
G1 X170.376 Y211.819 E173.65027
G1 X169.18 Y212.613 E173.71712
G1 X167.564 Y213.128 E173.7961
G1 X166.102 Y213.064 E173.86424
G1 X164.611 Y212.686 E173.93586
G1 X163.325 Y211.83 E174.0078
G1 X21.315 Y69.82 E183.3594
G1 X20.521 Y68.624 E183.42624
G1 X20.006 Y67.008 E183.50522
G1 X20.07 Y65.546 E183.57336
G1 X20.448 Y64.055 E183.64499
G1 X21.304 Y62.769 E183.71692
G0 F6000 X21.615 Y63.024
G1 F1200 X65.283 Y19.355 E186.59257
G1 X66.395 Y18.617 E186.65471
G1 X67.891 Y18.14 E186.72783
G1 X69.242 Y18.199 E186.79079
G1 X70.626 Y18.55 E186.85728
G1 X71.822 Y19.346 E186.92418
G1 X213.779 Y161.303 E196.27229
G1 X214.517 Y162.415 E196.33443
G1 X214.994 Y163.911 E196.40755
G1 X214.935 Y165.262 E196.47052
G1 X214.584 Y166.646 E196.537
G1 X213.788 Y167.842 E196.6039
G1 X170.119 Y211.51 E199.47954
G1 X169.007 Y212.248 E199.54169
G1 X167.511 Y212.725 E199.6148
G1 X166.16 Y212.666 E199.67777
G1 X164.776 Y212.315 E199.74426
G1 X163.58 Y211.519 E199.81116
G1 X21.624 Y69.563 E209.1592
G1 X20.886 Y68.451 E209.22135
G1 X20.409 Y66.955 E209.29446
G1 X20.468 Y65.604 E209.35743
G1 X20.819 Y64.22 E209.42391
G1 X21.615 Y63.024 E209.49081
G0 F6000 X21.926 Y63.279
G1 F1200 X65.54 Y19.664 E212.3629
G1 X66.569 Y18.981 E212.42041
G1 X67.943 Y18.543 E212.48756
G1 X69.184 Y18.597 E212.5454
G1 X70.461 Y18.921 E212.60675
G1 X71.567 Y19.657 E212.66861
G1 X213.47 Y161.56 E222.01316
G1 X214.153 Y162.589 E222.07067
G1 X214.591 Y163.963 E222.13782
G1 X214.537 Y165.204 E222.19567
G1 X214.213 Y166.481 E222.25701
G1 X213.477 Y167.587 E222.31887
G1 X169.862 Y211.201 E225.19096
G1 X168.833 Y211.884 E225.24847
G1 X167.459 Y212.322 E225.31562
G1 X166.218 Y212.268 E225.37346
G1 X164.941 Y211.944 E225.43481
G1 X163.835 Y211.208 E225.49667
G1 X21.933 Y69.306 E234.84116
G1 X21.25 Y68.277 E234.89867
G1 X20.812 Y66.903 E234.96582
G1 X20.866 Y65.662 E235.02366
G1 X21.19 Y64.385 E235.08501
G1 X21.926 Y63.279 E235.14687
G0 F6000 X22.237 Y63.534
G1 F1200 X65.797 Y19.973 E238.0154
G1 X66.743 Y19.345 E238.06827
G1 X67.995 Y18.946 E238.12946
G1 X69.126 Y18.995 E238.18217
G1 X70.296 Y19.292 E238.23838
G1 X71.312 Y19.968 E238.29521
G1 X213.161 Y161.817 E247.63621
G1 X213.789 Y162.763 E247.68908
G1 X214.188 Y164.015 E247.75026
G1 X214.139 Y165.146 E247.80298
G1 X213.842 Y166.316 E247.85919
G1 X213.166 Y167.332 E247.91601
G1 X169.605 Y210.892 E250.78454
G1 X168.659 Y211.52 E250.83742
G1 X167.407 Y211.919 E250.8986
G1 X166.276 Y211.87 E250.95132
G1 X165.106 Y211.573 E251.00753
G1 X164.09 Y210.897 E251.06435
G1 X22.242 Y69.049 E260.40528
G1 X21.614 Y68.103 E260.45815
G1 X21.215 Y66.851 E260.51934
G1 X21.264 Y65.72 E260.57206
G1 X21.561 Y64.55 E260.62826
G1 X22.237 Y63.534 E260.68509
G0 F6000 X22.548 Y63.789
G1 F1200 X66.054 Y20.282 E263.55006
G1 X66.916 Y19.71 E263.59824
G1 X68.048 Y19.349 E263.65356
G1 X69.068 Y19.393 E263.7011
G1 X70.131 Y19.663 E263.75217
G1 X71.057 Y20.279 E263.80396
G1 X212.852 Y162.074 E273.1414
G1 X213.424 Y162.936 E273.18957
G1 X213.785 Y164.068 E273.2449
G1 X213.741 Y165.088 E273.29244
G1 X213.471 Y166.151 E273.34351
G1 X212.855 Y167.077 E273.3953
G1 X169.348 Y210.583 E276.26027
G1 X168.486 Y211.155 E276.30845
G1 X167.354 Y211.516 E276.36377
G1 X166.334 Y211.472 E276.41131
G1 X165.271 Y211.202 E276.46238
G1 X164.345 Y210.586 E276.51417
G1 X22.551 Y68.792 E285.85154
G1 X21.979 Y67.93 E285.89972
G1 X21.618 Y66.798 E285.95504
G1 X21.662 Y65.778 E286.00258
G1 X21.932 Y64.715 E286.05365
G1 X22.548 Y63.789 E286.10544
G0 F6000 X22.857 Y64.046
G1 F1200 X66.311 Y20.591 E288.96699
G1 X67.09 Y20.074 E289.01053
G1 X68.1 Y19.752 E289.05989
G1 X69.009 Y19.791 E289.10226
G1 X69.968 Y20.035 E289.14833
G1 X70.8 Y20.588 E289.19485
G1 X212.543 Y162.331 E298.52887
G1 X213.06 Y163.11 E298.5724
G1 X213.382 Y164.12 E298.62177
G1 X213.343 Y165.029 E298.66413
G1 X213.099 Y165.988 E298.71021
G1 X212.546 Y166.82 E298.75673
G1 X169.091 Y210.274 E301.61828
G1 X168.312 Y210.791 E301.66182
G1 X167.302 Y211.113 E301.71118
G1 X166.393 Y211.074 E301.75355
G1 X165.434 Y210.83 E301.79962
G1 X164.602 Y210.277 E301.84614
G1 X22.86 Y68.535 E311.18009
G1 X22.343 Y67.756 E311.22363
G1 X22.021 Y66.746 E311.27299
G1 X22.06 Y65.837 E311.31536
G1 X22.304 Y64.878 E311.36143
G1 X22.857 Y64.046 E311.40795
G0 F6000 X23.168 Y64.301
G1 F1200 X66.568 Y20.9 E314.26595
G1 X67.264 Y20.438 E314.30485
G1 X68.152 Y20.155 E314.34825
G1 X68.95 Y20.189 E314.38544
G1 X69.804 Y20.406 E314.42647
G1 X70.545 Y20.899 E314.46791
G1 X212.234 Y162.588 E323.79837
G1 X212.696 Y163.284 E323.83727
G1 X212.979 Y164.172 E323.88067
G1 X212.945 Y164.97 E323.91786
G1 X212.728 Y165.824 E323.95889
G1 X212.235 Y166.565 E324.00034
G1 X168.834 Y209.965 E326.85833
G1 X168.138 Y210.427 E326.89723
G1 X167.25 Y210.71 E326.94063
G1 X166.452 Y210.676 E326.97782
G1 X165.598 Y210.459 E327.01885
G1 X164.857 Y209.966 E327.06029
G1 X23.169 Y68.278 E336.39069
G1 X22.707 Y67.582 E336.42959
G1 X22.424 Y66.694 E336.47299
G1 X22.458 Y65.896 E336.51018
G1 X22.675 Y65.042 E336.55121
G1 X23.168 Y64.301 E336.59265
G0 F6000 X23.477 Y64.558
G1 F1200 X66.825 Y21.209 E339.44722
G1 X67.438 Y20.802 E339.48149
G1 X68.204 Y20.558 E339.51892
G1 X68.891 Y20.587 E339.55094
G1 X69.641 Y20.778 E339.58698
G1 X70.288 Y21.208 E339.62315
G1 X211.925 Y162.845 E348.95019
G1 X212.332 Y163.458 E348.98445
G1 X212.576 Y164.224 E349.02189
G1 X212.547 Y164.911 E349.0539
G1 X212.356 Y165.661 E349.08994
G1 X211.926 Y166.308 E349.12611
G1 X168.577 Y209.656 E351.98069
G1 X167.964 Y210.063 E352.01495
G1 X167.198 Y210.307 E352.05238
G1 X166.511 Y210.278 E352.0844
G1 X165.761 Y210.087 E352.12044
G1 X165.114 Y209.657 E352.15661
G1 X23.478 Y68.021 E361.48359
G1 X23.071 Y67.408 E361.51785
G1 X22.827 Y66.642 E361.55528
G1 X22.856 Y65.955 E361.5873
G1 X23.047 Y65.205 E361.62334
G1 X23.477 Y64.558 E361.65951
G0 F6000 X23.788 Y64.813
G1 F1200 X67.082 Y21.518 E364.51053
G1 X67.611 Y21.167 E364.54009
G1 X68.257 Y20.961 E364.57166
G1 X68.832 Y20.985 E364.59846
G1 X69.477 Y21.149 E364.62945
G1 X70.033 Y21.519 E364.66055
G1 X211.616 Y163.102 E373.98403
G1 X211.967 Y163.631 E374.01359
G1 X212.173 Y164.277 E374.04517
G1 X212.149 Y164.852 E374.07196
G1 X211.985 Y165.497 E374.10295
G1 X211.615 Y166.053 E374.13405
G1 X168.32 Y209.347 E376.98507
G1 X167.791 Y209.698 E377.01463
G1 X167.145 Y209.904 E377.0462
G1 X166.57 Y209.88 E377.073
G1 X165.925 Y209.716 E377.10399
G1 X165.369 Y209.346 E377.13509
G1 X23.787 Y67.764 E386.4585
G1 X23.436 Y67.235 E386.48807
G1 X23.23 Y66.589 E386.51964
G1 X23.254 Y66.014 E386.54644
G1 X23.418 Y65.369 E386.57743
G1 X23.788 Y64.813 E386.60852
G0 F6000 X24.097 Y65.07
G1 F1200 X67.339 Y21.827 E389.45612
G1 X67.784 Y21.532 E389.48098
G1 X68.31 Y21.364 E389.50669
G1 X68.773 Y21.383 E389.52827
G1 X69.314 Y21.521 E389.55426
G1 X69.776 Y21.828 E389.58009
G1 X211.307 Y163.359 E398.90015
G1 X211.602 Y163.804 E398.92501
G1 X211.77 Y164.33 E398.95072
G1 X211.751 Y164.793 E398.9723
G1 X211.613 Y165.334 E398.9983
G1 X211.306 Y165.796 E399.02413
G1 X168.063 Y209.038 E401.87172
G1 X167.618 Y209.333 E401.89658
G1 X167.092 Y209.501 E401.92229
G1 X166.629 Y209.482 E401.94387
G1 X166.088 Y209.344 E401.96987
G1 X165.626 Y209.037 E401.9957
G1 X24.096 Y67.507 E411.31569
G1 X23.801 Y67.062 E411.34055
G1 X23.633 Y66.536 E411.36626
G1 X23.652 Y66.073 E411.38784
G1 X23.79 Y65.532 E411.41384
G1 X24.097 Y65.07 E411.43967
G0 F6000 X24.408 Y65.325
G1 F1200 X67.596 Y22.136 E414.2837
G1 X67.958 Y21.896 E414.30393
G1 X68.363 Y21.767 E414.32372
G1 X68.714 Y21.781 E414.34008
G1 X69.15 Y21.892 E414.36103
G1 X69.521 Y22.139 E414.38178
G1 X210.998 Y163.616 E423.69828
G1 X211.238 Y163.978 E423.71851
G1 X211.367 Y164.383 E423.7383
G1 X211.353 Y164.734 E423.75466
G1 X211.242 Y165.17 E423.77561
G1 X210.995 Y165.541 E423.79636
G1 X167.806 Y208.729 E426.6404
G1 X167.444 Y208.969 E426.66062
G1 X167.039 Y209.098 E426.68041
G1 X166.688 Y209.084 E426.69677
G1 X166.252 Y208.973 E426.71772
G1 X165.881 Y208.726 E426.73847
G1 X24.405 Y67.25 E436.05491
G1 X24.165 Y66.888 E436.07513
G1 X24.036 Y66.483 E436.09492
G1 X24.05 Y66.132 E436.11128
G1 X24.161 Y65.696 E436.13223
G1 X24.408 Y65.325 E436.15298
G0 F6000 X24.717 Y65.582
G1 F1200 X67.85 Y22.448 E438.9934
G1 X68.134 Y22.26 E439.00926
G1 X68.418 Y22.169 E439.02315
G1 X68.615 Y22.169 E439.03232
G1 X68.987 Y22.264 E439.0502
G1 X69.264 Y22.448 E439.06568
G1 X210.686 Y163.87 E448.37856
G1 X210.874 Y164.154 E448.39442
G1 X210.965 Y164.438 E448.40831
G1 X210.965 Y164.635 E448.41748
G1 X210.87 Y165.007 E448.43536
G1 X210.686 Y165.284 E448.45084
G1 X167.552 Y208.417 E451.29126
G1 X167.268 Y208.605 E451.30712
G1 X166.984 Y208.696 E451.321
G1 X166.787 Y208.696 E451.33018
G1 X166.415 Y208.601 E451.34805
G1 X166.138 Y208.417 E451.36354
G1 X24.717 Y66.996 E460.67635
G1 X24.529 Y66.712 E460.69221
G1 X24.438 Y66.428 E460.7061
G1 X24.438 Y66.231 E460.71527
G1 X24.533 Y65.859 E460.73315
G1 X24.717 Y65.582 E460.74863
G0 F6000 X25 Y65.865
G1 F1200 X68.133 Y22.731 E463.58905
G1 X68.344 Y22.601 E463.60059
G1 X68.517 Y22.557 E463.6089
G1 X68.824 Y22.635 E463.62365
G1 X68.981 Y22.731 E463.63222
G1 X210.403 Y164.153 E472.9451
G1 X210.533 Y164.364 E472.95664
G1 X210.577 Y164.537 E472.96495
G1 X210.499 Y164.844 E472.9797
G1 X210.403 Y165.001 E472.98827
G1 X167.269 Y208.134 E475.82868
G1 X167.058 Y208.264 E475.84022
G1 X166.885 Y208.308 E475.84854
G1 X166.578 Y208.23 E475.86329
G1 X166.421 Y208.134 E475.87185
G1 X25 Y66.713 E485.18467
G1 X24.87 Y66.502 E485.19621
G1 X24.826 Y66.329 E485.20452
G1 X24.904 Y66.022 E485.21927
G1 X25 Y65.865 E485.22784
G0 F6000 X25.283 Y66.148
G1 F1200 X68.416 Y23.014 E488.06825
G1 X68.527 Y22.957 E488.07406
G1 X68.698 Y23.014 E488.08246
G1 X210.12 Y164.436 E497.39534
G1 X210.177 Y164.547 E497.40115
G1 X210.12 Y164.718 E497.40954
G1 X166.986 Y207.851 E500.24996
G1 X166.875 Y207.908 E500.25577
G1 X166.704 Y207.851 E500.26416
G1 X25.283 Y66.43 E509.57697
G1 X25.226 Y66.319 E509.58278
G1 X25.283 Y66.148 E509.59118
G1 F2700 E504.59118
;MESH:megav1-LcdBezel.stl
G0 F6000 X43.906 Y71.737
G0 X161.862 Y189.22
;TYPE:WALL-INNER
G1 F2700 E509.59118
G1 F1200 X161.697 Y189.188 E509.599
G1 X161.518 Y189.094 E509.60842
G1 X44.04 Y71.616 E517.34454
G1 X43.946 Y71.437 E517.35396
G1 X43.925 Y71.12 E517.36875
G1 X44.04 Y70.864 E517.38182
G1 X73.814 Y41.092 E519.34242
G1 X74.037 Y40.967 E519.35433
