;FLAVOR:Marlin
;TIME:4554
;Filament used: 3.95718m
;Layer height: 0.28
;MINX:52.884
;MINY:77.364
;MINZ:0.28
;MAXX:198.484
;MAXY:129.964
;MAXZ:5.04
;Generated with Cura_SteamEngine 5.3.1
M140 S60
M105
M190 S60
M104 S195
M105
M109 S195
M82 ;absolute extrusion mode
; Ender 3 Custom Start G-code
G92 E0 ; Reset Extruder
G28 ; Home all axes
G1 Z2.0 F3000 ; Move Z Axis up little to prevent scratching of Heat Bed
G1 X0.1 Y20 Z0.3 F5000.0 ; Move to start position
G1 X0.1 Y200.0 Z0.3 F1500.0 E15 ; Draw the first line
G1 X0.4 Y200.0 Z0.3 F5000.0 ; Move to side a little
G1 X0.4 Y20 Z0.3 F1500.0 E30 ; Draw the second line
G92 E0 ; Reset Extruder
G1 Z2.0 F3000 ; Move Z Axis up little to prevent scratching of Heat Bed
G1 X5 Y20 Z0.3 F5000.0 ; Move over to prevent blob squish
G92 E0
G92 E0
G1 F2700 E-5
;LAYER_COUNT:18
;LAYER:0
M107
G0 F6000 X55.978 Y78.914 Z0.28
;TYPE:SKIRT
G1 F2700 E0
G1 F1200 X57.85 Y77.802 E0.10139
G1 X60.037 Y77.364 E0.20525
G1 X191.537 Y77.364 E6.32844
G1 X193.433 Y77.83 E6.41935
G1 X195.46 Y78.883 E6.52571
G1 X196.934 Y80.458 E6.62616
G1 X198.046 Y82.33 E6.72754
G1 X198.484 Y84.517 E6.8314
G1 X198.484 Y111.017 E8.06535
G1 X198.018 Y112.913 E8.15627
G1 X196.965 Y114.94 E8.26263
G1 X195.39 Y116.414 E8.36307
G1 X193.518 Y117.526 E8.46446
G1 X191.331 Y117.964 E8.56832
G1 X153.92 Y117.964 E10.31033
G1 X143.469 Y128.415 E10.99855
G1 X141.084 Y129.703 E11.12476
G1 X139.357 Y129.925 E11.20584
G1 X59.831 Y129.964 E14.90891
G1 X57.935 Y129.498 E14.99982
G1 X55.908 Y128.445 E15.10618
G1 X54.434 Y126.87 E15.20663
G1 X53.322 Y124.998 E15.30801
G1 X52.884 Y122.811 E15.41187
G1 X52.884 Y84.311 E17.20459
G1 X53.35 Y82.415 E17.29551
G1 X54.403 Y80.388 E17.40187
G1 X55.978 Y78.914 E17.50231
G0 F6000 X56.219 Y79.236
G1 F1200 X57.996 Y78.18 E17.59857
G1 X60.075 Y77.764 E17.69729
G1 X191.491 Y77.764 E23.81657
G1 X193.29 Y78.206 E23.90283
G1 X195.215 Y79.206 E24.00384
G1 X196.612 Y80.699 E24.09905
G1 X197.668 Y82.476 E24.1953
G1 X198.084 Y84.555 E24.29403
G1 X198.084 Y110.971 E25.52407
G1 X197.642 Y112.77 E25.61033
G1 X196.642 Y114.695 E25.71134
G1 X195.149 Y116.092 E25.80655
G1 X193.372 Y117.148 E25.9028
G1 X191.293 Y117.564 E26.00152
G1 X153.754 Y117.564 E27.7495
G1 X143.227 Y128.091 E28.44272
G1 X140.96 Y129.315 E28.56268
G1 X139.306 Y129.528 E28.64034
G1 X59.877 Y129.564 E32.33888
G1 X58.078 Y129.122 E32.42514
G1 X56.153 Y128.122 E32.52615
G1 X54.756 Y126.629 E32.62136
G1 X53.7 Y124.852 E32.71761
G1 X53.284 Y122.773 E32.81634
G1 X53.284 Y84.357 E34.60515
G1 X53.726 Y82.558 E34.69141
G1 X54.726 Y80.633 E34.79242
G1 X56.219 Y79.236 E34.88763
G0 F6000 X56.46 Y79.558
G1 F1200 X58.142 Y78.559 E34.97872
G1 X60.114 Y78.164 E35.07237
G1 X191.444 Y78.164 E41.18764
G1 X193.148 Y78.583 E41.26935
G1 X194.97 Y79.529 E41.36495
G1 X196.29 Y80.94 E41.45492
G1 X197.289 Y82.622 E41.54601
G1 X197.684 Y84.594 E41.63966
G1 X197.684 Y110.924 E42.86569
G1 X197.265 Y112.628 E42.9474
G1 X196.319 Y114.45 E43.043
G1 X194.908 Y115.77 E43.13297
G1 X193.226 Y116.769 E43.22406
G1 X191.254 Y117.164 E43.31771
G1 X153.588 Y117.164 E45.0716
G1 X142.985 Y127.767 E45.76982
G1 X140.836 Y128.927 E45.88354
G1 X139.255 Y129.131 E45.95776
G1 X59.924 Y129.164 E49.65175
G1 X58.22 Y128.745 E49.73346
G1 X56.398 Y127.799 E49.82905
G1 X55.078 Y126.388 E49.91902
G1 X54.079 Y124.706 E50.01012
G1 X53.684 Y122.734 E50.10376
G1 X53.684 Y84.404 E51.88857
G1 X54.103 Y82.7 E51.97028
G1 X55.049 Y80.878 E52.06587
G1 X56.46 Y79.558 E52.15584
G0 F6000 X56.701 Y79.88
G1 F1200 X58.288 Y78.937 E52.2418
G1 X60.152 Y78.564 E52.33032
G1 X191.398 Y78.564 E58.44168
G1 X193.005 Y78.959 E58.51874
G1 X194.725 Y79.852 E58.60898
G1 X195.968 Y81.181 E58.69371
G1 X196.911 Y82.768 E58.77967
G1 X197.284 Y84.632 E58.86819
G1 X197.284 Y110.878 E60.09031
G1 X196.889 Y112.485 E60.16737
G1 X195.996 Y114.205 E60.25761
G1 X194.667 Y115.448 E60.34234
G1 X193.08 Y116.391 E60.4283
G1 X191.216 Y116.764 E60.51682
G1 X153.422 Y116.764 E62.27666
G1 X142.743 Y127.443 E62.97989
G1 X140.712 Y128.539 E63.08736
G1 X139.204 Y128.734 E63.15816
G1 X59.97 Y128.764 E66.84763
G1 X58.363 Y128.369 E66.92468
G1 X56.643 Y127.476 E67.01492
G1 X55.4 Y126.147 E67.09966
G1 X54.457 Y124.56 E67.18562
G1 X54.084 Y122.696 E67.27413
G1 X54.084 Y84.45 E69.05503
G1 X54.479 Y82.843 E69.13208
G1 X55.372 Y81.123 E69.22232
G1 X56.701 Y79.88 E69.30706
G0 F6000 X56.942 Y80.202
G1 F1200 X58.434 Y79.315 E69.38788
G1 X60.19 Y78.964 E69.47126
G1 X191.352 Y78.964 E75.57872
G1 X192.862 Y79.335 E75.65112
G1 X194.48 Y80.175 E75.73601
G1 X195.646 Y81.422 E75.8155
G1 X196.533 Y82.914 E75.89633
G1 X196.884 Y84.67 E75.97971
G1 X196.884 Y110.832 E77.19792
G1 X196.513 Y112.342 E77.27033
G1 X195.673 Y113.96 E77.35522
G1 X194.426 Y115.126 E77.43471
G1 X192.934 Y116.013 E77.51553
G1 X191.178 Y116.364 E77.59892
G1 X153.256 Y116.364 E79.36473
G1 X142.501 Y127.119 E80.07296
G1 X140.588 Y128.151 E80.17417
G1 X139.153 Y128.337 E80.24155
G1 X60.016 Y128.364 E83.9265
G1 X58.506 Y127.993 E83.99891
G1 X56.888 Y127.153 E84.08379
G1 X55.722 Y125.906 E84.16329
G1 X54.835 Y124.414 E84.24411
G1 X54.484 Y122.658 E84.3275
G1 X54.484 Y84.496 E86.10448
G1 X54.855 Y82.986 E86.17688
G1 X55.695 Y81.368 E86.26177
G1 X56.942 Y80.202 E86.34127
G0 F6000 X57.183 Y80.524
G1 F1200 X58.58 Y79.693 E86.41696
G1 X60.228 Y79.364 E86.49521
G1 X191.305 Y79.364 E92.5987
G1 X192.72 Y79.712 E92.66655
G1 X194.235 Y80.498 E92.74603
G1 X195.324 Y81.663 E92.82028
G1 X196.155 Y83.06 E92.89597
G1 X196.484 Y84.708 E92.97423
G1 X196.484 Y110.785 E94.18848
G1 X196.136 Y112.2 E94.25633
G1 X195.35 Y113.715 E94.33581
G1 X194.185 Y114.804 E94.41006
G1 X192.788 Y115.635 E94.48575
G1 X191.14 Y115.964 E94.564
G1 X153.09 Y115.964 E96.33577
G1 X142.259 Y126.795 E97.04901
G1 X140.464 Y127.763 E97.14397
G1 X139.101 Y127.94 E97.20797
G1 X60.063 Y127.964 E100.88831
G1 X58.648 Y127.616 E100.95616
G1 X57.133 Y126.83 E101.03564
G1 X56.044 Y125.665 E101.1099
G1 X55.213 Y124.268 E101.18558
G1 X54.884 Y122.62 E101.26384
G1 X54.884 Y84.543 E103.03686
G1 X55.232 Y83.128 E103.10471
G1 X56.018 Y81.613 E103.18419
G1 X57.183 Y80.524 E103.25844
G0 F6000 X57.422 Y80.848
G1 F1200 X58.728 Y80.071 E103.3292
G1 X60.266 Y79.764 E103.40223
G1 X191.259 Y79.764 E109.50182
G1 X192.577 Y80.088 E109.56502
G1 X193.99 Y80.821 E109.63914
G1 X195 Y81.902 E109.70802
G1 X195.777 Y83.208 E109.77879
G1 X196.084 Y84.746 E109.85181
G1 X196.084 Y110.739 E111.06216
G1 X195.76 Y112.057 E111.12536
G1 X195.027 Y113.47 E111.19948
G1 X193.946 Y114.48 E111.26836
G1 X192.64 Y115.257 E111.33913
G1 X191.102 Y115.564 E111.41216
G1 X152.924 Y115.564 E113.18988
G1 X142.017 Y126.471 E113.90813
G1 X140.34 Y127.375 E113.99684
G1 X139.049 Y127.543 E114.05746
G1 X60.109 Y127.564 E117.73324
G1 X58.791 Y127.24 E117.79644
G1 X57.378 Y126.507 E117.87056
G1 X56.368 Y125.426 E117.93944
G1 X55.591 Y124.12 E118.01021
G1 X55.284 Y122.582 E118.08323
G1 X55.284 Y84.589 E119.85235
G1 X55.608 Y83.271 E119.91555
G1 X56.341 Y81.858 E119.98967
G1 X57.422 Y80.848 E120.05856
G0 F6000 X57.661 Y81.172
G1 F1200 X58.876 Y80.449 E120.12439
G1 X60.304 Y80.164 E120.1922
G1 X191.213 Y80.164 E126.28787
G1 X192.434 Y80.464 E126.34641
G1 X193.745 Y81.144 E126.41518
G1 X194.676 Y82.141 E126.4787
G1 X195.399 Y83.356 E126.54453
G1 X195.684 Y84.784 E126.61234
G1 X195.684 Y110.693 E127.81877
G1 X195.384 Y111.914 E127.87732
G1 X194.704 Y113.225 E127.94609
G1 X193.707 Y114.156 E128.0096
G1 X192.492 Y114.879 E128.07544
G1 X191.064 Y115.164 E128.14324
G1 X152.758 Y115.164 E129.92693
G1 X141.775 Y126.147 E130.65018
G1 X140.216 Y126.987 E130.73264
G1 X138.997 Y127.146 E130.78988
G1 X60.155 Y127.164 E134.4611
G1 X58.934 Y126.864 E134.51964
G1 X57.623 Y126.184 E134.58841
G1 X56.692 Y125.187 E134.65193
G1 X55.969 Y123.972 E134.71776
G1 X55.684 Y122.544 E134.78557
G1 X55.684 Y84.635 E136.55077
G1 X55.984 Y83.414 E136.60932
G1 X56.664 Y82.103 E136.67809
G1 X57.661 Y81.172 E136.7416
G0 F6000 X57.9 Y81.496
G1 F1200 X59.024 Y80.827 E136.80251
G1 X60.342 Y80.564 E136.86509
G1 X191.167 Y80.564 E142.95685
G1 X192.291 Y80.84 E143.01075
G1 X193.5 Y81.467 E143.07416
G1 X194.352 Y82.38 E143.13231
G1 X195.021 Y83.504 E143.19322
G1 X195.284 Y84.822 E143.2558
G1 X195.284 Y110.647 E144.45832
G1 X195.008 Y111.771 E144.51221
G1 X194.381 Y112.98 E144.57563
G1 X193.468 Y113.832 E144.63378
G1 X192.344 Y114.501 E144.69469
G1 X191.026 Y114.764 E144.75727
G1 X152.592 Y114.764 E146.54692
G1 X141.533 Y125.823 E147.27517
G1 X140.092 Y126.599 E147.35138
G1 X138.945 Y126.749 E147.40524
G1 X60.201 Y126.764 E151.07189
G1 X59.077 Y126.488 E151.12579
G1 X57.868 Y125.861 E151.1892
G1 X57.016 Y124.948 E151.24735
G1 X56.347 Y123.824 E151.30826
G1 X56.084 Y122.506 E151.37084
G1 X56.084 Y84.681 E153.13213
G1 X56.36 Y83.557 E153.18602
G1 X56.987 Y82.348 E153.24944
G1 X57.9 Y81.496 E153.30759
G0 F6000 X58.142 Y81.818
G1 F1200 X59.172 Y81.205 E153.3634
G1 X60.38 Y80.964 E153.42076
G1 X191.12 Y80.964 E159.50856
G1 X192.149 Y81.217 E159.5579
G1 X193.253 Y81.789 E159.6158
G1 X194.03 Y82.622 E159.66884
G1 X194.643 Y83.652 E159.72466
G1 X194.884 Y84.86 E159.78201
G1 X194.884 Y110.6 E160.98058
G1 X194.631 Y111.629 E161.02992
G1 X194.059 Y112.733 E161.08781
G1 X193.226 Y113.51 E161.14086
G1 X192.196 Y114.123 E161.19667
G1 X190.988 Y114.364 E161.25403
G1 X152.426 Y114.364 E163.04964
G1 X141.291 Y125.499 E163.78289
G1 X139.968 Y126.211 E163.85285
G1 X138.893 Y126.352 E163.90334
G1 X60.248 Y126.364 E167.56538
G1 X59.219 Y126.111 E167.61472
G1 X58.115 Y125.539 E167.67262
G1 X57.338 Y124.706 E167.72566
G1 X56.725 Y123.676 E167.78147
G1 X56.484 Y122.468 E167.83883
G1 X56.484 Y84.728 E169.59616
G1 X56.737 Y83.699 E169.64551
G1 X57.309 Y82.595 E169.7034
G1 X58.142 Y81.818 E169.75645
G0 F6000 X58.384 Y82.14
G1 F1200 X59.32 Y81.583 E169.80716
G1 X60.418 Y81.364 E169.8593
G1 X191.074 Y81.364 E175.94319
G1 X192.006 Y81.593 E175.98788
G1 X193.006 Y82.111 E176.04032
G1 X193.708 Y82.864 E176.08825
G1 X194.265 Y83.8 E176.13897
G1 X194.484 Y84.898 E176.19111
G1 X194.484 Y110.554 E177.38576
G1 X194.255 Y111.486 E177.43045
G1 X193.737 Y112.486 E177.48289
G1 X192.984 Y113.188 E177.53082
G1 X192.048 Y113.745 E177.58154
G1 X190.95 Y113.964 E177.63367
G1 X152.26 Y113.964 E179.43524
G1 X141.048 Y125.176 E180.17357
G1 X139.845 Y125.823 E180.23718
G1 X138.841 Y125.955 E180.28433
G1 X60.294 Y125.964 E183.94181
G1 X59.362 Y125.735 E183.9865
G1 X58.362 Y125.217 E184.03894
G1 X57.66 Y124.464 E184.08687
G1 X57.103 Y123.528 E184.13759
G1 X56.884 Y122.43 E184.18972
G1 X56.884 Y84.774 E185.94315
G1 X57.113 Y83.842 E185.98783
G1 X57.631 Y82.842 E186.04027
G1 X58.384 Y82.14 E186.08821
G0 F6000 X58.626 Y82.462
G1 F1200 X59.468 Y81.961 E186.13383
G1 X60.456 Y81.764 E186.18074
G1 X191.028 Y81.764 E192.26072
G1 X191.863 Y81.969 E192.30076
G1 X192.759 Y82.433 E192.34774
G1 X193.386 Y83.106 E192.39057
G1 X193.887 Y83.948 E192.4362
G1 X194.084 Y84.936 E192.48311
G1 X194.084 Y110.508 E193.67385
G1 X193.879 Y111.343 E193.71388
G1 X193.415 Y112.239 E193.76087
G1 X192.742 Y112.866 E193.8037
G1 X191.9 Y113.367 E193.84932
G1 X190.912 Y113.564 E193.89623
G1 X152.094 Y113.564 E195.70376
G1 X140.805 Y124.853 E196.44716
G1 X139.722 Y125.435 E196.50441
G1 X138.789 Y125.558 E196.54823
G1 X60.34 Y125.564 E200.20114
G1 X59.505 Y125.359 E200.24118
G1 X58.609 Y124.895 E200.28816
G1 X57.982 Y124.222 E200.33099
G1 X57.481 Y123.38 E200.37662
G1 X57.284 Y122.392 E200.42353
G1 X57.284 Y84.82 E202.17304
G1 X57.489 Y83.985 E202.21307
G1 X57.953 Y83.089 E202.26006
G1 X58.626 Y82.462 E202.30289
G0 F6000 X58.868 Y82.784
G1 F1200 X59.616 Y82.339 E202.34341
G1 X60.494 Y82.164 E202.3851
G1 X190.982 Y82.164 E208.46117
G1 X191.72 Y82.345 E208.49655
G1 X192.512 Y82.755 E208.53808
G1 X193.064 Y83.348 E208.5758
G1 X193.509 Y84.096 E208.61633
G1 X193.684 Y84.974 E208.65802
G1 X193.684 Y110.462 E209.84485
G1 X193.503 Y111.2 E209.88023
G1 X193.093 Y111.992 E209.92176
G1 X192.5 Y112.544 E209.95948
G1 X191.752 Y112.989 E210.00001
G1 X190.874 Y113.164 E210.0417
G1 X151.928 Y113.164 E211.85519
G1 X140.562 Y124.53 E212.60366
G1 X139.599 Y125.047 E212.65455
G1 X138.737 Y125.161 E212.69504
G1 X60.386 Y125.164 E216.34339
G1 X59.648 Y124.983 E216.37877
G1 X58.856 Y124.573 E216.4203
G1 X58.304 Y123.98 E216.45802
G1 X57.859 Y123.232 E216.49855
G1 X57.684 Y122.354 E216.54024
G1 X57.684 Y84.866 E218.28584
G1 X57.865 Y84.128 E218.32122
G1 X58.275 Y83.336 E218.36275
G1 X58.868 Y82.784 E218.40047
G0 F6000 X59.107 Y83.108
G1 F1200 X59.764 Y82.717 E218.43607
G1 X60.532 Y82.564 E218.47254
G1 X190.932 Y82.564 E224.54451
G1 X191.581 Y82.723 E224.57562
G1 X192.267 Y83.078 E224.61159
G1 X192.74 Y83.587 E224.64394
G1 X193.131 Y84.244 E224.67954
G1 X193.284 Y85.012 E224.71601
G1 X193.284 Y110.412 E225.89874
G1 X193.125 Y111.061 E225.92985
G1 X192.77 Y111.747 E225.96582
G1 X192.261 Y112.22 E225.99817
G1 X191.604 Y112.611 E226.03377
G1 X190.836 Y112.764 E226.07024
G1 X151.762 Y112.764 E227.88969
G1 X140.319 Y124.207 E228.64323
G1 X139.477 Y124.659 E228.68773
G1 X138.684 Y124.764 E228.72498
G1 X60.436 Y124.764 E232.36853
G1 X59.787 Y124.605 E232.39964
G1 X59.101 Y124.25 E232.43561
G1 X58.628 Y123.741 E232.46797
G1 X58.237 Y123.084 E232.50357
G1 X58.084 Y122.316 E232.54003
G1 X58.084 Y84.916 E234.28153
G1 X58.243 Y84.267 E234.31264
G1 X58.598 Y83.581 E234.34861
G1 X59.107 Y83.108 E234.38097
G0 F6000 X59.346 Y83.432
G1 F1200 X59.912 Y83.095 E234.41164
G1 X60.57 Y82.964 E234.44288
G1 X190.882 Y82.964 E240.51075
G1 X191.442 Y83.101 E240.5376
G1 X192.022 Y83.401 E240.568
G1 X192.416 Y83.826 E240.59499
G1 X192.753 Y84.392 E240.62566
G1 X192.884 Y85.05 E240.6569
G1 X192.884 Y110.362 E241.83554
G1 X192.747 Y110.922 E241.86238
G1 X192.447 Y111.502 E241.89279
G1 X192.022 Y111.896 E241.91977
G1 X191.456 Y112.233 E241.95045
G1 X190.798 Y112.364 E241.98169
G1 X151.596 Y112.364 E243.8071
G1 X140.076 Y123.884 E244.56571
G1 X139.353 Y124.272 E244.60391
G1 X138.684 Y124.364 E244.63536
G1 X60.486 Y124.364 E248.27659
G1 X59.926 Y124.227 E248.30343
G1 X59.346 Y123.927 E248.33384
G1 X58.952 Y123.502 E248.36082
G1 X58.615 Y122.936 E248.3915
G1 X58.484 Y122.278 E248.42274
G1 X58.484 Y84.966 E250.16014
G1 X58.621 Y84.406 E250.18698
G1 X58.921 Y83.826 E250.21739
G1 X59.346 Y83.432 E250.24438
G0 F6000 X59.585 Y83.756
G1 F1200 X60.06 Y83.473 E250.27012
G1 X60.608 Y83.364 E250.29614
G1 X190.832 Y83.364 E256.35991
G1 X191.303 Y83.479 E256.38249
G1 X191.776 Y83.724 E256.40729
G1 X192.092 Y84.065 E256.42894
G1 X192.375 Y84.54 E256.45469
G1 X192.484 Y85.088 E256.4807
G1 X192.484 Y110.312 E257.65524
G1 X192.369 Y110.783 E257.67782
G1 X192.124 Y111.256 E257.70262
G1 X191.783 Y111.572 E257.72427
G1 X191.308 Y111.855 E257.75001
G1 X190.76 Y111.964 E257.77603
G1 X151.43 Y111.964 E259.6074
G1 X139.835 Y123.559 E260.37095
G1 X139.227 Y123.885 E260.40307
G1 X138.684 Y123.964 E260.42863
G1 X60.536 Y123.964 E264.06752
G1 X60.065 Y123.849 E264.0901
G1 X59.592 Y123.604 E264.1149
G1 X59.276 Y123.263 E264.13655
G1 X58.993 Y122.788 E264.1623
G1 X58.884 Y122.24 E264.18831
G1 X58.884 Y85.016 E265.92162
G1 X58.999 Y84.545 E265.9442
G1 X59.244 Y84.072 E265.969
G1 X59.585 Y83.756 E265.99065
G0 F6000 X59.824 Y84.08
G1 F1200 X60.208 Y83.851 E266.01147
G1 X60.646 Y83.764 E266.03226
G1 X190.782 Y83.764 E272.09194
G1 X191.164 Y83.857 E272.11024
G1 X191.53 Y84.047 E272.12945
G1 X191.768 Y84.304 E272.14576
G1 X191.997 Y84.688 E272.16658
G1 X192.084 Y85.126 E272.18737
G1 X192.084 Y110.262 E273.35781
G1 X191.991 Y110.644 E273.37611
G1 X191.801 Y111.01 E273.39532
G1 X191.544 Y111.248 E273.41163
G1 X191.16 Y111.477 E273.43244
G1 X190.722 Y111.564 E273.45324
G1 X151.264 Y111.564 E275.29057
G1 X139.594 Y123.234 E276.05906
G1 X139.098 Y123.5 E276.08527
G1 X138.684 Y123.564 E276.10477
G1 X60.586 Y123.564 E279.74134
G1 X60.204 Y123.471 E279.75965
G1 X59.838 Y123.281 E279.77885
G1 X59.6 Y123.024 E279.79516
G1 X59.371 Y122.64 E279.81598
G1 X59.284 Y122.202 E279.83677
G1 X59.284 Y85.066 E281.56598
G1 X59.377 Y84.684 E281.58429
G1 X59.567 Y84.318 E281.60349
G1 X59.824 Y84.08 E281.6198
G0 F6000 X60.029 Y84.424
G1 F1200 X60.356 Y84.229 E281.63753
G1 X60.684 Y84.164 E281.6531
G1 X190.733 Y84.164 E287.70873
