;FLAVOR:Marlin
;TIME:3097
;Filament used: 2.85239m
;Layer height: 0.28
;MINX:79.2
;MINY:91.7
;MINZ:0.28
;MAXX:155.8
;MAXY:143.3
;MAXZ:10.36
;POSTPROCESSED
;Generated with Cura_SteamEngine 5.3.1
M140 S50
M105
M190 S50
M104 S200
M105
M109 S200
M82 ;absolute extrusion mode
; Ender 3 Custom Start G-code
G92 E0 ; Reset Extruder
G28 ; Home all axes
G1 Z2.0 F3000 ; Move Z Axis up little to prevent scratching of Heat Bed
G1 X0.1 Y20 Z0.3 F5000.0 ; Move to start position
G1 X0.1 Y200.0 Z0.3 F1500.0 E15 ; Draw the first line
G1 X0.4 Y200.0 Z0.3 F5000.0 ; Move to side a little
G1 X0.4 Y20 Z0.3 F1500.0 E30 ; Draw the second line
G92 E0 ; Reset Extruder
G1 Z2.0 F3000 ; Move Z Axis up little to prevent scratching of Heat Bed
G1 X5 Y20 Z0.3 F5000.0 ; Move over to prevent blob squish
G92 E0
G92 E0
G1 F2700 E-5
;LAYER_COUNT:38
;LAYER:0
M107
G0 F6000 X81.499 Y92.86 Z0.28
;TYPE:SKIRT
G1 F2700 E0
G1 F1200 X82.896 Y92.029 E0.07569
G1 X84.544 Y91.7 E0.15394
G1 X125.621 Y91.7 E2.06666
G1 X127.036 Y92.048 E2.13451
G1 X128.551 Y92.834 E2.21398
G1 X129.64 Y93.999 E2.28824
G1 X130.471 Y95.396 E2.36393
G1 X130.8 Y97.044 E2.44218
G1 X130.8 Y107.7 E2.93837
G1 X150.621 Y107.7 E3.86132
G1 X152.036 Y108.048 E3.92917
G1 X153.551 Y108.834 E4.00864
G1 X154.64 Y109.999 E4.0829
G1 X155.471 Y111.396 E4.15859
G1 X155.8 Y113.044 E4.23684
G1 X155.8 Y124.121 E4.75263
G1 X155.452 Y125.536 E4.82049
G1 X154.666 Y127.051 E4.89996
G1 X153.501 Y128.14 E4.97422
G1 X152.104 Y128.971 E5.0499
G1 X150.456 Y129.3 E5.12816
G1 X130.8 Y129.3 E6.04342
G1 X130.8 Y138.121 E6.45417
G1 X130.452 Y139.536 E6.52202
G1 X129.666 Y141.051 E6.60149
G1 X128.501 Y142.14 E6.67575
G1 X127.104 Y142.971 E6.75144
G1 X125.456 Y143.3 E6.82969
G1 X84.379 Y143.3 E8.74241
G1 X82.964 Y142.952 E8.81026
G1 X81.449 Y142.166 E8.88973
G1 X80.36 Y141.001 E8.96399
G1 X79.529 Y139.604 E9.03968
G1 X79.2 Y137.956 E9.11793
G1 X79.2 Y96.879 E11.03065
G1 X79.548 Y95.464 E11.0985
G1 X80.334 Y93.949 E11.17797
G1 X81.499 Y92.86 E11.25223
G0 F6000 X81.738 Y93.184
G1 F1200 X83.044 Y92.407 E11.32299
G1 X84.582 Y92.1 E11.39602
G1 X125.575 Y92.1 E13.30483
G1 X126.893 Y92.424 E13.36802
G1 X128.306 Y93.157 E13.44215
G1 X129.316 Y94.238 E13.51103
G1 X130.093 Y95.544 E13.58179
G1 X130.4 Y97.082 E13.65482
G1 X130.4 Y108.1 E14.16787
G1 X150.575 Y108.1 E15.1073
G1 X151.893 Y108.424 E15.1705
G1 X153.306 Y109.157 E15.24462
G1 X154.316 Y110.238 E15.31351
G1 X155.093 Y111.544 E15.38427
G1 X155.4 Y113.082 E15.4573
G1 X155.4 Y124.075 E15.96918
G1 X155.076 Y125.393 E16.03238
G1 X154.343 Y126.806 E16.1065
G1 X153.262 Y127.816 E16.17539
G1 X151.956 Y128.593 E16.24615
G1 X150.418 Y128.9 E16.31918
G1 X130.4 Y128.9 E17.2513
G1 X130.4 Y138.075 E17.67852
G1 X130.076 Y139.393 E17.74172
G1 X129.343 Y140.806 E17.81584
G1 X128.262 Y141.816 E17.88473
G1 X126.956 Y142.593 E17.95549
G1 X125.418 Y142.9 E18.02852
G1 X84.425 Y142.9 E19.93733
G1 X83.107 Y142.576 E20.00053
G1 X81.694 Y141.843 E20.07465
G1 X80.684 Y140.762 E20.14354
G1 X79.907 Y139.456 E20.2143
G1 X79.6 Y137.918 E20.28733
G1 X79.6 Y96.925 E22.19613
G1 X79.924 Y95.607 E22.25933
G1 X80.657 Y94.194 E22.33345
G1 X81.738 Y93.184 E22.40234
G0 F6000 X81.977 Y93.508
G1 F1200 X83.192 Y92.785 E22.46817
G1 X84.62 Y92.5 E22.53598
G1 X125.529 Y92.5 E24.44087
G1 X126.75 Y92.8 E24.49942
G1 X128.061 Y93.48 E24.56819
G1 X128.992 Y94.477 E24.63171
G1 X129.715 Y95.692 E24.69754
G1 X130 Y97.12 E24.76535
G1 X130 Y108.5 E25.29525
G1 X150.529 Y108.5 E26.25116
G1 X151.75 Y108.8 E26.30971
G1 X153.061 Y109.48 E26.37848
G1 X153.992 Y110.477 E26.442
G1 X154.715 Y111.692 E26.50783
G1 X155 Y113.12 E26.57564
G1 X155 Y124.029 E27.0836
G1 X154.7 Y125.25 E27.14215
G1 X154.02 Y126.561 E27.21092
G1 X153.023 Y127.492 E27.27444
G1 X151.808 Y128.215 E27.34027
G1 X150.38 Y128.5 E27.40808
G1 X130 Y128.5 E28.35705
G1 X130 Y138.029 E28.80076
G1 X129.7 Y139.25 E28.85931
G1 X129.02 Y140.561 E28.92808
G1 X128.023 Y141.492 E28.9916
G1 X126.808 Y142.215 E29.05743
G1 X125.38 Y142.5 E29.12524
G1 X84.471 Y142.5 E31.03013
G1 X83.25 Y142.2 E31.08868
G1 X81.939 Y141.52 E31.15745
G1 X81.008 Y140.523 E31.22096
G1 X80.285 Y139.308 E31.2868
G1 X80 Y137.88 E31.3546
G1 X80 Y96.971 E33.2595
G1 X80.3 Y95.75 E33.31804
G1 X80.98 Y94.439 E33.38681
G1 X81.977 Y93.508 E33.45033
G0 F6000 X82.216 Y93.832
G1 F1200 X83.34 Y93.163 E33.51124
G1 X84.658 Y92.9 E33.57382
G1 X125.483 Y92.9 E35.4748
G1 X126.607 Y93.176 E35.5287
G1 X127.816 Y93.803 E35.59211
G1 X128.668 Y94.716 E35.65026
G1 X129.337 Y95.84 E35.71117
G1 X129.6 Y97.158 E35.77375
G1 X129.6 Y108.9 E36.32051
G1 X150.483 Y108.9 E37.29291
G1 X151.607 Y109.176 E37.3468
G1 X152.816 Y109.803 E37.41022
G1 X153.668 Y110.716 E37.46837
G1 X154.337 Y111.84 E37.52927
G1 X154.6 Y113.158 E37.59185
G1 X154.6 Y123.983 E38.09591
G1 X154.324 Y125.107 E38.1498
G1 X153.697 Y126.316 E38.21322
G1 X152.784 Y127.168 E38.27137
G1 X151.66 Y127.837 E38.33228
G1 X150.342 Y128.1 E38.39486
G1 X129.6 Y128.1 E39.36069
G1 X129.6 Y137.983 E39.82089
G1 X129.324 Y139.107 E39.87478
G1 X128.697 Y140.316 E39.9382
G1 X127.784 Y141.168 E39.99634
G1 X126.66 Y141.837 E40.05725
G1 X125.342 Y142.1 E40.11983
G1 X84.517 Y142.1 E42.02082
G1 X83.393 Y141.824 E42.07471
G1 X82.184 Y141.197 E42.13813
G1 X81.332 Y140.284 E42.19627
G1 X80.663 Y139.16 E42.25718
G1 X80.4 Y137.842 E42.31976
G1 X80.4 Y97.017 E44.22075
G1 X80.676 Y95.893 E44.27464
G1 X81.303 Y94.684 E44.33806
G1 X82.216 Y93.832 E44.3962
G0 F6000 X82.458 Y94.154
G1 F1200 X83.488 Y93.541 E44.45202
G1 X84.696 Y93.3 E44.50938
G1 X125.436 Y93.3 E46.4064
G1 X126.465 Y93.553 E46.45574
G1 X127.569 Y94.125 E46.51364
G1 X128.346 Y94.958 E46.56668
G1 X128.959 Y95.988 E46.62249
G1 X129.2 Y97.196 E46.67985
G1 X129.2 Y109.3 E47.24346
G1 X150.436 Y109.3 E48.2323
G1 X151.465 Y109.553 E48.28164
G1 X152.569 Y110.125 E48.33954
G1 X153.346 Y110.958 E48.39258
G1 X153.959 Y111.988 E48.4484
G1 X154.2 Y113.196 E48.50575
G1 X154.2 Y123.936 E49.00585
G1 X153.947 Y124.965 E49.05519
G1 X153.375 Y126.069 E49.11309
G1 X152.542 Y126.846 E49.16613
G1 X151.512 Y127.459 E49.22195
G1 X150.304 Y127.7 E49.2793
G1 X129.2 Y127.7 E50.262
G1 X129.2 Y137.936 E50.73863
G1 X128.947 Y138.965 E50.78797
G1 X128.375 Y140.069 E50.84587
G1 X127.542 Y140.846 E50.89891
G1 X126.512 Y141.459 E50.95472
G1 X125.304 Y141.7 E51.01208
G1 X84.564 Y141.7 E52.9091
G1 X83.535 Y141.447 E52.95844
G1 X82.431 Y140.875 E53.01634
G1 X81.654 Y140.042 E53.06938
G1 X81.041 Y139.012 E53.1252
G1 X80.8 Y137.804 E53.18255
G1 X80.8 Y97.064 E55.07958
G1 X81.053 Y96.035 E55.12892
G1 X81.625 Y94.931 E55.18682
G1 X82.458 Y94.154 E55.23986
G0 F6000 X82.7 Y94.476
G1 F1200 X83.636 Y93.919 E55.29058
G1 X84.734 Y93.7 E55.34271
G1 X125.39 Y93.7 E57.23583
G1 X126.322 Y93.929 E57.28052
G1 X127.322 Y94.447 E57.33296
G1 X128.024 Y95.2 E57.38089
G1 X128.581 Y96.136 E57.43161
G1 X128.8 Y97.234 E57.48374
G1 X128.8 Y109.7 E58.06421
G1 X150.39 Y109.7 E59.06953
G1 X151.322 Y109.929 E59.11422
G1 X152.322 Y110.447 E59.16666
G1 X153.024 Y111.2 E59.2146
G1 X153.581 Y112.136 E59.26532
G1 X153.8 Y113.234 E59.31745
G1 X153.8 Y123.89 E59.81364
G1 X153.571 Y124.822 E59.85833
G1 X153.053 Y125.822 E59.91077
G1 X152.3 Y126.524 E59.95871
G1 X151.364 Y127.081 E60.00942
G1 X150.266 Y127.3 E60.06156
G1 X128.8 Y127.3 E61.06111
G1 X128.8 Y137.89 E61.55422
G1 X128.571 Y138.822 E61.59891
G1 X128.053 Y139.822 E61.65135
G1 X127.3 Y140.524 E61.69929
G1 X126.364 Y141.081 E61.75
G1 X125.266 Y141.3 E61.80214
G1 X84.61 Y141.3 E63.69525
G1 X83.678 Y141.071 E63.73994
G1 X82.678 Y140.553 E63.79238
G1 X81.976 Y139.8 E63.84032
G1 X81.419 Y138.864 E63.89103
G1 X81.2 Y137.766 E63.94317
G1 X81.2 Y97.11 E65.83628
G1 X81.429 Y96.178 E65.88097
G1 X81.947 Y95.178 E65.93341
G1 X82.7 Y94.476 E65.98135
G0 F6000 X82.942 Y94.798
G1 F1200 X83.784 Y94.297 E66.02697
G1 X84.772 Y94.1 E66.07388
G1 X125.344 Y94.1 E67.96308
G1 X126.179 Y94.305 E68.00312
G1 X127.075 Y94.769 E68.0501
G1 X127.702 Y95.442 E68.09293
G1 X128.203 Y96.284 E68.13856
G1 X128.4 Y97.272 E68.18547
G1 X128.4 Y110.1 E68.78279
G1 X150.344 Y110.1 E69.8046
G1 X151.179 Y110.305 E69.84463
G1 X152.075 Y110.769 E69.89162
G1 X152.702 Y111.442 E69.93445
G1 X153.203 Y112.284 E69.98007
G1 X153.4 Y113.272 E70.02698
G1 X153.4 Y123.844 E70.51926
G1 X153.195 Y124.679 E70.55929
G1 X152.731 Y125.575 E70.60628
G1 X152.058 Y126.202 E70.64911
G1 X151.216 Y126.703 E70.69473
G1 X150.228 Y126.9 E70.74164
G1 X128.4 Y126.9 E71.75805
G1 X128.4 Y137.844 E72.26764
G1 X128.195 Y138.679 E72.30768
G1 X127.731 Y139.575 E72.35466
G1 X127.058 Y140.202 E72.39749
G1 X126.216 Y140.703 E72.44312
G1 X125.228 Y140.9 E72.49003
G1 X84.656 Y140.9 E74.37923
G1 X83.821 Y140.695 E74.41927
G1 X82.925 Y140.231 E74.46625
G1 X82.298 Y139.558 E74.50908
G1 X81.797 Y138.716 E74.5547
G1 X81.6 Y137.728 E74.60161
G1 X81.6 Y97.156 E76.49082
G1 X81.805 Y96.321 E76.53085
G1 X82.269 Y95.425 E76.57784
G1 X82.942 Y94.798 E76.62067
G0 F6000 X83.184 Y95.12
G1 F1200 X83.932 Y94.675 E76.66119
G1 X84.81 Y94.5 E76.70288
G1 X125.298 Y94.5 E78.58817
G1 X126.036 Y94.681 E78.62355
G1 X126.828 Y95.091 E78.66508
G1 X127.38 Y95.684 E78.70281
G1 X127.825 Y96.432 E78.74333
G1 X128 Y97.31 E78.78502
G1 X128 Y110.5 E79.3992
G1 X150.298 Y110.5 E80.43749
G1 X151.036 Y110.681 E80.47287
G1 X151.828 Y111.091 E80.5144
G1 X152.38 Y111.684 E80.55213
G1 X152.825 Y112.432 E80.59265
G1 X153 Y113.31 E80.63434
G1 X153 Y123.798 E81.12271
G1 X152.819 Y124.536 E81.15809
G1 X152.409 Y125.328 E81.19962
G1 X151.816 Y125.88 E81.23734
G1 X151.068 Y126.325 E81.27787
G1 X150.19 Y126.5 E81.31956
G1 X128 Y126.5 E82.35282
G1 X128 Y137.798 E82.8789
G1 X127.819 Y138.536 E82.91428
G1 X127.409 Y139.328 E82.95581
G1 X126.816 Y139.88 E82.99353
G1 X126.068 Y140.325 E83.03406
G1 X125.19 Y140.5 E83.07575
G1 X84.702 Y140.5 E84.96104
G1 X83.964 Y140.319 E84.99642
G1 X83.172 Y139.909 E85.03795
G1 X82.62 Y139.316 E85.07567
G1 X82.175 Y138.568 E85.1162
G1 X82 Y137.69 E85.15789
G1 X82 Y97.202 E87.04318
G1 X82.181 Y96.464 E87.07856
G1 X82.591 Y95.672 E87.12009
G1 X83.184 Y95.12 E87.15781
G0 F6000 X83.423 Y95.444
G1 F1200 X84.08 Y95.053 E87.19341
G1 X84.848 Y94.9 E87.22988
G1 X125.248 Y94.9 E89.11107
G1 X125.897 Y95.059 E89.14218
G1 X126.583 Y95.414 E89.17815
G1 X127.056 Y95.923 E89.21051
G1 X127.447 Y96.58 E89.24611
G1 X127.6 Y97.348 E89.28257
G1 X127.6 Y110.9 E89.91361
G1 X150.248 Y110.9 E90.96819
G1 X150.897 Y111.059 E90.99931
G1 X151.583 Y111.414 E91.03528
G1 X152.056 Y111.923 E91.06763
G1 X152.447 Y112.58 E91.10323
G1 X152.6 Y113.348 E91.13969
G1 X152.6 Y123.748 E91.62396
G1 X152.441 Y124.397 E91.65508
G1 X152.086 Y125.083 E91.69104
G1 X151.577 Y125.556 E91.7234
G1 X150.92 Y125.947 E91.759
G1 X150.152 Y126.1 E91.79546
G1 X127.6 Y126.1 E92.84558
G1 X127.6 Y137.748 E93.38796
G1 X127.441 Y138.397 E93.41907
G1 X127.086 Y139.083 E93.45504
G1 X126.577 Y139.556 E93.48739
G1 X125.92 Y139.947 E93.52299
G1 X125.152 Y140.1 E93.55946
G1 X84.752 Y140.1 E95.44065
G1 X84.103 Y139.941 E95.47176
G1 X83.417 Y139.586 E95.50773
G1 X82.944 Y139.077 E95.54009
G1 X82.553 Y138.42 E95.57569
G1 X82.4 Y137.652 E95.61215
G1 X82.4 Y97.252 E97.49334
G1 X82.559 Y96.603 E97.52446
G1 X82.914 Y95.917 E97.56042
G1 X83.423 Y95.444 E97.59278
G0 F6000 X83.662 Y95.768
G1 F1200 X84.228 Y95.431 E97.62345
G1 X84.886 Y95.3 E97.65469
G1 X125.198 Y95.3 E99.53179
G1 X125.758 Y95.437 E99.55863
G1 X126.338 Y95.737 E99.58904
G1 X126.732 Y96.162 E99.61603
G1 X127.069 Y96.728 E99.6467
G1 X127.2 Y97.386 E99.67794
G1 X127.2 Y111.3 E100.32583
G1 X150.198 Y111.3 E101.39672
G1 X150.758 Y111.437 E101.42356
G1 X151.338 Y111.737 E101.45397
G1 X151.732 Y112.162 E101.48095
G1 X152.069 Y112.728 E101.51163
G1 X152.2 Y113.386 E101.54287
G1 X152.2 Y123.698 E102.02304
G1 X152.063 Y124.258 E102.04988
G1 X151.763 Y124.838 E102.08029
G1 X151.338 Y125.232 E102.10727
G1 X150.772 Y125.569 E102.13795
G1 X150.114 Y125.7 E102.16919
G1 X127.2 Y125.7 E103.23616
G1 X127.2 Y137.698 E103.79484
G1 X127.063 Y138.258 E103.82168
G1 X126.763 Y138.838 E103.85209
G1 X126.338 Y139.232 E103.87907
G1 X125.772 Y139.569 E103.90975
G1 X125.114 Y139.7 E103.94099
G1 X84.802 Y139.7 E105.81808
G1 X84.242 Y139.563 E105.84493
G1 X83.662 Y139.263 E105.87533
G1 X83.268 Y138.838 E105.90232
G1 X82.931 Y138.272 E105.93299
G1 X82.8 Y137.614 E105.96423
G1 X82.8 Y97.302 E107.84133
G1 X82.937 Y96.742 E107.86817
G1 X83.237 Y96.162 E107.89858
G1 X83.662 Y95.768 E107.92556
G0 F6000 X83.901 Y96.092
G1 F1200 X84.376 Y95.809 E107.95131
G1 X84.924 Y95.7 E107.97733
G1 X125.148 Y95.7 E109.85033
G1 X125.619 Y95.815 E109.8729
G1 X126.092 Y96.06 E109.89771
G1 X126.408 Y96.401 E109.91935
G1 X126.691 Y96.876 E109.9451
G1 X126.8 Y97.424 E109.97112
G1 X126.8 Y111.7 E110.63587
G1 X150.148 Y111.7 E111.72305
G1 X150.619 Y111.815 E111.74562
G1 X151.092 Y112.06 E111.77043
G1 X151.408 Y112.401 E111.79208
G1 X151.691 Y112.876 E111.81782
G1 X151.8 Y113.424 E111.84384
G1 X151.8 Y123.648 E112.31991
G1 X151.685 Y124.119 E112.34249
G1 X151.44 Y124.592 E112.36729
G1 X151.099 Y124.908 E112.38894
G1 X150.624 Y125.191 E112.41469
G1 X150.076 Y125.3 E112.4407
G1 X126.8 Y125.3 E113.52453
G1 X126.8 Y137.648 E114.09951
G1 X126.685 Y138.119 E114.12208
G1 X126.44 Y138.592 E114.14689
G1 X126.099 Y138.908 E114.16853
G1 X125.624 Y139.191 E114.19428
G1 X125.076 Y139.3 E114.2203
G1 X84.852 Y139.3 E116.09329
G1 X84.381 Y139.185 E116.11587
G1 X83.908 Y138.94 E116.14067
G1 X83.592 Y138.599 E116.16232
G1 X83.309 Y138.124 E116.18807
G1 X83.2 Y137.576 E116.21409
G1 X83.2 Y97.352 E118.08708
G1 X83.315 Y96.881 E118.10966
G1 X83.56 Y96.408 E118.13446
G1 X83.901 Y96.092 E118.15611
G0 F6000 X84.14 Y96.416
G1 F1200 X84.524 Y96.187 E118.17693
G1 X84.962 Y96.1 E118.19772
G1 X125.098 Y96.1 E120.06662
G1 X125.48 Y96.193 E120.08493
G1 X125.846 Y96.383 E120.10413
G1 X126.084 Y96.64 E120.12044
G1 X126.313 Y97.024 E120.14126
G1 X126.4 Y97.462 E120.16206
G1 X126.4 Y112.1 E120.84366
G1 X150.098 Y112.1 E121.94714
G1 X150.48 Y112.193 E121.96545
G1 X150.846 Y112.383 E121.98465
G1 X151.084 Y112.64 E122.00096
G1 X151.313 Y113.024 E122.02178
G1 X151.4 Y113.462 E122.04257
G1 X151.4 Y123.598 E122.51455
G1 X151.307 Y123.98 E122.53285
G1 X151.117 Y124.346 E122.55206
G1 X150.86 Y124.584 E122.56837
G1 X150.476 Y124.813 E122.58918
G1 X150.038 Y124.9 E122.60998
G1 X126.4 Y124.9 E123.71066
G1 X126.4 Y137.598 E124.30193
G1 X126.307 Y137.98 E124.32024
G1 X126.117 Y138.346 E124.33944
G1 X125.86 Y138.584 E124.35575
G1 X125.476 Y138.813 E124.37657
G1 X125.038 Y138.9 E124.39737
G1 X84.902 Y138.9 E126.26627
G1 X84.52 Y138.807 E126.28457
G1 X84.154 Y138.617 E126.30378
G1 X83.916 Y138.36 E126.32009
G1 X83.687 Y137.976 E126.34091
G1 X83.6 Y137.538 E126.3617
G1 X83.6 Y97.402 E128.2306
G1 X83.693 Y97.02 E128.24891
G1 X83.883 Y96.654 E128.26811
G1 X84.14 Y96.416 E128.28442
G0 F6000 X84.345 Y96.76
G1 F1200 X84.672 Y96.565 E128.30215
G1 X85 Y96.5 E128.31772
G1 X125.049 Y96.5 E130.18257
G1 X125.338 Y96.57 E130.19641
G1 X125.601 Y96.707 E130.21022
G1 X125.74 Y96.845 E130.21934
G1 X125.935 Y97.172 E130.23707
G1 X126 Y97.5 E130.25264
G1 X126 Y112.5 E130.9511
G1 X150.049 Y112.5 E132.07092
G1 X150.338 Y112.57 E132.08477
G1 X150.601 Y112.707 E132.09858
G1 X150.74 Y112.845 E132.1077
G1 X150.935 Y113.172 E132.12543
G1 X151 Y113.5 E132.141
G1 X151 Y123.549 E132.60892
G1 X150.93 Y123.838 E132.62277
G1 X150.793 Y124.101 E132.63658
G1 X150.655 Y124.24 E132.6457
G1 X150.328 Y124.435 E132.66342
G1 X150 Y124.5 E132.67899
G1 X126 Y124.5 E133.79654
G1 X126 Y137.549 E134.40415
G1 X125.93 Y137.838 E134.418
G1 X125.793 Y138.101 E134.43181
G1 X125.655 Y138.24 E134.44093
G1 X125.328 Y138.435 E134.45865
G1 X125 Y138.5 E134.47422
G1 X84.951 Y138.5 E136.33907
G1 X84.662 Y138.43 E136.35292
G1 X84.399 Y138.293 E136.36673
G1 X84.26 Y138.155 E136.37585
G1 X84.065 Y137.828 E136.39358
G1 X84 Y137.5 E136.40915
G1 X84 Y97.451 E138.274
G1 X84.07 Y97.162 E138.28784
G1 X84.207 Y96.899 E138.30165
G1 X84.345 Y96.76 E138.31077
G0 F6000 X84.55 Y97.104
G1 F1200 X84.82 Y96.943 E138.32541
G1 X85 Y96.9 E138.33403
G1 X125 Y96.9 E140.19659
G1 X125.244 Y96.959 E140.20828
G1 X125.396 Y97.05 E140.21653
G1 X125.557 Y97.32 E140.23117
G1 X125.6 Y97.5 E140.23979
G1 X125.6 Y112.9 E140.95688
