;FLAVOR:Marlin
;TIME:932
;Filament used: 0.846642m
;Layer height: 0.28
;MINX:98.313
;MINY:105.033
;MINZ:0.28
;MAXX:136.712
;MAXY:134.633
;MAXZ:12.88
;Generated with Cura_SteamEngine 5.3.1
M140 S60
M105
M190 S60
M104 S195
M105
M109 S195
M82 ;absolute extrusion mode
; Ender 3 Custom Start G-code
G92 E0 ; Reset Extruder
G28 ; Home all axes
G1 Z2.0 F3000 ; Move Z Axis up little to prevent scratching of Heat Bed
G1 X0.1 Y20 Z0.3 F5000.0 ; Move to start position
G1 X0.1 Y200.0 Z0.3 F1500.0 E15 ; Draw the first line
G1 X0.4 Y200.0 Z0.3 F5000.0 ; Move to side a little
G1 X0.4 Y20 Z0.3 F1500.0 E30 ; Draw the second line
G92 E0 ; Reset Extruder
G1 Z2.0 F3000 ; Move Z Axis up little to prevent scratching of Heat Bed
G1 X5 Y20 Z0.3 F5000.0 ; Move over to prevent blob squish
G92 E0
G92 E0
G1 F2700 E-5
;LAYER_COUNT:46
;LAYER:0
M107
G0 F6000 X99.832 Y108.057 Z0.28
;TYPE:SKIRT
G1 F2700 E0
G1 F1200 X101.407 Y106.583 E0.10045
G1 X103.279 Y105.471 E0.20183
G1 X105.466 Y105.033 E0.30569
G1 X129.765 Y105.033 E1.43715
G1 X131.661 Y105.499 E1.52807
G1 X133.688 Y106.552 E1.63443
G1 X135.162 Y108.127 E1.73488
G1 X136.274 Y109.999 E1.83626
G1 X136.712 Y112.186 E1.94012
G1 X136.712 Y127.686 E2.66187
G1 X136.246 Y129.582 E2.75278
G1 X135.193 Y131.609 E2.85914
G1 X133.618 Y133.083 E2.95959
G1 X131.746 Y134.195 E3.06097
G1 X129.559 Y134.633 E3.16483
G1 X105.26 Y134.633 E4.2963
G1 X103.364 Y134.167 E4.38721
G1 X101.337 Y133.114 E4.49357
G1 X99.863 Y131.539 E4.59402
G1 X98.751 Y129.667 E4.6954
G1 X98.313 Y127.48 E4.79926
G1 X98.313 Y111.98 E5.52101
G1 X98.779 Y110.084 E5.61192
G1 X99.832 Y108.057 E5.71828
G0 F6000 X100.155 Y108.302
G1 F1200 X101.648 Y106.905 E5.81349
G1 X103.425 Y105.849 E5.90974
G1 X105.504 Y105.433 E6.00847
G1 X129.719 Y105.433 E7.13602
G1 X131.518 Y105.875 E7.22228
G1 X133.443 Y106.875 E7.32329
G1 X134.84 Y108.368 E7.4185
G1 X135.896 Y110.145 E7.51475
G1 X136.312 Y112.224 E7.61348
G1 X136.312 Y127.64 E8.33131
G1 X135.87 Y129.439 E8.41757
G1 X134.87 Y131.364 E8.51858
G1 X133.377 Y132.761 E8.61379
G1 X131.6 Y133.817 E8.71004
G1 X129.521 Y134.233 E8.80877
G1 X105.306 Y134.233 E9.93632
G1 X103.507 Y133.791 E10.02258
G1 X101.582 Y132.791 E10.12359
G1 X100.185 Y131.298 E10.21879
G1 X99.129 Y129.521 E10.31505
G1 X98.713 Y127.442 E10.41377
G1 X98.713 Y112.026 E11.13161
G1 X99.155 Y110.227 E11.21787
G1 X100.155 Y108.302 E11.31888
G0 F6000 X100.478 Y108.547
G1 F1200 X101.889 Y107.227 E11.40885
G1 X103.571 Y106.228 E11.49994
G1 X105.543 Y105.833 E11.59359
G1 X129.672 Y105.833 E12.71714
G1 X131.376 Y106.252 E12.79884
G1 X133.198 Y107.198 E12.89444
G1 X134.518 Y108.609 E12.98441
G1 X135.517 Y110.291 E13.0755
G1 X135.912 Y112.263 E13.16915
G1 X135.912 Y127.593 E13.88298
G1 X135.493 Y129.297 E13.96469
G1 X134.547 Y131.119 E14.06028
G1 X133.136 Y132.439 E14.15025
G1 X131.454 Y133.438 E14.24135
G1 X129.482 Y133.833 E14.335
G1 X105.353 Y133.833 E15.45854
G1 X103.649 Y133.414 E15.54025
G1 X101.827 Y132.468 E15.63585
G1 X100.507 Y131.057 E15.72582
G1 X99.508 Y129.375 E15.81691
G1 X99.113 Y127.403 E15.91056
G1 X99.113 Y112.073 E16.62439
G1 X99.532 Y110.369 E16.7061
G1 X100.478 Y108.547 E16.80169
G0 F6000 X100.801 Y108.792
G1 F1200 X102.13 Y107.549 E16.88642
G1 X103.717 Y106.606 E16.97238
G1 X105.581 Y106.233 E17.0609
G1 X129.626 Y106.233 E18.18053
G1 X131.233 Y106.628 E18.25759
G1 X132.953 Y107.521 E18.34783
G1 X134.196 Y108.85 E18.43256
G1 X135.139 Y110.437 E18.51852
G1 X135.512 Y112.301 E18.60704
G1 X135.512 Y127.547 E19.31696
G1 X135.117 Y129.154 E19.39401
G1 X134.224 Y130.874 E19.48425
G1 X132.895 Y132.117 E19.56899
G1 X131.308 Y133.06 E19.65495
G1 X129.444 Y133.433 E19.74346
G1 X105.399 Y133.433 E20.8631
G1 X103.792 Y133.038 E20.94015
G1 X102.072 Y132.145 E21.0304
G1 X100.829 Y130.816 E21.11513
G1 X99.886 Y129.229 E21.20109
G1 X99.513 Y127.365 E21.2896
G1 X99.513 Y112.119 E21.99952
G1 X99.908 Y110.512 E22.07658
G1 X100.801 Y108.792 E22.16682
G0 F6000 X101.124 Y109.037
G1 F1200 X102.371 Y107.871 E22.24631
G1 X103.863 Y106.984 E22.32714
G1 X105.619 Y106.633 E22.41052
G1 X129.58 Y106.633 E23.52625
G1 X131.09 Y107.004 E23.59865
G1 X132.708 Y107.844 E23.68354
G1 X133.874 Y109.091 E23.76303
G1 X134.761 Y110.583 E23.84386
G1 X135.112 Y112.339 E23.92724
G1 X135.112 Y127.501 E24.63325
G1 X134.741 Y129.011 E24.70565
G1 X133.901 Y130.629 E24.79054
G1 X132.654 Y131.795 E24.87003
G1 X131.162 Y132.682 E24.95086
G1 X129.406 Y133.033 E25.03424
G1 X105.445 Y133.033 E26.14997
G1 X103.935 Y132.662 E26.22237
G1 X102.317 Y131.822 E26.30726
G1 X101.151 Y130.575 E26.38675
G1 X100.264 Y129.083 E26.46758
G1 X99.913 Y127.327 E26.55096
G1 X99.913 Y112.165 E27.25697
G1 X100.284 Y110.655 E27.32937
G1 X101.124 Y109.037 E27.41426
G0 F6000 X101.447 Y109.282
G1 F1200 X102.612 Y108.193 E27.48852
G1 X104.009 Y107.362 E27.56421
G1 X105.657 Y107.033 E27.64246
G1 X129.533 Y107.033 E28.75422
G1 X130.948 Y107.381 E28.82208
G1 X132.463 Y108.167 E28.90155
G1 X133.552 Y109.332 E28.97581
G1 X134.383 Y110.729 E29.0515
G1 X134.712 Y112.377 E29.12975
G1 X134.712 Y127.454 E29.8318
G1 X134.364 Y128.869 E29.89965
G1 X133.578 Y130.384 E29.97912
G1 X132.413 Y131.473 E30.05338
G1 X131.016 Y132.304 E30.12907
G1 X129.368 Y132.633 E30.20732
G1 X105.492 Y132.633 E31.31909
G1 X104.077 Y132.285 E31.38694
G1 X102.562 Y131.499 E31.46641
G1 X101.473 Y130.334 E31.54067
G1 X100.642 Y128.937 E31.61636
G1 X100.313 Y127.289 E31.69461
G1 X100.313 Y112.212 E32.39666
G1 X100.661 Y110.797 E32.46451
G1 X101.447 Y109.282 E32.54398
G0 F6000 X101.77 Y109.527
G1 F1200 X102.851 Y108.517 E32.61287
G1 X104.157 Y107.74 E32.68363
G1 X105.695 Y107.433 E32.75666
G1 X129.487 Y107.433 E33.86452
G1 X130.805 Y107.757 E33.92772
G1 X132.218 Y108.49 E34.00184
G1 X133.228 Y109.571 E34.07072
G1 X134.005 Y110.877 E34.14149
G1 X134.312 Y112.415 E34.21451
G1 X134.312 Y127.408 E34.91265
G1 X133.988 Y128.726 E34.97585
G1 X133.255 Y130.139 E35.04997
G1 X132.174 Y131.149 E35.11886
G1 X130.868 Y131.926 E35.18962
G1 X129.33 Y132.233 E35.26265
G1 X105.538 Y132.233 E36.3705
G1 X104.22 Y131.909 E36.4337
G1 X102.807 Y131.176 E36.50782
G1 X101.797 Y130.095 E36.57671
G1 X101.02 Y128.789 E36.64747
G1 X100.713 Y127.251 E36.7205
G1 X100.713 Y112.258 E37.41864
G1 X101.037 Y110.94 E37.48184
G1 X101.77 Y109.527 E37.55596
G0 F6000 X102.093 Y109.772
G1 F1200 X103.09 Y108.841 E37.61948
G1 X104.305 Y108.118 E37.68531
G1 X105.733 Y107.833 E37.75312
G1 X129.441 Y107.833 E38.85706
G1 X130.662 Y108.133 E38.91561
G1 X131.973 Y108.813 E38.98438
G1 X132.904 Y109.81 E39.04789
G1 X133.627 Y111.025 E39.11373
G1 X133.912 Y112.453 E39.18153
G1 X133.912 Y127.362 E39.87576
G1 X133.612 Y128.583 E39.9343
G1 X132.932 Y129.894 E40.00307
G1 X131.935 Y130.825 E40.06659
G1 X130.72 Y131.548 E40.13243
G1 X129.292 Y131.833 E40.20023
G1 X105.584 Y131.833 E41.30418
G1 X104.363 Y131.533 E41.36272
G1 X103.052 Y130.853 E41.43149
G1 X102.121 Y129.856 E41.49501
G1 X101.398 Y128.641 E41.56084
G1 X101.113 Y127.213 E41.62865
G1 X101.113 Y112.304 E42.32287
G1 X101.413 Y111.083 E42.38142
G1 X102.093 Y109.772 E42.45019
G0 F6000 X102.416 Y110.017
G1 F1200 X103.329 Y109.165 E42.50834
G1 X104.453 Y108.496 E42.56924
G1 X105.771 Y108.233 E42.63183
G1 X129.395 Y108.233 E43.73186
G1 X130.519 Y108.509 E43.78575
G1 X131.728 Y109.136 E43.84917
G1 X132.58 Y110.049 E43.90732
G1 X133.249 Y111.173 E43.96822
G1 X133.512 Y112.491 E44.0308
G1 X133.512 Y127.316 E44.72112
G1 X133.236 Y128.44 E44.77501
G1 X132.609 Y129.649 E44.83843
G1 X131.696 Y130.501 E44.89658
G1 X130.572 Y131.17 E44.95748
G1 X129.254 Y131.433 E45.02007
G1 X105.63 Y131.433 E46.1201
G1 X104.506 Y131.157 E46.17399
G1 X103.297 Y130.53 E46.23741
G1 X102.445 Y129.617 E46.29556
G1 X101.776 Y128.493 E46.35646
G1 X101.513 Y127.175 E46.41905
G1 X101.513 Y112.35 E47.10936
G1 X101.789 Y111.226 E47.16325
G1 X102.416 Y110.017 E47.22667
G0 F6000 X102.738 Y110.264
G1 F1200 X103.571 Y109.487 E47.27971
G1 X104.601 Y108.874 E47.33552
G1 X105.809 Y108.633 E47.39288
G1 X129.348 Y108.633 E48.48896
G1 X130.377 Y108.886 E48.5383
G1 X131.481 Y109.458 E48.59619
G1 X132.258 Y110.291 E48.64924
G1 X132.871 Y111.321 E48.70505
G1 X133.112 Y112.529 E48.76241
G1 X133.112 Y127.269 E49.44876
G1 X132.859 Y128.298 E49.49811
G1 X132.287 Y129.402 E49.556
G1 X131.454 Y130.179 E49.60905
G1 X130.424 Y130.792 E49.66486
G1 X129.216 Y131.033 E49.72222
G1 X105.677 Y131.033 E50.81829
G1 X104.648 Y130.78 E50.86763
G1 X103.544 Y130.208 E50.92553
G1 X102.767 Y129.375 E50.97857
G1 X102.154 Y128.345 E51.03438
G1 X101.913 Y127.137 E51.09174
G1 X101.913 Y112.397 E51.7781
G1 X102.166 Y111.368 E51.82744
G1 X102.738 Y110.264 E51.88534
G0 F6000 X103.06 Y110.511
G1 F1200 X103.813 Y109.809 E51.93327
G1 X104.749 Y109.252 E51.98399
G1 X105.847 Y109.033 E52.03613
G1 X129.302 Y109.033 E53.12829
G1 X130.234 Y109.262 E53.17298
G1 X131.234 Y109.78 E53.22542
G1 X131.936 Y110.533 E53.27335
G1 X132.493 Y111.469 E53.32407
G1 X132.712 Y112.567 E53.37621
G1 X132.712 Y127.223 E54.05865
G1 X132.483 Y128.155 E54.10334
G1 X131.965 Y129.155 E54.15578
G1 X131.212 Y129.857 E54.20372
G1 X130.276 Y130.414 E54.25443
G1 X129.178 Y130.633 E54.30657
G1 X105.723 Y130.633 E55.39873
G1 X104.791 Y130.404 E55.44342
G1 X103.791 Y129.886 E55.49586
G1 X103.089 Y129.133 E55.5438
G1 X102.532 Y128.197 E55.59451
G1 X102.313 Y127.099 E55.64665
G1 X102.313 Y112.443 E56.32909
G1 X102.542 Y111.511 E56.37378
G1 X103.06 Y110.511 E56.42622
G0 F6000 X103.382 Y110.758
G1 F1200 X104.055 Y110.131 E56.46905
G1 X104.897 Y109.63 E56.51468
G1 X105.885 Y109.433 E56.56159
G1 X129.256 Y109.433 E57.64984
G1 X130.091 Y109.638 E57.68987
G1 X130.987 Y110.102 E57.73686
G1 X131.614 Y110.775 E57.77969
G1 X132.115 Y111.617 E57.82531
G1 X132.312 Y112.605 E57.87222
G1 X132.312 Y127.177 E58.55076
G1 X132.107 Y128.012 E58.59079
G1 X131.643 Y128.908 E58.63778
G1 X130.97 Y129.535 E58.68061
G1 X130.128 Y130.036 E58.72623
G1 X129.14 Y130.233 E58.77314
G1 X105.769 Y130.233 E59.86139
G1 X104.934 Y130.028 E59.90143
G1 X104.038 Y129.564 E59.94841
G1 X103.411 Y128.891 E59.99124
G1 X102.91 Y128.049 E60.03686
G1 X102.713 Y127.061 E60.08378
G1 X102.713 Y112.489 E60.76231
G1 X102.918 Y111.654 E60.80234
G1 X103.382 Y110.758 E60.84933
G0 F6000 X103.704 Y111.005
G1 F1200 X104.297 Y110.453 E60.88705
G1 X105.045 Y110.008 E60.92758
G1 X105.923 Y109.833 E60.96927
G1 X129.21 Y109.833 E62.05361
G1 X129.948 Y110.014 E62.08899
G1 X130.74 Y110.424 E62.13052
G1 X131.292 Y111.017 E62.16824
G1 X131.737 Y111.765 E62.20877
G1 X131.912 Y112.643 E62.25046
G1 X131.912 Y127.131 E62.92508
G1 X131.731 Y127.869 E62.96046
G1 X131.321 Y128.661 E63.00199
G1 X130.728 Y129.213 E63.03971
G1 X129.98 Y129.658 E63.08024
G1 X129.102 Y129.833 E63.12193
G1 X105.815 Y129.833 E64.20627
G1 X105.077 Y129.652 E64.24165
G1 X104.285 Y129.242 E64.28318
G1 X103.733 Y128.649 E64.3209
G1 X103.288 Y127.901 E64.36143
G1 X103.113 Y127.023 E64.40312
G1 X103.113 Y112.535 E65.07774
G1 X103.294 Y111.797 E65.11312
G1 X103.704 Y111.005 E65.15465
G0 F6000 X104.027 Y111.25
G1 F1200 X104.536 Y110.777 E65.18701
G1 X105.193 Y110.386 E65.22261
G1 X105.961 Y110.233 E65.25907
G1 X129.16 Y110.233 E66.33931
G1 X129.809 Y110.392 E66.37043
G1 X130.495 Y110.747 E66.40639
G1 X130.968 Y111.256 E66.43875
G1 X131.359 Y111.913 E66.47435
G1 X131.512 Y112.681 E66.51081
G1 X131.512 Y127.081 E67.18134
G1 X131.353 Y127.73 E67.21245
G1 X130.998 Y128.416 E67.24842
G1 X130.489 Y128.889 E67.28077
G1 X129.832 Y129.28 E67.31637
G1 X129.064 Y129.433 E67.35284
G1 X105.865 Y129.433 E68.43308
G1 X105.216 Y129.274 E68.46419
G1 X104.53 Y128.919 E68.50016
G1 X104.057 Y128.41 E68.53252
G1 X103.666 Y127.753 E68.56812
G1 X103.513 Y126.985 E68.60458
G1 X103.513 Y112.585 E69.2751
G1 X103.672 Y111.936 E69.30622
G1 X104.027 Y111.25 E69.34219
G0 F6000 X104.35 Y111.495
G1 F1200 X104.775 Y111.101 E69.36917
G1 X105.341 Y110.764 E69.39984
G1 X105.999 Y110.633 E69.43108
G1 X129.11 Y110.633 E70.50723
G1 X129.67 Y110.77 E70.53407
G1 X130.25 Y111.07 E70.56448
G1 X130.644 Y111.495 E70.59147
G1 X130.981 Y112.061 E70.62214
G1 X131.112 Y112.719 E70.65338
G1 X131.112 Y127.031 E71.31981
G1 X130.975 Y127.591 E71.34665
G1 X130.675 Y128.171 E71.37706
G1 X130.25 Y128.565 E71.40404
G1 X129.684 Y128.902 E71.43472
G1 X129.026 Y129.033 E71.46596
G1 X105.915 Y129.033 E72.5421
G1 X105.355 Y128.896 E72.56895
G1 X104.775 Y128.596 E72.59935
G1 X104.381 Y128.171 E72.62634
G1 X104.044 Y127.605 E72.65701
G1 X103.913 Y126.947 E72.68825
G1 X103.913 Y112.635 E73.35468
G1 X104.05 Y112.075 E73.38152
G1 X104.35 Y111.495 E73.41193
G0 F6000 X104.673 Y111.741
G1 F1200 X105.014 Y111.425 E73.43358
G1 X105.489 Y111.142 E73.45932
G1 X106.037 Y111.033 E73.48534
G1 X129.06 Y111.033 E74.55739
G1 X129.531 Y111.148 E74.57996
G1 X130.004 Y111.393 E74.60477
G1 X130.32 Y111.734 E74.62642
G1 X130.603 Y112.209 E74.65216
G1 X130.712 Y112.757 E74.67818
G1 X130.712 Y126.981 E75.34051
G1 X130.597 Y127.452 E75.36308
G1 X130.352 Y127.925 E75.38789
G1 X130.011 Y128.241 E75.40954
G1 X129.536 Y128.524 E75.43528
G1 X128.988 Y128.633 E75.4613
G1 X105.965 Y128.633 E76.53335
G1 X105.494 Y128.518 E76.55592
G1 X105.021 Y128.273 E76.58073
G1 X104.705 Y127.932 E76.60238
G1 X104.422 Y127.457 E76.62812
G1 X104.313 Y126.909 E76.65414
G1 X104.313 Y112.685 E77.31647
G1 X104.428 Y112.214 E77.33904
G1 X104.673 Y111.741 E77.36385
G0 F6000 X104.996 Y111.987
G1 F1200 X105.253 Y111.749 E77.38016
G1 X105.637 Y111.52 E77.40098
G1 X106.075 Y111.433 E77.42177
G1 X129.01 Y111.433 E78.48972
G1 X129.392 Y111.526 E78.50803
G1 X129.758 Y111.716 E78.52723
G1 X129.996 Y111.973 E78.54354
G1 X130.225 Y112.357 E78.56436
G1 X130.312 Y112.795 E78.58515
G1 X130.312 Y126.931 E79.24338
G1 X130.219 Y127.313 E79.26169
G1 X130.029 Y127.679 E79.28089
G1 X129.772 Y127.917 E79.2972
G1 X129.388 Y128.146 E79.31802
G1 X128.95 Y128.233 E79.33881
G1 X106.015 Y128.233 E80.40676
G1 X105.633 Y128.14 E80.42507
G1 X105.267 Y127.95 E80.44427
G1 X105.029 Y127.693 E80.46058
G1 X104.8 Y127.309 E80.4814
G1 X104.713 Y126.871 E80.5022
G1 X104.713 Y112.735 E81.16043
G1 X104.806 Y112.353 E81.17873
G1 X104.996 Y111.987 E81.19794
G0 F6000 X105.458 Y112.093
G1 F1200 X105.785 Y111.898 E81.21566
G1 X106.113 Y111.833 E81.23123
G1 X128.961 Y111.833 E82.29513
G1 X129.25 Y111.903 E82.30898
G1 X129.513 Y112.04 E82.32279
G1 X129.652 Y112.178 E82.33191
G1 X129.847 Y112.505 E82.34964
G1 X129.912 Y112.833 E82.36521
G1 X129.912 Y126.882 E83.01939
G1 X129.842 Y127.171 E83.03323
G1 X129.705 Y127.434 E83.04704
G1 X129.567 Y127.573 E83.05616
G1 X129.24 Y127.768 E83.07389
G1 X128.912 Y127.833 E83.08946
G1 X106.064 Y127.833 E84.15336
G1 X105.775 Y127.763 E84.16721
G1 X105.512 Y127.626 E84.18101
G1 X105.373 Y127.488 E84.19013
G1 X105.178 Y127.161 E84.20786
G1 X105.113 Y126.833 E84.22343
G1 X105.113 Y112.784 E84.87761
G1 X105.183 Y112.495 E84.89146
G1 X105.32 Y112.232 E84.90527
G1 X105.458 Y112.093 E84.91439
G0 F6000 X105.663 Y112.437
G1 F1200 X105.933 Y112.276 E84.92903
G1 X106.113 Y112.233 E84.93764
G1 X128.912 Y112.233 E85.99926
G1 X129.156 Y112.292 E86.01095
G1 X129.308 Y112.383 E86.0192
G1 X129.469 Y112.653 E86.03384
G1 X129.512 Y112.833 E86.04245
G1 X129.512 Y126.833 E86.69435
G1 X129.453 Y127.077 E86.70604
G1 X129.362 Y127.229 E86.71429
G1 X129.092 Y127.39 E86.72893
G1 X128.912 Y127.433 E86.73755
G1 X106.113 Y127.433 E87.79916
G1 X105.869 Y127.374 E87.81085
G1 X105.717 Y127.283 E87.8191
G1 X105.556 Y127.013 E87.83374
G1 X105.513 Y126.833 E87.84236
G1 X105.513 Y112.833 E88.49425
G1 X105.572 Y112.589 E88.50594
G1 X105.663 Y112.437 E88.51419
G0 F6000 X105.952 Y112.714
G1 F1200 X106.113 Y112.633 E88.52259
G1 X128.912 Y112.633 E89.5842
G1 X129.031 Y112.672 E89.59003
G1 X129.112 Y112.833 E89.59843
G1 X129.112 Y126.833 E90.25032
G1 X129.073 Y126.952 E90.25616
G1 X128.912 Y127.033 E90.26455
G1 X106.113 Y127.033 E91.32616
G1 X105.994 Y126.994 E91.332
G1 X105.913 Y126.833 E91.34039
G1 X105.913 Y112.833 E91.99229
G1 X105.952 Y112.714 E91.99812
G1 F2700 E86.99812
;MESH:megav1-keyboardcentrepillar.stl
G0 F6000 X106.527 Y113.247
G0 X106.713 Y126.233
;TYPE:WALL-INNER
G1 F2700 E91.99812
G1 F1200 X128.312 Y126.233 E93.00386
G1 X128.312 Y113.433 E93.59988
G1 X106.713 Y113.433 E94.60562
