;FLAVOR:Marlin
;TIME:11221
;Filament used: 7.90659m
;Layer height: 0.28
;MINX:44.7
;MINY:62.45
;MINZ:0.28
;MAXX:190.3
;MAXY:116.55
;MAXZ:56
;Generated with Cura_SteamEngine 5.3.1
M140 S60
M105
M190 S60
M104 S195
M105
M109 S195
M82 ;absolute extrusion mode
; Ender 3 Custom Start G-code
G92 E0 ; Reset Extruder
G28 ; Home all axes
G1 Z2.0 F3000 ; Move Z Axis up little to prevent scratching of Heat Bed
G1 X0.1 Y20 Z0.3 F5000.0 ; Move to start position
G1 X0.1 Y200.0 Z0.3 F1500.0 E15 ; Draw the first line
G1 X0.4 Y200.0 Z0.3 F5000.0 ; Move to side a little
G1 X0.4 Y20 Z0.3 F1500.0 E30 ; Draw the second line
G92 E0 ; Reset Extruder
G1 Z2.0 F3000 ; Move Z Axis up little to prevent scratching of Heat Bed
G1 X5 Y20 Z0.3 F5000.0 ; Move over to prevent blob squish
G92 E0
G92 E0
G1 F2700 E-5
;LAYER_COUNT:200
;LAYER:0
M107
G0 F6000 X47.794 Y64 Z0.28
;TYPE:SKIRT
G1 F2700 E0
G1 F1200 X49.666 Y62.888 E0.10139
G1 X51.853 Y62.45 E0.20525
G1 X61.271 Y62.45 E0.64379
G1 X61.559 Y62.501 E0.65741
G1 X61.847 Y62.45 E0.67103
G1 X71.271 Y62.45 E1.10985
G1 X71.559 Y62.501 E1.12347
G1 X71.847 Y62.45 E1.13708
G1 X81.271 Y62.45 E1.57591
G1 X81.559 Y62.501 E1.58952
G1 X81.847 Y62.45 E1.60314
G1 X91.271 Y62.45 E2.04196
G1 X91.559 Y62.501 E2.05558
G1 X91.847 Y62.45 E2.0692
G1 X101.271 Y62.45 E2.50802
G1 X101.559 Y62.501 E2.52164
G1 X101.847 Y62.45 E2.53526
G1 X111.271 Y62.45 E2.97408
G1 X111.559 Y62.501 E2.9877
G1 X111.847 Y62.45 E3.00132
G1 X121.271 Y62.45 E3.44014
G1 X121.559 Y62.501 E3.45376
G1 X121.847 Y62.45 E3.46738
G1 X131.353 Y62.45 E3.91002
G1 X133.249 Y62.916 E4.00093
G1 X135.276 Y63.969 E4.10729
G1 X136.748 Y65.542 E4.20761
G1 X137.863 Y67.419 E4.30927
G1 X138.025 Y68.239 E4.34819
G1 X145.736 Y75.95 E4.85597
G1 X183.353 Y75.95 E6.60758
G1 X185.249 Y76.416 E6.69849
G1 X187.276 Y77.469 E6.80485
G1 X188.75 Y79.044 E6.9053
G1 X189.862 Y80.916 E7.00668
G1 X190.3 Y83.103 E7.11054
G1 X190.3 Y86.603 E7.27352
G1 X189.834 Y88.499 E7.36443
G1 X188.781 Y90.526 E7.47079
G1 X187.206 Y92 E7.57124
G1 X185.334 Y93.112 E7.67262
G1 X183.147 Y93.55 E7.77648
G1 X140.663 Y93.49 E9.75472
G1 X139.084 Y93.261 E9.82901
G1 X136.725 Y91.992 E9.95374
G1 X126.284 Y81.55 E10.64133
G1 X62.3 Y81.55 E13.6207
G1 X62.3 Y109.603 E14.92696
G1 X61.834 Y111.499 E15.01787
G1 X60.781 Y113.526 E15.12424
G1 X59.206 Y115 E15.22468
G1 X57.334 Y116.112 E15.32607
G1 X55.147 Y116.55 E15.42993
G1 X51.647 Y116.55 E15.5929
G1 X49.751 Y116.084 E15.68381
G1 X47.724 Y115.031 E15.79018
G1 X46.25 Y113.456 E15.89062
G1 X45.138 Y111.584 E15.99201
G1 X44.7 Y109.397 E16.09587
G1 X44.7 Y69.397 E17.95844
G1 X45.166 Y67.501 E18.04935
G1 X46.219 Y65.474 E18.15571
G1 X47.794 Y64 E18.25616
G0 F6000 X48.035 Y64.322
G1 F1200 X49.812 Y63.266 E18.35241
G1 X51.891 Y62.85 E18.45113
G1 X61.271 Y62.85 E18.88791
G1 X61.559 Y62.91 E18.9016
G1 X61.847 Y62.85 E18.9153
G1 X71.271 Y62.85 E19.35412
G1 X71.559 Y62.91 E19.36782
G1 X71.847 Y62.85 E19.38152
G1 X81.271 Y62.85 E19.82034
G1 X81.559 Y62.91 E19.83404
G1 X81.847 Y62.85 E19.84774
G1 X91.271 Y62.85 E20.28656
G1 X91.559 Y62.91 E20.30026
G1 X91.847 Y62.85 E20.31396
G1 X101.271 Y62.85 E20.75278
G1 X101.559 Y62.91 E20.76648
G1 X101.847 Y62.85 E20.78017
G1 X111.271 Y62.85 E21.219
G1 X111.559 Y62.91 E21.23269
G1 X111.847 Y62.85 E21.24639
G1 X121.271 Y62.85 E21.68521
G1 X121.559 Y62.91 E21.69891
G1 X121.847 Y62.85 E21.71261
G1 X131.307 Y62.85 E22.15311
G1 X133.106 Y63.292 E22.23937
G1 X135.031 Y64.292 E22.34038
G1 X136.426 Y65.783 E22.43545
G1 X137.485 Y67.565 E22.53198
G1 X137.657 Y68.437 E22.57336
G1 X145.57 Y76.35 E23.09445
G1 X183.307 Y76.35 E24.85164
G1 X185.106 Y76.792 E24.9379
G1 X187.031 Y77.792 E25.03891
G1 X188.428 Y79.285 E25.13412
G1 X189.484 Y81.062 E25.23037
G1 X189.9 Y83.141 E25.3291
G1 X189.9 Y86.557 E25.48816
G1 X189.458 Y88.356 E25.57442
G1 X188.458 Y90.281 E25.67543
G1 X186.965 Y91.678 E25.77064
G1 X185.188 Y92.734 E25.86689
G1 X183.109 Y93.15 E25.96562
G1 X140.72 Y93.094 E27.93943
G1 X139.21 Y92.875 E28.01047
G1 X136.968 Y91.669 E28.12902
G1 X126.45 Y81.15 E28.82168
G1 X61.9 Y81.15 E31.8274
G1 X61.9 Y109.557 E33.15015
G1 X61.458 Y111.356 E33.23641
G1 X60.458 Y113.281 E33.33741
G1 X58.965 Y114.678 E33.43262
G1 X57.188 Y115.734 E33.52888
G1 X55.109 Y116.15 E33.6276
G1 X51.693 Y116.15 E33.78666
G1 X49.894 Y115.708 E33.87292
G1 X47.969 Y114.708 E33.97393
G1 X46.572 Y113.215 E34.06914
G1 X45.516 Y111.438 E34.16539
G1 X45.1 Y109.359 E34.26412
G1 X45.1 Y69.443 E36.12278
G1 X45.542 Y67.644 E36.20904
G1 X46.542 Y65.719 E36.31005
G1 X48.035 Y64.322 E36.40525
G0 F6000 X48.276 Y64.644
G1 F1200 X49.958 Y63.645 E36.49635
G1 X51.93 Y63.25 E36.59
G1 X61.232 Y63.25 E37.02314
G1 X61.561 Y63.319 E37.03879
G1 X61.891 Y63.25 E37.05449
G1 X71.232 Y63.25 E37.48944
G1 X71.561 Y63.319 E37.5051
G1 X71.891 Y63.25 E37.5208
G1 X81.232 Y63.25 E37.95575
G1 X81.561 Y63.319 E37.9714
G1 X81.891 Y63.25 E37.9871
G1 X91.232 Y63.25 E38.42206
G1 X91.561 Y63.319 E38.43771
G1 X91.891 Y63.25 E38.45341
G1 X101.232 Y63.25 E38.88837
G1 X101.561 Y63.319 E38.90402
G1 X101.891 Y63.25 E38.91972
G1 X111.232 Y63.25 E39.35467
G1 X111.561 Y63.319 E39.37033
G1 X111.891 Y63.25 E39.38603
G1 X121.232 Y63.25 E39.82098
G1 X121.561 Y63.319 E39.83663
G1 X121.891 Y63.25 E39.85233
G1 X131.26 Y63.25 E40.28859
G1 X132.964 Y63.669 E40.3703
G1 X134.786 Y64.615 E40.4659
G1 X136.104 Y66.024 E40.55573
G1 X137.107 Y67.711 E40.64712
G1 X137.289 Y68.635 E40.69098
G1 X145.404 Y76.75 E41.22536
G1 X183.26 Y76.75 E42.9881
G1 X184.964 Y77.169 E43.0698
G1 X186.786 Y78.115 E43.1654
G1 X188.106 Y79.526 E43.25537
G1 X189.105 Y81.208 E43.34646
G1 X189.5 Y83.18 E43.44011
G1 X189.5 Y86.51 E43.59517
G1 X189.081 Y88.214 E43.67688
G1 X188.135 Y90.036 E43.77247
G1 X186.724 Y91.356 E43.86244
G1 X185.042 Y92.355 E43.95354
G1 X183.07 Y92.75 E44.04719
G1 X140.777 Y92.698 E46.01653
G1 X139.336 Y92.489 E46.08433
G1 X137.211 Y91.346 E46.19668
G1 X126.616 Y80.75 E46.89441
G1 X61.5 Y80.75 E49.92649
G1 X61.5 Y109.51 E51.26567
G1 X61.081 Y111.214 E51.34738
G1 X60.135 Y113.036 E51.44298
G1 X58.724 Y114.356 E51.53295
G1 X57.042 Y115.355 E51.62404
G1 X55.07 Y115.75 E51.71769
G1 X51.74 Y115.75 E51.87275
G1 X50.036 Y115.331 E51.95446
G1 X48.214 Y114.385 E52.05005
G1 X46.894 Y112.974 E52.14002
G1 X45.895 Y111.292 E52.23111
G1 X45.5 Y109.32 E52.32476
G1 X45.5 Y69.49 E54.17942
G1 X45.919 Y67.786 E54.26112
G1 X46.865 Y65.964 E54.35672
G1 X48.276 Y64.644 E54.44669
G0 F6000 X48.517 Y64.966
G1 F1200 X50.104 Y64.023 E54.53265
G1 X51.968 Y63.65 E54.62116
G1 X61.232 Y63.65 E55.05253
G1 X61.553 Y63.729 E55.06793
G1 X61.93 Y63.65 E55.08586
G1 X71.232 Y63.65 E55.519
G1 X71.553 Y63.729 E55.5344
G1 X71.93 Y63.65 E55.55233
G1 X81.232 Y63.65 E55.98547
G1 X81.553 Y63.729 E56.00087
G1 X81.93 Y63.65 E56.0188
G1 X91.232 Y63.65 E56.45194
G1 X91.553 Y63.729 E56.46733
G1 X91.93 Y63.65 E56.48527
G1 X101.232 Y63.65 E56.91841
G1 X101.553 Y63.729 E56.9338
G1 X101.93 Y63.65 E56.95174
G1 X111.232 Y63.65 E57.38488
G1 X111.553 Y63.729 E57.40027
G1 X111.93 Y63.65 E57.41821
G1 X121.232 Y63.65 E57.85135
G1 X121.553 Y63.729 E57.86674
G1 X121.93 Y63.65 E57.88468
G1 X131.214 Y63.65 E58.31698
G1 X132.821 Y64.045 E58.39404
G1 X134.541 Y64.938 E58.48428
G1 X135.782 Y66.265 E58.56888
G1 X136.728 Y67.857 E58.65511
G1 X136.921 Y68.833 E58.70144
G1 X145.238 Y77.15 E59.24912
G1 X183.214 Y77.15 E61.01745
G1 X184.821 Y77.545 E61.0945
G1 X186.541 Y78.438 E61.18474
G1 X187.784 Y79.767 E61.26948
G1 X188.727 Y81.354 E61.35543
G1 X189.1 Y83.218 E61.44395
G1 X189.1 Y86.464 E61.5951
G1 X188.705 Y88.071 E61.67215
G1 X187.812 Y89.791 E61.7624
G1 X186.483 Y91.034 E61.84713
G1 X184.896 Y91.977 E61.93309
G1 X183.032 Y92.35 E62.0216
G1 X140.834 Y92.302 E63.98652
G1 X139.462 Y92.103 E64.05108
G1 X137.454 Y91.023 E64.15724
G1 X126.782 Y80.35 E64.86004
G1 X61.1 Y80.35 E67.91847
G1 X61.1 Y109.464 E69.27414
G1 X60.705 Y111.071 E69.3512
G1 X59.812 Y112.791 E69.44144
G1 X58.483 Y114.034 E69.52617
G1 X56.896 Y114.977 E69.61213
G1 X55.032 Y115.35 E69.70065
G1 X51.786 Y115.35 E69.8518
G1 X50.179 Y114.955 E69.92885
G1 X48.459 Y114.062 E70.01909
G1 X47.216 Y112.733 E70.10383
G1 X46.273 Y111.146 E70.18978
G1 X45.9 Y109.282 E70.2783
G1 X45.9 Y69.536 E72.12904
G1 X46.295 Y67.929 E72.2061
G1 X47.188 Y66.209 E72.29634
G1 X48.517 Y64.966 E72.38107
G0 F6000 X48.758 Y65.288
G1 F1200 X50.25 Y64.401 E72.4619
G1 X52.006 Y64.05 E72.54528
G1 X61.186 Y64.05 E72.97274
G1 X61.548 Y64.139 E72.9901
G1 X61.974 Y64.05 E73.01036
G1 X71.186 Y64.05 E73.43931
G1 X71.548 Y64.139 E73.45667
G1 X71.974 Y64.05 E73.47693
G1 X81.186 Y64.05 E73.90588
G1 X81.548 Y64.139 E73.92324
G1 X81.974 Y64.05 E73.94351
G1 X91.186 Y64.05 E74.37246
G1 X91.548 Y64.139 E74.38981
G1 X91.974 Y64.05 E74.41008
G1 X101.186 Y64.05 E74.83903
G1 X101.548 Y64.139 E74.85639
G1 X101.974 Y64.05 E74.87665
G1 X111.186 Y64.05 E75.3056
G1 X111.548 Y64.139 E75.32296
G1 X111.974 Y64.05 E75.34322
G1 X121.186 Y64.05 E75.77217
G1 X121.548 Y64.139 E75.78953
G1 X121.974 Y64.05 E75.80979
G1 X131.168 Y64.05 E76.23791
G1 X132.678 Y64.421 E76.31031
G1 X134.296 Y65.261 E76.3952
G1 X135.46 Y66.506 E76.47456
G1 X136.35 Y68.003 E76.55566
G1 X136.553 Y69.031 E76.60445
G1 X145.072 Y77.55 E77.16544
G1 X183.168 Y77.55 E78.93935
G1 X184.678 Y77.921 E79.01175
G1 X186.296 Y78.761 E79.09664
G1 X187.462 Y80.008 E79.17614
G1 X188.349 Y81.5 E79.25696
G1 X188.7 Y83.256 E79.34034
G1 X188.7 Y86.418 E79.48758
G1 X188.329 Y87.928 E79.55998
G1 X187.489 Y89.546 E79.64487
G1 X186.242 Y90.712 E79.72437
G1 X184.75 Y91.599 E79.80519
G1 X182.994 Y91.95 E79.88857
G1 X140.891 Y91.906 E81.84907
G1 X139.588 Y91.717 E81.91038
G1 X137.697 Y90.7 E82.01036
G1 X126.948 Y79.95 E82.71823
G1 X60.7 Y79.95 E85.80301
G1 X60.7 Y109.418 E87.17517
G1 X60.329 Y110.928 E87.24757
G1 X59.489 Y112.546 E87.33246
G1 X58.242 Y113.712 E87.41195
G1 X56.75 Y114.599 E87.49278
G1 X54.994 Y114.95 E87.57616
G1 X51.832 Y114.95 E87.7234
G1 X50.322 Y114.579 E87.7958
G1 X48.704 Y113.739 E87.88069
G1 X47.538 Y112.492 E87.96018
G1 X46.651 Y111 E88.04101
G1 X46.3 Y109.244 E88.12439
G1 X46.3 Y69.582 E89.97122
G1 X46.671 Y68.072 E90.04362
G1 X47.511 Y66.454 E90.12851
G1 X48.758 Y65.288 E90.20801
G0 F6000 X48.999 Y65.61
G1 F1200 X50.396 Y64.779 E90.2837
G1 X52.044 Y64.45 E90.36195
G1 X61.14 Y64.45 E90.7855
G1 X61.543 Y64.549 E90.80482
G1 X62.018 Y64.45 E90.82741
G1 X71.14 Y64.45 E91.25217
G1 X71.543 Y64.549 E91.27149
G1 X72.018 Y64.45 E91.29409
G1 X81.14 Y64.45 E91.71885
G1 X81.543 Y64.549 E91.73817
G1 X82.018 Y64.45 E91.76076
G1 X91.14 Y64.45 E92.18552
G1 X91.543 Y64.549 E92.20485
G1 X92.018 Y64.45 E92.22744
G1 X101.14 Y64.45 E92.6522
G1 X101.543 Y64.549 E92.67152
G1 X102.018 Y64.45 E92.69411
G1 X111.14 Y64.45 E93.11887
G1 X111.543 Y64.549 E93.1382
G1 X112.018 Y64.45 E93.16079
G1 X121.14 Y64.45 E93.58555
G1 X121.543 Y64.549 E93.60487
G1 X122.018 Y64.45 E93.62746
G1 X131.121 Y64.45 E94.05134
G1 X132.536 Y64.798 E94.11919
G1 X134.051 Y65.584 E94.19866
G1 X135.138 Y66.747 E94.27279
G1 X135.972 Y68.149 E94.34875
G1 X136.185 Y69.229 E94.40001
G1 X144.906 Y77.95 E94.9743
G1 X183.121 Y77.95 E96.75375
G1 X184.536 Y78.298 E96.8216
G1 X186.051 Y79.084 E96.90108
G1 X187.14 Y80.249 E96.97533
G1 X187.971 Y81.646 E97.05102
G1 X188.3 Y83.294 E97.12927
G1 X188.3 Y86.371 E97.27255
G1 X187.952 Y87.786 E97.3404
G1 X187.166 Y89.301 E97.41988
G1 X186.001 Y90.39 E97.49413
G1 X184.604 Y91.221 E97.56982
G1 X182.956 Y91.55 E97.64808
G1 X140.948 Y91.51 E99.60414
G1 X139.714 Y91.331 E99.66221
G1 X137.94 Y90.377 E99.756
G1 X127.114 Y79.55 E100.46894
G1 X60.3 Y79.55 E103.58008
G1 X60.3 Y109.371 E104.96867
G1 X59.952 Y110.786 E105.03652
G1 X59.166 Y112.301 E105.116
G1 X58.001 Y113.39 E105.19025
G1 X56.604 Y114.221 E105.26594
G1 X54.956 Y114.55 E105.3442
G1 X51.879 Y114.55 E105.48747
G1 X50.464 Y114.202 E105.55532
G1 X48.949 Y113.416 E105.6348
G1 X47.86 Y112.251 E105.70906
G1 X47.029 Y110.854 E105.78474
G1 X46.7 Y109.206 E105.863
G1 X46.7 Y69.629 E107.70587
G1 X47.048 Y68.214 E107.77372
G1 X47.834 Y66.699 E107.85319
G1 X48.999 Y65.61 E107.92745
G0 F6000 X49.238 Y65.934
G1 F1200 X50.544 Y65.157 E107.99821
G1 X52.082 Y64.85 E108.07124
G1 X61.09 Y64.85 E108.49069
G1 X61.535 Y64.959 E108.51202
G1 X62.061 Y64.85 E108.53704
G1 X71.09 Y64.85 E108.95747
G1 X71.535 Y64.959 E108.9788
G1 X72.061 Y64.85 E109.00381
G1 X81.09 Y64.85 E109.42424
G1 X81.535 Y64.959 E109.44557
G1 X82.061 Y64.85 E109.47059
G1 X91.09 Y64.85 E109.89101
G1 X91.535 Y64.959 E109.91235
G1 X92.061 Y64.85 E109.93736
G1 X101.09 Y64.85 E110.35779
G1 X101.535 Y64.959 E110.37912
G1 X102.061 Y64.85 E110.40414
G1 X111.09 Y64.85 E110.82456
G1 X111.535 Y64.959 E110.8459
G1 X112.061 Y64.85 E110.87091
G1 X121.09 Y64.85 E111.29134
G1 X121.535 Y64.959 E111.31267
G1 X122.061 Y64.85 E111.33769
G1 X131.075 Y64.85 E111.75742
G1 X132.393 Y65.174 E111.82061
G1 X133.806 Y65.907 E111.89474
G1 X134.814 Y66.986 E111.96349
G1 X135.594 Y68.297 E112.03453
G1 X135.817 Y69.427 E112.08816
G1 X144.74 Y78.35 E112.67575
G1 X183.075 Y78.35 E114.46079
G1 X184.393 Y78.674 E114.52399
G1 X185.806 Y79.407 E114.59811
G1 X186.816 Y80.488 E114.667
G1 X187.593 Y81.794 E114.73776
G1 X187.9 Y83.332 E114.81079
G1 X187.9 Y86.325 E114.95015
G1 X187.576 Y87.643 E115.01335
G1 X186.843 Y89.056 E115.08748
G1 X185.762 Y90.066 E115.15636
G1 X184.456 Y90.843 E115.22712
G1 X182.918 Y91.15 E115.30015
G1 X141.005 Y91.114 E117.2518
G1 X139.84 Y90.945 E117.30661
G1 X138.183 Y90.054 E117.39422
G1 X127.28 Y79.15 E118.11223
G1 X59.9 Y79.15 E121.24973
G1 X59.9 Y109.325 E122.6548
G1 X59.576 Y110.643 E122.718
G1 X58.843 Y112.056 E122.79212
G1 X57.762 Y113.066 E122.86101
G1 X56.456 Y113.843 E122.93177
G1 X54.918 Y114.15 E123.0048
G1 X51.925 Y114.15 E123.14417
G1 X50.607 Y113.826 E123.20736
G1 X49.194 Y113.093 E123.28149
G1 X48.184 Y112.012 E123.35037
G1 X47.407 Y110.706 E123.42114
G1 X47.1 Y109.168 E123.49416
G1 X47.1 Y69.675 E125.33312
G1 X47.424 Y68.357 E125.39632
G1 X48.157 Y66.944 E125.47044
G1 X49.238 Y65.934 E125.53933
G0 F6000 X49.477 Y66.258
G1 F1200 X50.692 Y65.535 E125.60517
G1 X52.12 Y65.25 E125.67297
G1 X61.044 Y65.25 E126.08851
G1 X61.529 Y65.369 E126.11176
G1 X62.103 Y65.25 E126.13906
G1 X71.044 Y65.25 E126.55539
G1 X71.529 Y65.369 E126.57864
G1 X72.103 Y65.25 E126.60594
G1 X81.044 Y65.25 E127.02227
G1 X81.529 Y65.369 E127.04552
G1 X82.103 Y65.25 E127.07282
G1 X91.044 Y65.25 E127.48915
G1 X91.529 Y65.369 E127.5124
G1 X92.103 Y65.25 E127.5397
G1 X101.044 Y65.25 E127.95603
G1 X101.529 Y65.369 E127.97928
G1 X102.103 Y65.25 E128.00658
G1 X111.044 Y65.25 E128.42291
G1 X111.529 Y65.369 E128.44616
G1 X112.103 Y65.25 E128.47346
G1 X121.044 Y65.25 E128.88979
G1 X121.529 Y65.369 E128.91304
G1 X122.103 Y65.25 E128.94034
G1 X131.029 Y65.25 E129.35597
G1 X132.25 Y65.55 E129.41452
G1 X133.561 Y66.23 E129.48329
G1 X134.49 Y67.225 E129.54667
G1 X135.216 Y68.445 E129.61278
G1 X135.449 Y69.625 E129.66879
G1 X144.574 Y78.75 E130.26968
G1 X183.029 Y78.75 E132.06031
G1 X184.25 Y79.05 E132.11885
G1 X185.561 Y79.73 E132.18762
G1 X186.492 Y80.727 E132.25114
G1 X187.215 Y81.942 E132.31698
G1 X187.5 Y83.37 E132.38478
G1 X187.5 Y86.279 E132.52024
G1 X187.2 Y87.5 E132.57878
G1 X186.52 Y88.811 E132.64755
G1 X185.523 Y89.742 E132.71107
G1 X184.308 Y90.465 E132.7769
G1 X182.88 Y90.75 E132.84471
G1 X141.062 Y90.718 E134.79193
G1 X139.966 Y90.559 E134.8435
G1 X138.426 Y89.731 E134.92492
G1 X127.446 Y78.75 E135.648
G1 X59.5 Y78.75 E138.81185
G1 X59.5 Y109.279 E140.23341
G1 X59.2 Y110.5 E140.29195
G1 X58.52 Y111.811 E140.36072
G1 X57.523 Y112.742 E140.42424
G1 X56.308 Y113.465 E140.49008
G1 X54.88 Y113.75 E140.55788
G1 X51.971 Y113.75 E140.69334
G1 X50.75 Y113.45 E140.75188
G1 X49.439 Y112.77 E140.82065
G1 X48.508 Y111.773 E140.88417
G1 X47.785 Y110.558 E140.95
G1 X47.5 Y109.13 E141.01781
G1 X47.5 Y69.721 E142.85286
G1 X47.8 Y68.5 E142.9114
G1 X48.48 Y67.189 E142.98017
G1 X49.477 Y66.258 E143.04369
G0 F6000 X49.716 Y66.582
G1 F1200 X48.803 Y67.434 E143.10184
G1 X48.176 Y68.643 E143.16526
G1 X47.9 Y69.767 E143.21915
G1 X47.9 Y109.092 E145.05028
G1 X48.163 Y110.41 E145.11287
G1 X48.832 Y111.534 E145.17377
G1 X49.684 Y112.447 E145.23192
G1 X50.893 Y113.074 E145.29534
G1 X52.017 Y113.35 E145.34923
