;FLAVOR:Marlin
;TIME:868
;Filament used: 0.331231m
;Layer height: 0.2
;MINX:103.097
;MINY:96.882
;MINZ:0.2
;MAXX:130.697
;MAXY:135.648
;MAXZ:11
;Generated with Cura_SteamEngine 5.3.1
M140 S60
M105
M190 S60
M104 S194
M105
M109 S194
M82 ;absolute extrusion mode
; Ender 3 Custom Start G-code
G92 E0 ; Reset Extruder
G28 ; Home all axes
G1 Z2.0 F3000 ; Move Z Axis up little to prevent scratching of Heat Bed
G1 X0.1 Y20 Z0.3 F5000.0 ; Move to start position
G1 X0.1 Y200.0 Z0.3 F1500.0 E15 ; Draw the first line
G1 X0.4 Y200.0 Z0.3 F5000.0 ; Move to side a little
G1 X0.4 Y20 Z0.3 F1500.0 E30 ; Draw the second line
G92 E0 ; Reset Extruder
G1 Z2.0 F3000 ; Move Z Axis up little to prevent scratching of Heat Bed
G1 X5 Y20 Z0.3 F5000.0 ; Move over to prevent blob squish
G92 E0
G92 E0
G1 F2700 E-5
;LAYER_COUNT:55
;LAYER:0
M107
G0 F6000 X104.616 Y99.906 Z0.2
;TYPE:SKIRT
G1 F2700 E0
G1 F1200 X106.191 Y98.432 E0.07175
G1 X108.063 Y97.32 E0.14417
G1 X110.25 Y96.882 E0.21835
G1 X123.75 Y96.882 E0.66736
G1 X125.646 Y97.348 E0.7323
G1 X127.673 Y98.401 E0.80827
G1 X129.147 Y99.976 E0.88002
G1 X130.259 Y101.848 E0.95244
G1 X130.697 Y104.035 E1.02662
G1 X130.697 Y117.535 E1.47564
G1 X130.231 Y119.431 E1.54057
G1 X129.178 Y121.458 E1.61655
G1 X127.897 Y122.656 E1.67488
G1 X127.899 Y128.701 E1.87594
G1 X127.433 Y130.597 E1.94088
G1 X126.38 Y132.624 E2.01685
G1 X124.805 Y134.098 E2.0886
G1 X122.933 Y135.21 E2.16102
G1 X120.746 Y135.648 E2.2352
G1 X113.746 Y135.648 E2.46802
G1 X111.85 Y135.182 E2.53296
G1 X109.823 Y134.129 E2.60893
G1 X108.349 Y132.554 E2.68068
G1 X107.237 Y130.682 E2.7531
G1 X106.799 Y128.495 E2.82728
G1 X106.799 Y123.317 E2.9995
G1 X106.123 Y122.965 E3.02485
G1 X104.647 Y121.388 E3.09669
G1 X103.535 Y119.516 E3.16911
G1 X103.097 Y117.329 E3.2433
G1 X103.097 Y103.829 E3.69231
G1 X103.563 Y101.933 E3.75725
G1 X104.616 Y99.906 E3.83322
G0 F6000 X104.939 Y100.151
G1 F1200 X106.432 Y98.754 E3.90123
G1 X108.209 Y97.698 E3.96998
G1 X110.288 Y97.282 E4.0405
G1 X123.704 Y97.282 E4.48672
G1 X125.503 Y97.724 E4.54833
G1 X127.428 Y98.724 E4.62048
G1 X128.825 Y100.217 E4.68849
G1 X129.881 Y101.994 E4.75724
G1 X130.297 Y104.073 E4.82776
G1 X130.297 Y117.489 E5.27397
G1 X129.855 Y119.288 E5.33559
G1 X128.855 Y121.213 E5.40774
G1 X127.497 Y122.483 E5.46958
G1 X127.499 Y128.655 E5.67486
G1 X127.057 Y130.454 E5.73647
G1 X126.057 Y132.379 E5.80862
G1 X124.564 Y133.776 E5.87663
G1 X122.787 Y134.832 E5.94538
G1 X120.708 Y135.248 E6.0159
G1 X113.792 Y135.248 E6.24593
G1 X111.993 Y134.806 E6.30754
G1 X110.068 Y133.806 E6.37969
G1 X108.671 Y132.313 E6.4477
G1 X107.615 Y130.536 E6.51645
G1 X107.199 Y128.457 E6.58697
G1 X107.199 Y123.074 E6.76601
G1 X106.367 Y122.641 E6.7972
G1 X104.969 Y121.147 E6.86525
G1 X103.913 Y119.37 E6.93401
G1 X103.497 Y117.291 E7.00453
G1 X103.497 Y103.875 E7.45074
G1 X103.939 Y102.076 E7.51236
G1 X104.939 Y100.151 E7.58451
G0 F6000 X105.262 Y100.396
G1 F1200 X106.673 Y99.076 E7.64877
G1 X108.355 Y98.077 E7.71384
G1 X110.327 Y97.682 E7.78073
G1 X123.657 Y97.682 E8.22409
G1 X125.361 Y98.101 E8.28245
G1 X127.183 Y99.047 E8.35073
G1 X128.503 Y100.458 E8.415
G1 X129.502 Y102.14 E8.48006
G1 X129.897 Y104.112 E8.54696
G1 X129.897 Y117.442 E8.99031
G1 X129.478 Y119.146 E9.04868
G1 X128.532 Y120.968 E9.11696
G1 X127.097 Y122.31 E9.18231
G1 X127.099 Y128.608 E9.39178
G1 X126.68 Y130.312 E9.45014
G1 X125.734 Y132.134 E9.51842
G1 X124.323 Y133.454 E9.58269
G1 X122.641 Y134.453 E9.64775
G1 X120.669 Y134.848 E9.71465
G1 X113.839 Y134.848 E9.94181
G1 X112.135 Y134.429 E10.00018
G1 X110.313 Y133.483 E10.06846
G1 X108.993 Y132.072 E10.13272
G1 X107.994 Y130.39 E10.19779
G1 X107.599 Y128.418 E10.26468
G1 X107.599 Y122.831 E10.45051
G1 X106.611 Y122.317 E10.48755
G1 X105.291 Y120.906 E10.55181
G1 X104.292 Y119.224 E10.61688
G1 X103.897 Y117.252 E10.68377
G1 X103.897 Y103.922 E11.12713
G1 X104.316 Y102.218 E11.18549
G1 X105.262 Y100.396 E11.25377
G0 F6000 X105.585 Y100.641
G1 F1200 X106.914 Y99.398 E11.3143
G1 X108.501 Y98.455 E11.3757
G1 X110.365 Y98.082 E11.43892
G1 X123.611 Y98.082 E11.87949
G1 X125.218 Y98.477 E11.93453
G1 X126.938 Y99.37 E11.99898
G1 X128.181 Y100.699 E12.05951
G1 X129.124 Y102.286 E12.12091
G1 X129.497 Y104.15 E12.18413
G1 X129.497 Y117.396 E12.6247
G1 X129.102 Y119.003 E12.67974
G1 X128.209 Y120.723 E12.74419
G1 X126.912 Y121.936 E12.80326
G1 X126.697 Y122.075 E12.81177
G1 X126.699 Y128.562 E13.02753
G1 X126.304 Y130.169 E13.08257
G1 X125.411 Y131.889 E13.14703
G1 X124.082 Y133.132 E13.20755
G1 X122.495 Y134.075 E13.26895
G1 X120.631 Y134.448 E13.33218
G1 X113.885 Y134.448 E13.55655
G1 X112.278 Y134.053 E13.61159
G1 X110.558 Y133.16 E13.67605
G1 X109.315 Y131.831 E13.73657
G1 X108.372 Y130.244 E13.79797
G1 X107.999 Y128.38 E13.8612
G1 X107.999 Y122.588 E14.05384
G1 X106.856 Y121.994 E14.09668
G1 X105.613 Y120.665 E14.15721
G1 X104.67 Y119.078 E14.21861
G1 X104.297 Y117.214 E14.28183
G1 X104.297 Y103.968 E14.7224
G1 X104.692 Y102.361 E14.77744
G1 X105.585 Y100.641 E14.84189
G0 F6000 X105.908 Y100.886
G1 F1200 X107.155 Y99.72 E14.89868
G1 X108.647 Y98.833 E14.95641
G1 X110.403 Y98.482 E15.01597
G1 X123.565 Y98.482 E15.45374
G1 X125.075 Y98.853 E15.50545
G1 X126.693 Y99.693 E15.56609
G1 X127.859 Y100.94 E15.62287
G1 X128.746 Y102.432 E15.6806
G1 X129.097 Y104.188 E15.74016
G1 X129.097 Y117.35 E16.17793
G1 X128.726 Y118.86 E16.22965
G1 X127.886 Y120.478 E16.29028
G1 X126.639 Y121.644 E16.34707
G1 X126.297 Y121.847 E16.36029
G1 X126.299 Y128.516 E16.58211
G1 X125.928 Y130.026 E16.63382
G1 X125.088 Y131.644 E16.69446
G1 X123.841 Y132.81 E16.75124
G1 X122.349 Y133.697 E16.80897
G1 X120.593 Y134.048 E16.86853
G1 X113.931 Y134.048 E17.09011
G1 X112.421 Y133.677 E17.14183
G1 X110.803 Y132.837 E17.20246
G1 X109.637 Y131.59 E17.25924
G1 X108.75 Y130.098 E17.31698
G1 X108.399 Y128.342 E17.37654
G1 X108.399 Y122.345 E17.576
G1 X107.101 Y121.671 E17.62464
G1 X105.935 Y120.424 E17.68142
G1 X105.048 Y118.932 E17.73915
G1 X104.697 Y117.176 E17.79871
G1 X104.697 Y104.014 E18.23648
G1 X105.068 Y102.504 E18.2882
G1 X105.908 Y100.886 E18.34884
G0 F6000 X106.231 Y101.131
G1 F1200 X107.396 Y100.042 E18.40188
G1 X108.793 Y99.211 E18.45594
G1 X110.441 Y98.882 E18.51183
G1 X123.518 Y98.882 E18.94678
G1 X124.933 Y99.23 E18.99524
G1 X126.448 Y100.016 E19.05201
G1 X127.537 Y101.181 E19.10505
G1 X128.368 Y102.578 E19.15911
G1 X128.697 Y104.226 E19.21501
G1 X128.697 Y117.303 E19.64995
G1 X128.349 Y118.718 E19.69842
G1 X127.563 Y120.233 E19.75518
G1 X126.398 Y121.322 E19.80822
G1 X125.897 Y121.62 E19.82761
G1 X125.899 Y128.469 E20.05541
G1 X125.551 Y129.884 E20.10388
G1 X124.765 Y131.399 E20.16064
G1 X123.6 Y132.488 E20.21368
G1 X122.203 Y133.319 E20.26775
G1 X120.555 Y133.648 E20.32364
G1 X113.978 Y133.648 E20.54239
G1 X112.563 Y133.3 E20.59086
G1 X111.048 Y132.514 E20.64763
G1 X109.959 Y131.349 E20.70067
G1 X109.128 Y129.952 E20.75473
G1 X108.799 Y128.304 E20.81063
G1 X108.799 Y122.102 E21.0169
G1 X107.346 Y121.348 E21.07135
G1 X106.257 Y120.183 E21.12439
G1 X105.426 Y118.786 E21.17846
G1 X105.097 Y117.138 E21.23435
G1 X105.097 Y104.061 E21.66929
G1 X105.445 Y102.646 E21.71776
G1 X106.231 Y101.131 E21.77453
G0 F6000 X106.554 Y101.376
G1 F1200 X107.635 Y100.366 E21.82373
G1 X108.941 Y99.589 E21.87427
G1 X110.479 Y99.282 E21.92644
G1 X123.472 Y99.282 E22.35859
G1 X124.79 Y99.606 E22.40373
G1 X126.203 Y100.339 E22.45667
G1 X127.213 Y101.42 E22.50588
G1 X127.99 Y102.726 E22.55642
G1 X128.297 Y104.264 E22.60859
G1 X128.297 Y117.257 E23.04073
G1 X127.973 Y118.575 E23.08588
G1 X127.24 Y119.988 E23.13882
G1 X126.159 Y120.998 E23.18803
G1 X125.497 Y121.392 E23.21365
G1 X125.499 Y128.423 E23.4475
G1 X125.175 Y129.741 E23.49264
G1 X124.442 Y131.154 E23.54559
G1 X123.361 Y132.164 E23.59479
G1 X122.055 Y132.941 E23.64534
G1 X120.517 Y133.248 E23.6975
G1 X114.024 Y133.248 E23.91346
G1 X112.706 Y132.924 E23.9586
G1 X111.293 Y132.191 E24.01154
G1 X110.283 Y131.11 E24.06075
G1 X109.506 Y129.804 E24.11129
G1 X109.199 Y128.266 E24.16346
G1 X109.199 Y121.808 E24.37825
G1 X108.969 Y121.741 E24.38622
G1 X107.591 Y121.025 E24.43787
G1 X106.581 Y119.944 E24.48707
G1 X105.804 Y118.638 E24.53762
G1 X105.497 Y117.1 E24.58978
G1 X105.497 Y104.107 E25.02193
G1 X105.821 Y102.789 E25.06707
G1 X106.554 Y101.376 E25.12001
G0 F6000 X106.877 Y101.621
G1 F1200 X107.874 Y100.69 E25.16538
G1 X109.089 Y99.967 E25.21241
G1 X110.517 Y99.682 E25.26084
G1 X123.426 Y99.682 E25.6902
G1 X124.647 Y99.982 E25.73202
G1 X125.958 Y100.662 E25.78114
G1 X126.889 Y101.659 E25.82651
G1 X127.612 Y102.874 E25.87353
G1 X127.897 Y104.302 E25.92196
G1 X127.897 Y117.211 E26.35132
G1 X127.597 Y118.432 E26.39314
G1 X126.917 Y119.743 E26.44226
G1 X125.92 Y120.674 E26.48763
G1 X125.097 Y121.164 E26.51948
G1 X125.099 Y128.377 E26.75939
G1 X124.799 Y129.598 E26.80121
G1 X124.119 Y130.909 E26.85033
G1 X123.122 Y131.84 E26.8957
G1 X121.907 Y132.563 E26.94272
G1 X120.479 Y132.848 E26.99116
G1 X114.07 Y132.848 E27.20432
G1 X112.849 Y132.548 E27.24614
G1 X111.538 Y131.868 E27.29526
G1 X110.607 Y130.871 E27.34063
G1 X109.884 Y129.656 E27.38765
G1 X109.599 Y128.228 E27.43609
G1 X109.599 Y121.493 E27.66009
G1 X109.153 Y121.386 E27.67535
G1 X107.836 Y120.702 E27.72471
G1 X106.905 Y119.705 E27.77008
G1 X106.182 Y118.49 E27.8171
G1 X105.897 Y117.062 E27.86553
G1 X105.897 Y104.153 E28.29489
G1 X106.197 Y102.932 E28.33671
G1 X106.877 Y101.621 E28.38583
G0 F6000 X107.2 Y101.866
G1 F1200 X108.113 Y101.014 E28.42736
G1 X109.237 Y100.345 E28.47087
G1 X110.555 Y100.082 E28.51557
G1 X123.38 Y100.082 E28.94213
G1 X124.504 Y100.358 E28.98063
G1 X125.713 Y100.985 E29.02592
G1 X126.565 Y101.898 E29.06746
G1 X127.234 Y103.022 E29.11096
G1 X127.497 Y104.34 E29.15566
G1 X127.497 Y117.165 E29.58223
G1 X127.221 Y118.289 E29.62072
G1 X126.594 Y119.498 E29.66602
G1 X125.681 Y120.35 E29.70755
G1 X124.697 Y120.936 E29.74564
G1 X124.699 Y128.331 E29.9916
G1 X124.423 Y129.455 E30.0301
G1 X123.796 Y130.664 E30.0754
G1 X122.883 Y131.516 E30.11693
G1 X121.759 Y132.185 E30.16044
G1 X120.441 Y132.448 E30.20514
G1 X114.116 Y132.448 E30.41551
G1 X112.992 Y132.172 E30.454
G1 X111.783 Y131.545 E30.4993
G1 X110.931 Y130.632 E30.54083
G1 X110.262 Y129.508 E30.58434
G1 X109.999 Y128.19 E30.62904
G1 X109.999 Y121.178 E30.86226
G1 X109.293 Y121.008 E30.88641
G1 X108.081 Y120.379 E30.93183
G1 X107.229 Y119.466 E30.97337
G1 X106.56 Y118.342 E31.01687
G1 X106.297 Y117.024 E31.06157
G1 X106.297 Y104.199 E31.48813
G1 X106.573 Y103.075 E31.52663
G1 X107.2 Y101.866 E31.57193
G0 F6000 X107.522 Y102.113
G1 F1200 X106.95 Y103.217 E31.61328
G1 X106.697 Y104.246 E31.64852
G1 X106.697 Y116.986 E32.07226
G1 X106.938 Y118.194 E32.11323
G1 X107.551 Y119.224 E32.15309
G1 X108.328 Y120.057 E32.19098
G1 X109.433 Y120.63 E32.23238
G1 X110.399 Y120.863 E32.26543
G1 X110.399 Y128.152 E32.50787
G1 X110.64 Y129.36 E32.54884
G1 X111.253 Y130.39 E32.5887
G1 X112.03 Y131.223 E32.62659
G1 X113.134 Y131.795 E32.66794
G1 X114.163 Y132.048 E32.70319
G1 X120.403 Y132.048 E32.91073
G1 X121.611 Y131.807 E32.9517
G1 X122.641 Y131.194 E32.99157
G1 X123.474 Y130.417 E33.02946
G1 X124.046 Y129.313 E33.07081
G1 X124.299 Y128.284 E33.10605
G1 X124.297 Y120.667 E33.3594
G1 X124.459 Y120.612 E33.36509
G1 X125.439 Y120.028 E33.40303
G1 X126.272 Y119.251 E33.44092
G1 X126.844 Y118.147 E33.48227
G1 X127.097 Y117.118 E33.51752
G1 X127.097 Y104.378 E33.94125
G1 X126.856 Y103.17 E33.98222
G1 X126.243 Y102.14 E34.02209
G1 X125.466 Y101.307 E34.05998
G1 X124.362 Y100.735 E34.10133
G1 X123.333 Y100.482 E34.13657
G1 X110.593 Y100.482 E34.56031
G1 X109.385 Y100.723 E34.60128
G1 X108.355 Y101.336 E34.64114
G1 X107.522 Y102.113 E34.67903
G0 F6000 X107.844 Y102.36
G1 F1200 X107.326 Y103.36 E34.71649
G1 X107.097 Y104.292 E34.74841
G1 X107.097 Y116.948 E35.16935
G1 X107.316 Y118.046 E35.20659
G1 X107.873 Y118.982 E35.24282
G1 X108.575 Y119.735 E35.27706
G1 X109.575 Y120.253 E35.31451
G1 X110.458 Y120.47 E35.34476
G1 X110.799 Y120.482 E35.35611
G1 X110.799 Y128.114 E35.60995
G1 X111.018 Y129.212 E35.64719
G1 X111.575 Y130.148 E35.68341
G1 X112.277 Y130.901 E35.71765
G1 X113.277 Y131.419 E35.75511
G1 X114.209 Y131.648 E35.78703
G1 X120.365 Y131.648 E35.99178
G1 X121.463 Y131.429 E36.02902
G1 X122.399 Y130.872 E36.06525
G1 X123.152 Y130.17 E36.09949
G1 X123.67 Y129.17 E36.13694
G1 X123.899 Y128.238 E36.16886
G1 X123.897 Y120.337 E36.43165
G1 X124.254 Y120.268 E36.44375
G1 X125.197 Y119.706 E36.48026
G1 X125.95 Y119.004 E36.5145
G1 X126.468 Y118.004 E36.55196
G1 X126.697 Y117.072 E36.58388
G1 X126.697 Y104.416 E37.00482
G1 X126.478 Y103.318 E37.04206
G1 X125.921 Y102.382 E37.07828
G1 X125.219 Y101.629 E37.11252
G1 X124.219 Y101.111 E37.14998
G1 X123.287 Y100.882 E37.1819
G1 X110.631 Y100.882 E37.60284
G1 X109.533 Y101.101 E37.64008
G1 X108.597 Y101.658 E37.67631
G1 X107.844 Y102.36 E37.71055
G0 F6000 X108.166 Y102.607
G1 F1200 X108.839 Y101.98 E37.74114
G1 X109.681 Y101.479 E37.77373
G1 X110.669 Y101.282 E37.80724
G1 X123.241 Y101.282 E38.22538
G1 X124.076 Y101.487 E38.25398
G1 X124.972 Y101.951 E38.28754
G1 X125.599 Y102.624 E38.31813
G1 X126.1 Y103.466 E38.35072
G1 X126.297 Y104.454 E38.38423
G1 X126.297 Y117.026 E38.80237
G1 X126.092 Y117.861 E38.83097
G1 X125.628 Y118.757 E38.86453
G1 X124.955 Y119.384 E38.89512
G1 X124.109 Y119.888 E38.92788
G1 X123.497 Y120.007 E38.94861
G1 X123.499 Y128.192 E39.22085
G1 X123.294 Y129.027 E39.24944
G1 X122.83 Y129.923 E39.283
G1 X122.157 Y130.55 E39.3136
G1 X121.315 Y131.051 E39.34619
G1 X120.327 Y131.248 E39.37969
G1 X114.255 Y131.248 E39.58165
G1 X113.42 Y131.043 E39.61025
G1 X112.524 Y130.579 E39.64381
G1 X111.897 Y129.906 E39.6744
G1 X111.396 Y129.064 E39.70699
G1 X111.199 Y128.076 E39.74049
G1 X111.199 Y120.082 E40.00638
G1 X110.553 Y120.082 E40.02786
G1 X109.718 Y119.877 E40.05646
G1 X108.822 Y119.413 E40.09002
G1 X108.195 Y118.74 E40.12061
G1 X107.694 Y117.898 E40.1532
G1 X107.497 Y116.91 E40.18671
G1 X107.497 Y104.338 E40.60485
G1 X107.702 Y103.503 E40.63345
G1 X108.166 Y102.607 E40.66701
G0 F6000 X108.488 Y102.854
G1 F1200 X109.081 Y102.302 E40.69396
G1 X109.829 Y101.857 E40.7229
G1 X110.707 Y101.682 E40.75268
G1 X123.195 Y101.682 E41.16803
G1 X123.933 Y101.863 E41.19331
G1 X124.725 Y102.273 E41.22297
G1 X125.277 Y102.866 E41.24992
G1 X125.722 Y103.614 E41.27886
G1 X125.897 Y104.492 E41.30864
G1 X125.897 Y116.98 E41.72399
G1 X125.716 Y117.718 E41.74927
G1 X125.306 Y118.51 E41.77893
G1 X124.713 Y119.062 E41.80588
G1 X123.964 Y119.508 E41.83487
G1 X123.097 Y119.677 E41.86425
G1 X123.099 Y128.146 E42.14593
G1 X122.918 Y128.884 E42.1712
G1 X122.508 Y129.676 E42.20086
G1 X121.915 Y130.228 E42.22781
G1 X121.167 Y130.673 E42.25676
G1 X120.289 Y130.848 E42.28654
G1 X114.301 Y130.848 E42.4857
G1 X113.563 Y130.667 E42.51097
G1 X112.771 Y130.257 E42.54063
G1 X112.219 Y129.664 E42.56758
G1 X111.774 Y128.916 E42.59653
G1 X111.599 Y128.038 E42.6263
G1 X111.599 Y119.682 E42.90423
G1 X110.599 Y119.682 E42.93749
G1 X109.861 Y119.501 E42.96276
G1 X109.069 Y119.091 E42.99242
G1 X108.517 Y118.498 E43.01937
G1 X108.072 Y117.75 E43.04832
G1 X107.897 Y116.872 E43.07809
G1 X107.897 Y104.384 E43.49345
G1 X108.078 Y103.646 E43.51872
G1 X108.488 Y102.854 E43.54838
G0 F6000 X108.811 Y103.099
G1 F1200 X109.32 Y102.626 E43.57149
G1 X109.977 Y102.235 E43.59692
G1 X110.745 Y102.082 E43.62297
G1 X123.145 Y102.082 E44.03539
G1 X123.794 Y102.241 E44.05762
G1 X124.48 Y102.596 E44.08331
G1 X124.953 Y103.105 E44.10642
G1 X125.344 Y103.762 E44.13185
G1 X125.497 Y104.53 E44.15789
G1 X125.497 Y116.93 E44.57032
G1 X125.338 Y117.579 E44.59254
G1 X124.983 Y118.265 E44.61823
G1 X124.474 Y118.738 E44.64134
G1 X123.817 Y119.129 E44.66677
G1 X123.049 Y119.282 E44.69282
G1 X122.617 Y119.282 E44.70719
G1 X122.699 Y119.696 E44.72122
G1 X122.699 Y128.096 E45.00061
G1 X122.54 Y128.745 E45.02283
G1 X122.185 Y129.431 E45.04852
G1 X121.676 Y129.904 E45.07163
G1 X121.019 Y130.295 E45.09706
G1 X120.251 Y130.448 E45.12311
G1 X114.351 Y130.448 E45.31934
G1 X113.702 Y130.289 E45.34157
G1 X113.016 Y129.934 E45.36726
G1 X112.543 Y129.425 E45.39037
G1 X112.152 Y128.768 E45.4158
G1 X111.999 Y128 E45.44184
