;FLAVOR:Marlin
;TIME:5250
;Filament used: 4.33764m
;Layer height: 0.28
;MINX:89.219
;MINY:9.684
;MINZ:0.28
;MAXX:141.819
;MAXY:219.284
;MAXZ:5.88
;Generated with Cura_SteamEngine 5.3.1
M140 S60
M105
M190 S60
M104 S195
M105
M109 S195
M82 ;absolute extrusion mode
; Ender 3 Custom Start G-code
G92 E0 ; Reset Extruder
G28 ; Home all axes
G1 Z2.0 F3000 ; Move Z Axis up little to prevent scratching of Heat Bed
G1 X0.1 Y20 Z0.3 F5000.0 ; Move to start position
G1 X0.1 Y200.0 Z0.3 F1500.0 E15 ; Draw the first line
G1 X0.4 Y200.0 Z0.3 F5000.0 ; Move to side a little
G1 X0.4 Y20 Z0.3 F1500.0 E30 ; Draw the second line
G92 E0 ; Reset Extruder
G1 Z2.0 F3000 ; Move Z Axis up little to prevent scratching of Heat Bed
G1 X5 Y20 Z0.3 F5000.0 ; Move over to prevent blob squish
G92 E0
G92 E0
G1 F2700 E-5
;LAYER_COUNT:21
;LAYER:0
M107
G0 F6000 X89.219 Y16.631 Z0.28
;TYPE:SKIRT
G1 F2700 E0
G1 F1200 X89.685 Y14.735 E0.09091
G1 X90.738 Y12.708 E0.19727
G1 X92.313 Y11.234 E0.29772
G1 X94.185 Y10.122 E0.39911
G1 X96.372 Y9.684 E0.50297
G1 X134.872 Y9.684 E2.29569
G1 X136.768 Y10.15 E2.3866
G1 X138.795 Y11.203 E2.49296
G1 X140.269 Y12.778 E2.59341
G1 X141.381 Y14.65 E2.6948
G1 X141.819 Y16.837 E2.79865
G1 X141.819 Y212.337 E11.90195
G1 X141.353 Y214.233 E11.99287
G1 X140.3 Y216.26 E12.09923
G1 X138.725 Y217.734 E12.19967
G1 X136.853 Y218.846 E12.30106
G1 X134.666 Y219.284 E12.40492
G1 X96.166 Y219.284 E14.19764
G1 X94.27 Y218.818 E14.28855
G1 X92.243 Y217.765 E14.39492
G1 X90.769 Y216.19 E14.49536
G1 X89.657 Y214.318 E14.59675
G1 X89.219 Y212.131 E14.70061
G1 X89.219 Y16.631 E23.80391
G0 F6000 X89.619 Y16.677
G1 F1200 X90.061 Y14.878 E23.89017
G1 X91.061 Y12.953 E23.99117
G1 X92.554 Y11.556 E24.08638
G1 X94.331 Y10.5 E24.18264
G1 X96.41 Y10.084 E24.28136
G1 X134.826 Y10.084 E26.07017
G1 X136.625 Y10.526 E26.15643
G1 X138.55 Y11.526 E26.25744
G1 X139.947 Y13.019 E26.35265
G1 X141.003 Y14.796 E26.4489
G1 X141.419 Y16.875 E26.54763
G1 X141.419 Y212.291 E35.64701
G1 X140.977 Y214.09 E35.73328
G1 X139.977 Y216.015 E35.83428
G1 X138.484 Y217.412 E35.92949
G1 X136.707 Y218.468 E36.02574
G1 X134.628 Y218.884 E36.12447
G1 X96.212 Y218.884 E37.91328
G1 X94.413 Y218.442 E37.99954
G1 X92.488 Y217.442 E38.10055
G1 X91.091 Y215.949 E38.19576
G1 X90.035 Y214.172 E38.29201
G1 X89.619 Y212.093 E38.39074
G1 X89.619 Y16.677 E47.49012
G0 F6000 X90.019 Y16.724
G1 F1200 X90.438 Y15.02 E47.57183
G1 X91.384 Y13.198 E47.66743
G1 X92.795 Y11.878 E47.7574
G1 X94.477 Y10.879 E47.84849
G1 X96.449 Y10.484 E47.94214
G1 X134.779 Y10.484 E49.72695
G1 X136.483 Y10.903 E49.80865
G1 X138.305 Y11.849 E49.90425
G1 X139.625 Y13.26 E49.99422
G1 X140.624 Y14.942 E50.08531
G1 X141.019 Y16.914 E50.17896
G1 X141.019 Y212.244 E59.27434
G1 X140.6 Y213.948 E59.35605
G1 X139.654 Y215.77 E59.45165
G1 X138.243 Y217.09 E59.54162
G1 X136.561 Y218.089 E59.63271
G1 X134.589 Y218.484 E59.72636
G1 X96.259 Y218.484 E61.51116
G1 X94.555 Y218.065 E61.59287
G1 X92.733 Y217.119 E61.68847
G1 X91.413 Y215.708 E61.77844
G1 X90.414 Y214.026 E61.86953
G1 X90.019 Y212.054 E61.96318
G1 X90.019 Y16.724 E71.05856
G0 F6000 X90.419 Y16.77
G1 F1200 X90.814 Y15.163 E71.13562
G1 X91.707 Y13.443 E71.22586
G1 X93.036 Y12.2 E71.31059
G1 X94.623 Y11.257 E71.39655
G1 X96.487 Y10.884 E71.48507
G1 X134.733 Y10.884 E73.26596
G1 X136.34 Y11.279 E73.34302
G1 X138.06 Y12.172 E73.43326
G1 X139.303 Y13.501 E73.51799
G1 X140.246 Y15.088 E73.60395
G1 X140.619 Y16.952 E73.69247
G1 X140.619 Y212.198 E82.78394
G1 X140.224 Y213.805 E82.86099
G1 X139.331 Y215.525 E82.95124
G1 X138.002 Y216.768 E83.03597
G1 X136.415 Y217.711 E83.12193
G1 X134.551 Y218.084 E83.21044
G1 X96.305 Y218.084 E84.99134
G1 X94.698 Y217.689 E85.06839
G1 X92.978 Y216.796 E85.15864
G1 X91.735 Y215.467 E85.24337
G1 X90.792 Y213.88 E85.32933
G1 X90.419 Y212.016 E85.41784
G1 X90.419 Y16.77 E94.50932
G0 F6000 X90.819 Y16.816
G1 F1200 X91.19 Y15.306 E94.58172
G1 X92.03 Y13.688 E94.66661
G1 X93.277 Y12.522 E94.7461
G1 X94.769 Y11.635 E94.82693
G1 X96.525 Y11.284 E94.91031
G1 X134.687 Y11.284 E96.68729
G1 X136.197 Y11.655 E96.7597
G1 X137.815 Y12.495 E96.84458
G1 X138.981 Y13.742 E96.92408
G1 X139.868 Y15.234 E97.0049
G1 X140.219 Y16.99 E97.08829
G1 X140.219 Y212.152 E106.17585
G1 X139.848 Y213.662 E106.24825
G1 X139.008 Y215.28 E106.33314
G1 X137.761 Y216.446 E106.41263
G1 X136.269 Y217.333 E106.49346
G1 X134.513 Y217.684 E106.57684
G1 X96.351 Y217.684 E108.35383
G1 X94.841 Y217.313 E108.42623
G1 X93.223 Y216.473 E108.51112
G1 X92.057 Y215.226 E108.59061
G1 X91.17 Y213.734 E108.67144
G1 X90.819 Y211.978 E108.75482
G1 X90.819 Y16.816 E117.84238
G0 F6000 X91.219 Y16.863
G1 F1200 X91.567 Y15.448 E117.91023
G1 X92.353 Y13.933 E117.98971
G1 X93.518 Y12.844 E118.06396
G1 X94.915 Y12.013 E118.13965
G1 X96.563 Y11.684 E118.2179
G1 X134.64 Y11.684 E119.99093
G1 X136.055 Y12.032 E120.05878
G1 X137.57 Y12.818 E120.13825
G1 X138.659 Y13.983 E120.21251
G1 X139.49 Y15.38 E120.2882
G1 X139.819 Y17.028 E120.36645
G1 X139.819 Y212.105 E129.45005
G1 X139.471 Y213.52 E129.51791
G1 X138.685 Y215.035 E129.59738
G1 X137.52 Y216.124 E129.67164
G1 X136.123 Y216.955 E129.74733
G1 X134.475 Y217.284 E129.82558
G1 X96.398 Y217.284 E131.5986
G1 X94.983 Y216.936 E131.66645
G1 X93.468 Y216.15 E131.74593
G1 X92.379 Y214.985 E131.82019
G1 X91.548 Y213.588 E131.89587
G1 X91.219 Y211.94 E131.97413
G1 X91.219 Y16.863 E141.05773
G0 F6000 X91.619 Y16.909
G1 F1200 X91.943 Y15.591 E141.12093
G1 X92.676 Y14.178 E141.19505
G1 X93.757 Y13.168 E141.26394
G1 X95.063 Y12.391 E141.3347
G1 X96.601 Y12.084 E141.40773
G1 X134.594 Y12.084 E143.17684
G1 X135.912 Y12.408 E143.24004
G1 X137.325 Y13.141 E143.31416
G1 X138.335 Y14.222 E143.38305
G1 X139.112 Y15.528 E143.45381
G1 X139.419 Y17.066 E143.52684
G1 X139.419 Y212.059 E152.60653
G1 X139.095 Y213.377 E152.66973
G1 X138.362 Y214.79 E152.74385
G1 X137.281 Y215.8 E152.81274
G1 X135.975 Y216.577 E152.8835
G1 X134.437 Y216.884 E152.95653
G1 X96.444 Y216.884 E154.72564
G1 X95.126 Y216.56 E154.78884
G1 X93.713 Y215.827 E154.86296
G1 X92.703 Y214.746 E154.93185
G1 X91.926 Y213.44 E155.00261
G1 X91.619 Y211.902 E155.07564
G1 X91.619 Y16.909 E164.15533
G0 F6000 X92.019 Y16.955
G1 F1200 X92.319 Y15.734 E164.21387
G1 X92.999 Y14.423 E164.28264
G1 X93.996 Y13.492 E164.34616
G1 X95.211 Y12.769 E164.412
G1 X96.639 Y12.484 E164.4798
G1 X134.548 Y12.484 E166.245
G1 X135.769 Y12.784 E166.30355
G1 X137.08 Y13.464 E166.37232
G1 X138.011 Y14.461 E166.43584
G1 X138.734 Y15.676 E166.50167
G1 X139.019 Y17.104 E166.56948
G1 X139.019 Y212.013 E175.64525
G1 X138.719 Y213.234 E175.7038
G1 X138.039 Y214.545 E175.77257
G1 X137.042 Y215.476 E175.83609
G1 X135.827 Y216.199 E175.90192
G1 X134.399 Y216.484 E175.96973
G1 X96.49 Y216.484 E177.73493
G1 X95.269 Y216.184 E177.79347
G1 X93.958 Y215.504 E177.86224
G1 X93.027 Y214.507 E177.92576
G1 X92.304 Y213.292 E177.9916
G1 X92.019 Y211.864 E178.0594
G1 X92.019 Y16.955 E187.13518
G0 F6000 X92.419 Y17.001
G1 F1200 X92.695 Y15.877 E187.18907
G1 X93.322 Y14.668 E187.25249
G1 X94.235 Y13.816 E187.31064
G1 X95.359 Y13.147 E187.37155
G1 X96.677 Y12.884 E187.43413
G1 X134.502 Y12.884 E189.19542
G1 X135.626 Y13.16 E189.24931
G1 X136.835 Y13.787 E189.31273
G1 X137.687 Y14.7 E189.37088
G1 X138.356 Y15.824 E189.43178
G1 X138.619 Y17.142 E189.49437
G1 X138.619 Y211.967 E198.56623
G1 X138.343 Y213.091 E198.62013
G1 X137.716 Y214.3 E198.68354
G1 X136.803 Y215.152 E198.74169
G1 X135.679 Y215.821 E198.8026
G1 X134.361 Y216.084 E198.86518
G1 X96.536 Y216.084 E200.62647
G1 X95.412 Y215.808 E200.68036
G1 X94.203 Y215.181 E200.74378
G1 X93.351 Y214.268 E200.80193
G1 X92.682 Y213.144 E200.86284
G1 X92.419 Y211.826 E200.92542
G1 X92.419 Y17.001 E209.99729
G0 F6000 X92.819 Y17.048
G1 F1200 X93.072 Y16.019 E210.04663
G1 X93.644 Y14.915 E210.10452
G1 X94.477 Y14.138 E210.15757
G1 X95.507 Y13.525 E210.21338
G1 X96.715 Y13.284 E210.27074
G1 X134.455 Y13.284 E212.02807
G1 X135.484 Y13.537 E212.07741
G1 X136.588 Y14.109 E212.13531
G1 X137.365 Y14.942 E212.18835
G1 X137.978 Y15.972 E212.24416
G1 X138.219 Y17.18 E212.30152
G1 X138.219 Y211.92 E221.36943
G1 X137.966 Y212.949 E221.41877
G1 X137.394 Y214.053 E221.47667
G1 X136.561 Y214.83 E221.52971
G1 X135.531 Y215.443 E221.58553
G1 X134.323 Y215.684 E221.64288
G1 X96.583 Y215.684 E223.40022
G1 X95.554 Y215.431 E223.44956
G1 X94.45 Y214.859 E223.50746
G1 X93.673 Y214.026 E223.5605
G1 X93.06 Y212.996 E223.61631
G1 X92.819 Y211.788 E223.67367
G1 X92.819 Y17.048 E232.74158
G0 F6000 X93.219 Y17.094
G1 F1200 X93.448 Y16.162 E232.78627
G1 X93.966 Y15.162 E232.83871
G1 X94.719 Y14.46 E232.88664
G1 X95.655 Y13.903 E232.93736
G1 X96.753 Y13.684 E232.9895
G1 X134.409 Y13.684 E234.74292
G1 X135.341 Y13.913 E234.78761
G1 X136.341 Y14.431 E234.84005
G1 X137.043 Y15.184 E234.88798
G1 X137.6 Y16.12 E234.9387
G1 X137.819 Y17.218 E234.99083
G1 X137.819 Y211.874 E244.05483
G1 X137.59 Y212.806 E244.09952
G1 X137.072 Y213.806 E244.15196
G1 X136.319 Y214.508 E244.1999
G1 X135.383 Y215.065 E244.25062
G1 X134.285 Y215.284 E244.30275
G1 X96.629 Y215.284 E246.05617
G1 X95.697 Y215.055 E246.10086
G1 X94.697 Y214.537 E246.1533
G1 X93.995 Y213.784 E246.20124
G1 X93.438 Y212.848 E246.25196
G1 X93.219 Y211.75 E246.30409
G1 X93.219 Y17.094 E255.36809
G0 F6000 X93.619 Y17.14
G1 F1200 X93.824 Y16.305 E255.40812
G1 X94.288 Y15.409 E255.45511
G1 X94.961 Y14.782 E255.49794
G1 X95.803 Y14.281 E255.54356
G1 X96.791 Y14.084 E255.59047
G1 X134.363 Y14.084 E257.33998
G1 X135.198 Y14.289 E257.38002
G1 X136.094 Y14.753 E257.427
G1 X136.721 Y15.426 E257.46983
G1 X137.222 Y16.268 E257.51546
G1 X137.419 Y17.256 E257.56237
G1 X137.419 Y211.828 E266.62245
G1 X137.214 Y212.663 E266.66249
G1 X136.75 Y213.559 E266.70947
G1 X136.077 Y214.186 E266.7523
G1 X135.235 Y214.687 E266.79793
G1 X134.247 Y214.884 E266.84484
G1 X96.675 Y214.884 E268.59435
G1 X95.84 Y214.679 E268.63438
G1 X94.944 Y214.215 E268.68137
G1 X94.317 Y213.542 E268.7242
G1 X93.816 Y212.7 E268.76982
G1 X93.619 Y211.712 E268.81673
G1 X93.619 Y17.14 E277.87682
G0 F6000 X94.019 Y17.186
G1 F1200 X94.2 Y16.448 E277.9122
G1 X94.61 Y15.656 E277.95373
G1 X95.203 Y15.104 E277.99145
G1 X95.951 Y14.659 E278.03198
G1 X96.829 Y14.484 E278.07367
G1 X134.317 Y14.484 E279.81927
G1 X135.055 Y14.665 E279.85465
G1 X135.847 Y15.075 E279.89618
G1 X136.399 Y15.668 E279.9339
G1 X136.844 Y16.416 E279.97443
G1 X137.019 Y17.294 E280.01612
G1 X137.019 Y211.782 E289.07229
G1 X136.838 Y212.52 E289.10767
G1 X136.428 Y213.312 E289.1492
G1 X135.835 Y213.864 E289.18693
G1 X135.087 Y214.309 E289.22745
G1 X134.209 Y214.484 E289.26914
G1 X96.721 Y214.484 E291.01474
G1 X95.983 Y214.303 E291.05012
G1 X95.191 Y213.893 E291.09165
G1 X94.639 Y213.3 E291.12937
G1 X94.194 Y212.552 E291.1699
G1 X94.019 Y211.674 E291.21159
G1 X94.019 Y17.186 E300.26777
G0 F6000 X94.419 Y17.236
G1 F1200 X94.578 Y16.587 E300.29888
G1 X94.933 Y15.901 E300.33485
G1 X95.442 Y15.428 E300.3672
G1 X96.099 Y15.037 E300.4028
G1 X96.867 Y14.884 E300.43927
G1 X134.267 Y14.884 E302.18077
G1 X134.916 Y15.043 E302.21188
G1 X135.602 Y15.398 E302.24785
G1 X136.075 Y15.907 E302.2802
G1 X136.466 Y16.564 E302.3158
G1 X136.619 Y17.332 E302.35227
G1 X136.619 Y211.732 E311.40434
G1 X136.46 Y212.381 E311.43546
G1 X136.105 Y213.067 E311.47143
G1 X135.596 Y213.54 E311.50378
G1 X134.939 Y213.931 E311.53938
G1 X134.171 Y214.084 E311.57584
G1 X96.771 Y214.084 E313.31735
G1 X96.122 Y213.925 E313.34846
G1 X95.436 Y213.57 E313.38443
G1 X94.963 Y213.061 E313.41678
G1 X94.572 Y212.404 E313.45238
G1 X94.419 Y211.636 E313.48885
G1 X94.419 Y17.236 E322.54092
G0 F6000 X94.819 Y17.286
G1 F1200 X94.956 Y16.726 E322.56777
G1 X95.256 Y16.146 E322.59817
G1 X95.681 Y15.752 E322.62516
G1 X96.247 Y15.415 E322.65583
G1 X96.905 Y15.284 E322.68707
G1 X134.217 Y15.284 E324.42448
G1 X134.777 Y15.421 E324.45132
G1 X135.357 Y15.721 E324.48173
G1 X135.751 Y16.146 E324.50871
G1 X136.088 Y16.712 E324.53939
G1 X136.219 Y17.37 E324.57063
G1 X136.219 Y211.682 E333.61861
G1 X136.082 Y212.242 E333.64545
G1 X135.782 Y212.822 E333.67586
G1 X135.357 Y213.216 E333.70284
G1 X134.791 Y213.553 E333.73352
G1 X134.133 Y213.684 E333.76476
G1 X96.821 Y213.684 E335.50216
G1 X96.261 Y213.547 E335.52901
G1 X95.681 Y213.247 E335.55941
G1 X95.287 Y212.822 E335.5864
G1 X94.95 Y212.256 E335.61707
G1 X94.819 Y211.598 E335.64831
G1 X94.819 Y17.286 E344.69629
G0 F6000 X95.219 Y17.336
G1 F1200 X95.334 Y16.865 E344.71887
G1 X95.579 Y16.392 E344.74367
G1 X95.92 Y16.076 E344.76532
G1 X96.395 Y15.793 E344.79107
G1 X96.943 Y15.684 E344.81708
G1 X134.167 Y15.684 E346.55039
G1 X134.638 Y15.799 E346.57297
G1 X135.111 Y16.044 E346.59777
G1 X135.427 Y16.385 E346.61942
G1 X135.71 Y16.86 E346.64516
G1 X135.819 Y17.408 E346.67118
G1 X135.819 Y211.632 E355.71506
G1 X135.704 Y212.103 E355.73764
G1 X135.459 Y212.576 E355.76244
G1 X135.118 Y212.892 E355.78409
G1 X134.643 Y213.175 E355.80984
G1 X134.095 Y213.284 E355.83585
G1 X96.871 Y213.284 E357.56916
G1 X96.4 Y213.169 E357.59174
G1 X95.927 Y212.924 E357.61654
G1 X95.611 Y212.583 E357.63819
G1 X95.328 Y212.108 E357.66393
G1 X95.219 Y211.56 E357.68995
G1 X95.219 Y17.336 E366.73383
G0 F6000 X95.619 Y17.386
G1 F1200 X95.712 Y17.004 E366.75214
G1 X95.902 Y16.638 E366.77134
G1 X96.159 Y16.4 E366.78765
G1 X96.543 Y16.171 E366.80847
G1 X96.981 Y16.084 E366.82927
G1 X134.117 Y16.084 E368.55847
G1 X134.499 Y16.177 E368.57678
G1 X134.865 Y16.367 E368.59598
G1 X135.103 Y16.624 E368.61229
G1 X135.332 Y17.008 E368.63311
G1 X135.419 Y17.446 E368.65391
G1 X135.419 Y211.582 E377.69369
G1 X135.326 Y211.964 E377.712
G1 X135.136 Y212.33 E377.7312
G1 X134.879 Y212.568 E377.74751
G1 X134.495 Y212.797 E377.76833
G1 X134.057 Y212.884 E377.78912
G1 X96.921 Y212.884 E379.51833
G1 X96.539 Y212.791 E379.53664
G1 X96.173 Y212.601 E379.55584
G1 X95.935 Y212.344 E379.57215
G1 X95.706 Y211.96 E379.59297
G1 X95.619 Y211.522 E379.61376
G1 X95.619 Y17.386 E388.65355
G0 F6000 X96.019 Y17.435
G1 F1200 X96.089 Y17.146 E388.66739
G1 X96.226 Y16.883 E388.6812
G1 X96.364 Y16.744 E388.69032
G1 X96.691 Y16.549 E388.70805
G1 X97.019 Y16.484 E388.72362
G1 X134.068 Y16.484 E390.44878
G1 X134.357 Y16.554 E390.46262
G1 X134.62 Y16.691 E390.47643
G1 X134.759 Y16.829 E390.48555
G1 X134.954 Y17.156 E390.50328
G1 X135.019 Y17.484 E390.51885
G1 X135.019 Y211.533 E399.55458
G1 X134.949 Y211.822 E399.56843
G1 X134.812 Y212.085 E399.58224
G1 X134.674 Y212.224 E399.59136
G1 X134.347 Y212.419 E399.60909
G1 X134.019 Y212.484 E399.62466
G1 X96.97 Y212.484 E401.34981
G1 X96.681 Y212.414 E401.36366
G1 X96.418 Y212.277 E401.37747
G1 X96.279 Y212.139 E401.38659
G1 X96.084 Y211.812 E401.40432
G1 X96.019 Y211.484 E401.41989
G1 X96.019 Y17.435 E410.45562
G0 F6000 X96.419 Y17.484
G1 F1200 X96.478 Y17.24 E410.46731
G1 X96.569 Y17.088 E410.47556
G1 X96.839 Y16.927 E410.4902
G1 X97.019 Y16.884 E410.49882
G1 X134.019 Y16.884 E412.22169
G1 X134.263 Y16.943 E412.23338
G1 X134.415 Y17.034 E412.24163
G1 X134.576 Y17.304 E412.25627
G1 X134.619 Y17.484 E412.26488
G1 X134.619 Y211.484 E421.29834
G1 X134.56 Y211.728 E421.31003
G1 X134.469 Y211.88 E421.31828
G1 X134.199 Y212.041 E421.33291
G1 X134.019 Y212.084 E421.34153
G1 X97.019 Y212.084 E423.06441
G1 X96.775 Y212.025 E423.0761
G1 X96.623 Y211.934 E423.08434
G1 X96.462 Y211.664 E423.09898
G1 X96.419 Y211.484 E423.1076
G1 X96.419 Y17.484 E432.14105
G0 F6000 X96.819 Y17.484
G1 F1200 X96.858 Y17.365 E432.14688
G1 X97.019 Y17.284 E432.15528
G1 X134.019 Y17.284 E433.87815
G1 X134.138 Y17.323 E433.88398
G1 X134.219 Y17.484 E433.89237
G1 X134.219 Y211.484 E442.92583
G1 X134.18 Y211.603 E442.93166
G1 X134.019 Y211.684 E442.94005
G1 X97.019 Y211.684 E444.66292
G1 X96.9 Y211.645 E444.66876
G1 X96.819 Y211.484 E444.67715
G1 X96.819 Y17.484 E453.7106
G1 F2700 E448.7106
;MESH:megav1-Back.stl
G0 F6000 X116.73 Y34.397
G0 X120.629 Y38.573
;TYPE:WALL-INNER
G1 F2700 E453.7106
G1 F1200 X120.031 Y38.469 E453.73886
G1 X119.427 Y38.27 E453.76848
G1 X118.875 Y37.986 E453.79738
G1 X118.478 Y37.701 E453.82014
G1 X118.165 Y37.429 E453.83945
G1 X117.897 Y37.141 E453.85777
G1 X117.578 Y36.73 E453.88199
G1 X117.28 Y36.183 E453.911
G1 X117.114 Y35.734 E453.93329
