;FLAVOR:Marlin
;TIME:6595
;Filament used: 6.57761m
;Layer height: 0.28
;MINX:16.581
;MINY:17.209
;MINZ:0.28
;MAXX:207.828
;MAXY:208.456
;MAXZ:5.04
;POSTPROCESSED
;Generated with Cura_SteamEngine 5.3.1
M140 S50
M105
M190 S50
M104 S200
M105
M109 S200
M82 ;absolute extrusion mode
; Ender 3 Custom Start G-code
G92 E0 ; Reset Extruder
G28 ; Home all axes
G1 Z2.0 F3000 ; Move Z Axis up little to prevent scratching of Heat Bed
G1 X0.1 Y20 Z0.3 F5000.0 ; Move to start position
G1 X0.1 Y200.0 Z0.3 F1500.0 E15 ; Draw the first line
G1 X0.4 Y200.0 Z0.3 F5000.0 ; Move to side a little
G1 X0.4 Y20 Z0.3 F1500.0 E30 ; Draw the second line
G92 E0 ; Reset Extruder
G1 Z2.0 F3000 ; Move Z Axis up little to prevent scratching of Heat Bed
G1 X5 Y20 Z0.3 F5000.0 ; Move over to prevent blob squish
G92 E0
G92 E0
G1 F2700 E-5
;LAYER_COUNT:18
;LAYER:0
M107
G0 F6000 X61.04 Y18.612 Z0.28
;TYPE:SKIRT
G1 F2700 E0
G1 F1200 X62.319 Y17.763 E0.07148
G1 X64.057 Y17.209 E0.15642
G1 X65.629 Y17.278 E0.22969
G1 X67.227 Y17.683 E0.30645
G1 X68.603 Y18.599 E0.38343
G1 X206.425 Y156.421 E9.45924
G1 X207.274 Y157.7 E9.53072
G1 X207.828 Y159.438 E9.61566
G1 X207.759 Y161.01 E9.68893
G1 X207.354 Y162.608 E9.76569
G1 X206.438 Y163.984 E9.84266
G1 X163.369 Y207.053 E12.67883
G1 X162.09 Y207.902 E12.75031
G1 X160.352 Y208.456 E12.83525
G1 X158.78 Y208.387 E12.90852
G1 X157.182 Y207.982 E12.98529
G1 X155.806 Y207.066 E13.06226
G1 X17.984 Y69.245 E22.13804
G1 X17.135 Y67.966 E22.20952
G1 X16.581 Y66.228 E22.29446
G1 X16.65 Y64.656 E22.36773
G1 X17.055 Y63.058 E22.44449
G1 X17.971 Y61.682 E22.52146
G1 X61.04 Y18.612 E25.35766
G0 F6000 X61.297 Y18.921
G1 F1200 X62.493 Y18.127 E25.42451
G1 X64.109 Y17.612 E25.50349
G1 X65.571 Y17.676 E25.57163
G1 X67.062 Y18.054 E25.64325
G1 X68.348 Y18.91 E25.71519
G1 X206.116 Y156.678 E34.78744
G1 X206.91 Y157.874 E34.85429
G1 X207.425 Y159.49 E34.93327
G1 X207.361 Y160.952 E35.00141
G1 X206.983 Y162.443 E35.07303
G1 X206.127 Y163.729 E35.14497
G1 X163.112 Y206.744 E37.97758
G1 X161.916 Y207.538 E38.04442
G1 X160.3 Y208.053 E38.1234
G1 X158.838 Y207.989 E38.19154
G1 X157.347 Y207.611 E38.26317
G1 X156.061 Y206.755 E38.3351
G1 X18.293 Y68.988 E47.40733
G1 X17.499 Y67.792 E47.47417
G1 X16.984 Y66.176 E47.55315
G1 X17.048 Y64.714 E47.62129
G1 X17.426 Y63.223 E47.69291
G1 X18.282 Y61.937 E47.76485
G1 X61.297 Y18.921 E50.59749
G0 F6000 X61.554 Y19.23
G1 F1200 X62.666 Y18.492 E50.65964
G1 X64.162 Y18.015 E50.73275
G1 X65.513 Y18.074 E50.79572
G1 X66.897 Y18.425 E50.86221
G1 X68.093 Y19.221 E50.9291
G1 X205.807 Y156.935 E59.99781
G1 X206.545 Y158.047 E60.05995
G1 X207.022 Y159.543 E60.13307
G1 X206.963 Y160.894 E60.19603
G1 X206.612 Y162.278 E60.26252
G1 X205.816 Y163.474 E60.32942
G1 X162.855 Y206.435 E63.15847
G1 X161.743 Y207.173 E63.22062
G1 X160.247 Y207.65 E63.29373
G1 X158.896 Y207.591 E63.3567
G1 X157.512 Y207.24 E63.42319
G1 X156.316 Y206.444 E63.49008
G1 X18.602 Y68.731 E72.55875
G1 X17.864 Y67.619 E72.6209
G1 X17.387 Y66.123 E72.69401
G1 X17.446 Y64.772 E72.75698
G1 X17.797 Y63.388 E72.82347
G1 X18.593 Y62.192 E72.89036
G1 X61.554 Y19.23 E75.71945
G0 F6000 X61.811 Y19.539
G1 F1200 X62.84 Y18.856 E75.77696
G1 X64.214 Y18.418 E75.84411
G1 X65.455 Y18.472 E75.90195
G1 X66.732 Y18.796 E75.9633
G1 X67.838 Y19.532 E76.02516
G1 X205.498 Y157.192 E85.09031
G1 X206.181 Y158.221 E85.14781
G1 X206.619 Y159.595 E85.21497
G1 X206.565 Y160.836 E85.27281
G1 X206.241 Y162.113 E85.33415
G1 X205.505 Y163.219 E85.39601
G1 X162.598 Y206.126 E88.22151
G1 X161.569 Y206.809 E88.27902
G1 X160.195 Y207.247 E88.34617
G1 X158.954 Y207.193 E88.40401
G1 X157.677 Y206.869 E88.46536
G1 X156.571 Y206.133 E88.52722
G1 X18.911 Y68.474 E97.59234
G1 X18.228 Y67.445 E97.64984
G1 X17.79 Y66.071 E97.717
G1 X17.844 Y64.83 E97.77484
G1 X18.168 Y63.553 E97.83618
G1 X18.904 Y62.447 E97.89804
G1 X61.811 Y19.539 E100.72358
G0 F6000 X62.068 Y19.848
G1 F1200 X63.014 Y19.22 E100.77645
G1 X64.266 Y18.821 E100.83764
G1 X65.397 Y18.87 E100.89035
G1 X66.567 Y19.167 E100.94656
G1 X67.583 Y19.843 E101.00338
G1 X205.189 Y157.449 E110.06497
G1 X205.817 Y158.395 E110.11784
G1 X206.216 Y159.647 E110.17903
G1 X206.167 Y160.778 E110.23174
G1 X205.87 Y161.948 E110.28795
G1 X205.194 Y162.964 E110.34478
G1 X162.341 Y205.817 E113.16672
G1 X161.395 Y206.445 E113.21959
G1 X160.143 Y206.844 E113.28078
G1 X159.012 Y206.795 E113.33349
G1 X157.842 Y206.498 E113.3897
G1 X156.826 Y205.822 E113.44652
G1 X19.22 Y68.217 E122.50808
G1 X18.592 Y67.271 E122.56095
G1 X18.193 Y66.019 E122.62214
G1 X18.242 Y64.888 E122.67486
G1 X18.539 Y63.718 E122.73106
G1 X19.215 Y62.702 E122.78789
G1 X62.068 Y19.848 E125.60986
G0 F6000 X62.325 Y20.157
G1 F1200 X63.187 Y19.585 E125.65804
G1 X64.319 Y19.224 E125.71336
G1 X65.339 Y19.268 E125.7609
G1 X66.402 Y19.538 E125.81197
G1 X67.328 Y20.154 E125.86376
G1 X204.88 Y157.706 E134.92179
G1 X205.452 Y158.568 E134.96996
G1 X205.813 Y159.7 E135.02529
G1 X205.769 Y160.72 E135.07283
G1 X205.499 Y161.783 E135.1239
G1 X204.883 Y162.709 E135.17569
G1 X162.084 Y205.508 E137.99407
G1 X161.222 Y206.08 E138.04224
G1 X160.09 Y206.441 E138.09757
G1 X159.07 Y206.397 E138.14511
G1 X158.007 Y206.127 E138.19618
G1 X157.081 Y205.511 E138.24797
G1 X19.529 Y67.96 E147.30597
G1 X18.957 Y67.098 E147.35414
G1 X18.596 Y65.966 E147.40947
G1 X18.64 Y64.946 E147.45701
G1 X18.91 Y63.883 E147.50808
G1 X19.526 Y62.957 E147.55986
G1 X62.325 Y20.157 E150.37828
G0 F6000 X62.582 Y20.466
G1 F1200 X63.361 Y19.949 E150.42182
G1 X64.371 Y19.627 E150.47118
G1 X65.28 Y19.666 E150.51355
G1 X66.239 Y19.91 E150.55962
G1 X67.071 Y20.463 E150.60614
G1 X204.571 Y157.963 E159.66075
G1 X205.088 Y158.742 E159.70429
G1 X205.41 Y159.752 E159.75365
G1 X205.371 Y160.661 E159.79602
G1 X205.127 Y161.62 E159.84209
G1 X204.574 Y162.452 E159.88861
G1 X161.827 Y205.199 E162.70357
G1 X161.048 Y205.716 E162.74711
G1 X160.038 Y206.038 E162.79647
G1 X159.129 Y205.999 E162.83884
G1 X158.17 Y205.755 E162.88491
G1 X157.338 Y205.202 E162.93143
G1 X19.838 Y67.703 E171.98601
G1 X19.321 Y66.924 E172.02955
G1 X18.999 Y65.914 E172.07891
G1 X19.038 Y65.005 E172.12127
G1 X19.282 Y64.046 E172.16735
G1 X19.835 Y63.214 E172.21387
G1 X62.582 Y20.466 E175.02887
G0 F6000 X62.839 Y20.775
G1 F1200 X63.535 Y20.313 E175.06776
G1 X64.423 Y20.03 E175.11116
G1 X65.221 Y20.064 E175.14835
G1 X66.075 Y20.281 E175.18938
G1 X66.816 Y20.774 E175.23083
G1 X204.262 Y158.22 E184.28188
G1 X204.724 Y158.916 E184.32078
G1 X205.007 Y159.804 E184.36418
G1 X204.973 Y160.602 E184.40137
G1 X204.756 Y161.456 E184.4424
G1 X204.263 Y162.197 E184.48384
G1 X161.57 Y204.89 E187.29525
G1 X160.874 Y205.352 E187.33415
G1 X159.986 Y205.635 E187.37755
G1 X159.188 Y205.601 E187.41474
G1 X158.334 Y205.384 E187.45577
G1 X157.593 Y204.891 E187.49721
G1 X20.147 Y67.446 E196.54823
G1 X19.685 Y66.75 E196.58713
G1 X19.402 Y65.862 E196.63053
G1 X19.436 Y65.064 E196.66772
G1 X19.653 Y64.21 E196.70875
G1 X20.146 Y63.469 E196.75019
G1 X62.839 Y20.775 E199.56163
G0 F6000 X63.096 Y21.084
G1 F1200 X63.709 Y20.677 E199.59589
G1 X64.475 Y20.433 E199.63333
G1 X65.162 Y20.462 E199.66535
G1 X65.912 Y20.653 E199.70138
G1 X66.559 Y21.083 E199.73756
G1 X203.953 Y158.477 E208.78519
G1 X204.36 Y159.09 E208.81945
G1 X204.604 Y159.856 E208.85688
G1 X204.575 Y160.543 E208.8889
G1 X204.384 Y161.293 E208.92494
G1 X203.954 Y161.94 E208.96111
G1 X161.313 Y204.581 E211.7691
G1 X160.7 Y204.988 E211.80336
G1 X159.934 Y205.232 E211.84079
G1 X159.247 Y205.203 E211.87281
G1 X158.497 Y205.012 E211.90885
G1 X157.85 Y204.582 E211.94502
G1 X20.456 Y67.189 E220.99262
G1 X20.049 Y66.576 E221.02688
G1 X19.805 Y65.81 E221.06432
G1 X19.834 Y65.123 E221.09633
G1 X20.025 Y64.373 E221.13237
G1 X20.455 Y63.726 E221.16854
G1 X63.096 Y21.084 E223.97656
G0 F6000 X63.353 Y21.393
G1 F1200 X63.882 Y21.042 E224.00612
G1 X64.528 Y20.836 E224.03769
G1 X65.103 Y20.86 E224.06449
G1 X65.748 Y21.024 E224.09548
G1 X66.304 Y21.394 E224.12658
G1 X203.644 Y158.734 E233.17065
G1 X203.995 Y159.263 E233.20022
G1 X204.201 Y159.909 E233.23179
G1 X204.177 Y160.484 E233.25859
G1 X204.013 Y161.129 E233.28958
G1 X203.643 Y161.685 E233.32067
G1 X161.056 Y204.272 E236.1251
G1 X160.527 Y204.623 E236.15466
G1 X159.881 Y204.829 E236.18624
G1 X159.306 Y204.805 E236.21303
G1 X158.661 Y204.641 E236.24402
G1 X158.105 Y204.271 E236.27512
G1 X20.765 Y66.932 E245.31916
G1 X20.414 Y66.403 E245.34872
G1 X20.208 Y65.757 E245.3803
G1 X20.232 Y65.182 E245.40709
G1 X20.396 Y64.537 E245.43808
G1 X20.766 Y63.981 E245.46918
G1 X63.353 Y21.393 E248.27364
G0 F6000 X63.61 Y21.702
G1 F1200 X64.055 Y21.407 E248.2985
G1 X64.581 Y21.239 E248.32421
G1 X65.044 Y21.258 E248.34579
G1 X65.585 Y21.396 E248.37179
G1 X66.047 Y21.703 E248.39762
G1 X203.335 Y158.991 E257.43827
G1 X203.63 Y159.436 E257.46313
G1 X203.798 Y159.962 E257.48884
G1 X203.779 Y160.425 E257.51042
G1 X203.641 Y160.966 E257.53641
G1 X203.334 Y161.428 E257.56224
G1 X160.799 Y203.963 E260.36325
G1 X160.354 Y204.258 E260.38811
G1 X159.828 Y204.426 E260.41382
G1 X159.365 Y204.407 E260.4354
G1 X158.824 Y204.269 E260.46139
G1 X158.362 Y203.962 E260.48722
G1 X21.074 Y66.675 E269.52784
G1 X20.779 Y66.23 E269.5527
G1 X20.611 Y65.704 E269.57841
G1 X20.63 Y65.241 E269.59999
G1 X20.768 Y64.7 E269.62599
G1 X21.075 Y64.238 E269.65182
G1 X63.61 Y21.702 E272.45285
G0 F6000 X63.867 Y22.011
G1 F1200 X64.229 Y21.771 E272.47308
G1 X64.634 Y21.642 E272.49287
G1 X64.985 Y21.656 E272.50922
G1 X65.421 Y21.767 E272.53017
G1 X65.792 Y22.014 E272.55093
G1 X203.026 Y159.248 E281.58802
G1 X203.266 Y159.61 E281.60825
G1 X203.395 Y160.015 E281.62804
G1 X203.381 Y160.366 E281.64439
G1 X203.27 Y160.802 E281.66534
G1 X203.023 Y161.173 E281.6861
G1 X160.542 Y203.654 E284.48354
G1 X160.18 Y203.894 E284.50377
G1 X159.775 Y204.023 E284.52356
G1 X159.424 Y204.009 E284.53992
G1 X158.988 Y203.898 E284.56087
G1 X158.617 Y203.651 E284.58162
G1 X21.383 Y66.418 E293.61868
G1 X21.143 Y66.056 E293.63891
G1 X21.014 Y65.651 E293.6587
G1 X21.028 Y65.3 E293.67505
G1 X21.139 Y64.864 E293.696
G1 X21.386 Y64.493 E293.71676
G1 X63.867 Y22.011 E296.51424
G0 F6000 X64.121 Y22.323
G1 F1200 X64.405 Y22.135 E296.5301
G1 X64.689 Y22.044 E296.54398
G1 X64.886 Y22.044 E296.55316
G1 X65.258 Y22.139 E296.57103
G1 X65.535 Y22.323 E296.58652
G1 X202.714 Y159.502 E305.61999
G1 X202.902 Y159.786 E305.63585
G1 X202.993 Y160.07 E305.64974
G1 X202.993 Y160.267 E305.65891
G1 X202.898 Y160.639 E305.67679
G1 X202.714 Y160.916 E305.69227
G1 X160.288 Y203.342 E308.4861
G1 X160.004 Y203.53 E308.50196
G1 X159.72 Y203.621 E308.51584
G1 X159.523 Y203.621 E308.52501
G1 X159.151 Y203.526 E308.54289
G1 X158.874 Y203.342 E308.55838
G1 X21.695 Y66.164 E317.59182
G1 X21.507 Y65.88 E317.60767
G1 X21.416 Y65.596 E317.62156
G1 X21.416 Y65.399 E317.63073
G1 X21.511 Y65.027 E317.64861
G1 X21.695 Y64.75 E317.6641
G1 X64.121 Y22.323 E320.45795
G0 F6000 X64.404 Y22.606
G1 F1200 X64.615 Y22.476 E320.46949
G1 X64.788 Y22.432 E320.47781
G1 X65.095 Y22.51 E320.49256
G1 X65.252 Y22.606 E320.50112
G1 X202.431 Y159.785 E329.5346
G1 X202.561 Y159.996 E329.54614
G1 X202.605 Y160.169 E329.55445
G1 X202.527 Y160.476 E329.5692
G1 X202.431 Y160.633 E329.57777
G1 X160.005 Y203.059 E332.37159
G1 X159.794 Y203.189 E332.38313
G1 X159.621 Y203.233 E332.39144
G1 X159.314 Y203.155 E332.40619
G1 X159.157 Y203.059 E332.41476
G1 X21.978 Y65.881 E341.4482
G1 X21.848 Y65.67 E341.45974
G1 X21.804 Y65.497 E341.46805
G1 X21.882 Y65.19 E341.4828
G1 X21.978 Y65.033 E341.49137
G1 X64.404 Y22.606 E344.28523
G0 F6000 X64.687 Y22.889
G1 F1200 X64.798 Y22.832 E344.29104
G1 X64.969 Y22.889 E344.29943
G1 X202.148 Y160.068 E353.3329
G1 X202.205 Y160.179 E353.33871
G1 X202.148 Y160.35 E353.34711
G1 X159.722 Y202.776 E356.14093
G1 X159.611 Y202.833 E356.14674
G1 X159.44 Y202.776 E356.15513
G1 X22.261 Y65.598 E365.18857
G1 X22.204 Y65.487 E365.19438
G1 X22.261 Y65.316 E365.20278
G1 X64.687 Y22.889 E367.99663
G1 F2700 E362.99663
;MESH:megav2-Back.stl
G0 F6000 X54.367 Y46.116
G0 X73.543 Y71.348
;TYPE:WALL-INNER
G1 F2700 E367.99663
G1 F1200 X73.293 Y71.236 E368.00939
G1 X51.266 Y49.209 E369.45991
G1 X51.148 Y48.881 E369.47614
G1 X51.165 Y48.689 E369.48511
G1 X51.272 Y48.465 E369.49667
G1 X53.443 Y46.293 E369.63967
G1 X53.62 Y46.171 E369.64968
G1 X53.909 Y46.119 E369.66335
G1 X54.237 Y46.237 E369.67958
G1 X76.254 Y68.258 E371.12957
G1 X76.357 Y68.443 E371.13943
G1 X76.388 Y68.683 E371.1507
G1 X76.347 Y68.863 E371.1593
G1 X76.262 Y69.01 E371.1672
G1 X74.049 Y71.224 E371.31297
G1 X73.929 Y71.301 E371.3196
G1 X73.7 Y71.36 E371.33062
G1 X73.543 Y71.348 E371.33795
G1 F2700 E366.33795
G0 F6000 X76.386 Y69.147
G0 X84.378 Y71.257
G0 X164.022 Y150.536
G1 F2700 E371.33795
G1 F1200 X163.791 Y150.417 E371.35005
G1 X84.495 Y71.124 E376.57173
G1 X84.382 Y70.806 E376.58744
G1 X84.41 Y70.574 E376.59832
G1 X84.508 Y70.389 E376.60807
G1 X91.712 Y63.179 E377.08266
G1 X91.967 Y63.094 E377.09518
G1 X92.138 Y63.095 E377.10314
G1 X92.316 Y63.15 E377.11182
G1 X92.477 Y63.264 E377.121
G1 X171.673 Y142.46 E382.33619
G1 X171.788 Y142.621 E382.34541
G1 X171.843 Y142.8 E382.35413
G1 X171.843 Y142.97 E382.36204
G1 X171.76 Y143.219 E382.37426
G1 X164.587 Y150.395 E382.84672
G1 X164.458 Y150.487 E382.8541
G1 X164.209 Y150.556 E382.86613
G1 X164.022 Y150.536 E382.87488
G1 F2700 E377.87488
G0 F6000 X163.64 Y150.41
G0 X164.013 Y150.72
G0 X167.258 Y162.46
G0 X168.539 Y170.059
G1 F2700 E382.87488
G1 F1200 X168.049 Y169.732 E382.90231
G1 X167.671 Y169.423 E382.92505
G1 X167.313 Y169.062 E382.94872
G1 X166.949 Y168.615 E382.97557
G1 X166.665 Y168.135 E383.00154
G1 X166.45 Y167.678 E383.02505
G1 X166.291 Y167.223 E383.0475
G1 X166.155 Y166.663 E383.07433
G1 X166.1 Y166.094 E383.10095
G1 X166.104 Y165.567 E383.12549
G1 X166.166 Y164.996 E383.15223
G1 X166.353 Y164.291 E383.1862
G1 X166.597 Y163.726 E383.21485
G1 X166.819 Y163.33 E383.23599
G1 X167.084 Y162.945 E383.25776
G1 X167.415 Y162.556 E383.28154
G1 X167.76 Y162.229 E383.30367
G1 X168.139 Y161.934 E383.32604
G1 X168.544 Y161.679 E383.34832
G1 X168.955 Y161.475 E383.36969
G1 X169.395 Y161.306 E383.39163
G1 X169.891 Y161.172 E383.41556
G1 X170.304 Y161.102 E383.43506
G1 X170.935 Y161.058 E383.46452
G1 X171.667 Y161.122 E383.49873
G1 X172.256 Y161.263 E383.52693
G1 X172.708 Y161.422 E383.54924
G1 X173.135 Y161.62 E383.57116
G1 X173.652 Y161.926 E383.59914
G1 X174.135 Y162.324 E383.62828
G1 X174.538 Y162.729 E383.65488
G1 X174.878 Y163.186 E383.68141
G1 X175.126 Y163.599 E383.70384
G1 X175.39 Y164.161 E383.73275
G1 X175.554 Y164.709 E383.75939
G1 X175.67 Y165.319 E383.7883
G1 X175.694 Y165.898 E383.81528
G1 X175.658 Y166.513 E383.84397
G1 X175.506 Y167.236 E383.87837
G1 X175.305 Y167.759 E383.90446
G1 X175.096 Y168.188 E383.92668
G1 X174.826 Y168.621 E383.95044
G1 X174.512 Y169.022 E383.97416
G1 X174.22 Y169.329 E383.99389
G1 X173.815 Y169.674 E384.01866
G1 X173.478 Y169.912 E384.03787
G1 X172.933 Y170.222 E384.06707
G1 X172.252 Y170.479 E384.10096
G1 X171.639 Y170.608 E384.13013
G1 X171.223 Y170.655 E384.14962
G1 X170.591 Y170.663 E384.17905
G1 X170.026 Y170.586 E384.2056
G1 X169.532 Y170.468 E384.22925
G1 X169.084 Y170.312 E384.25134
G1 X168.539 Y170.059 E384.27932
G1 F2700 E379.27932
G0 F6000 X169.016 Y170.48
G0 X179.809 Y181.274
G0 X159.581 Y201.542
G0 X159.581 Y201.785
G1 F2700 E384.27932
G1 F1200 X201.157 Y160.209 E387.01717
G1 X64.828 Y23.88 E395.99467
G1 X23.252 Y65.457 E398.73255
G1 X159.581 Y201.785 E407.71002
G0 F6000 X159.581 Y202.351
;TYPE:WALL-OUTER
G1 F1200 X201.723 Y160.209 E410.48514
G1 X64.828 Y23.314 E419.49991
G1 X22.686 Y65.457 E422.27507
G1 X159.581 Y202.351 E431.2898
G1 F2700 E426.2898
G0 F6000 X159.581 Y201.969
G0 X179.847 Y181.236
G0 X170.579 Y170.844
G0 X168.735 Y169.708
G1 F2700 E431.2898
G1 F1200 X168.275 Y169.401 E431.31555
G1 X167.932 Y169.12 E431.3362
G1 X167.622 Y168.808 E431.35668
G1 X167.295 Y168.411 E431.38063
G1 X167 Y167.914 E431.40754
G1 X166.82 Y167.528 E431.42737
G1 X166.672 Y167.101 E431.44842
G1 X166.546 Y166.578 E431.47347
G1 X166.498 Y166.058 E431.49778
G1 X166.504 Y165.582 E431.51995
G1 X166.566 Y165.033 E431.54568
G1 X166.737 Y164.403 E431.57607
G1 X166.961 Y163.894 E431.60197
