;FLAVOR:Marlin
;TIME:3321
;Filament used: 2.87009m
;Layer height: 0.28
;MINX:83.2
;MINY:72.893
;MINZ:0.28
;MAXX:151.8
;MAXY:138.493
;MAXZ:17.08
;POSTPROCESSED
;Generated with Cura_SteamEngine 5.3.1
M140 S50
M105
M190 S50
M104 S200
M105
M109 S200
M82 ;absolute extrusion mode
; Ender 3 Custom Start G-code
G92 E0 ; Reset Extruder
G28 ; Home all axes
G1 Z2.0 F3000 ; Move Z Axis up little to prevent scratching of Heat Bed
G1 X0.1 Y20 Z0.3 F5000.0 ; Move to start position
G1 X0.1 Y200.0 Z0.3 F1500.0 E15 ; Draw the first line
G1 X0.4 Y200.0 Z0.3 F5000.0 ; Move to side a little
G1 X0.4 Y20 Z0.3 F1500.0 E30 ; Draw the second line
G92 E0 ; Reset Extruder
G1 Z2.0 F3000 ; Move Z Axis up little to prevent scratching of Heat Bed
G1 X5 Y20 Z0.3 F5000.0 ; Move over to prevent blob squish
G92 E0
G92 E0
G1 F2700 E-5
;LAYER_COUNT:61
;LAYER:0
M107
G0 F6000 X84.334 Y75.142 Z0.28
;TYPE:SKIRT
G1 F2700 E0
G1 F1200 X83.548 Y76.657 E0.07947
G1 X83.2 Y78.072 E0.14733
G1 X83.2 Y133.149 E2.71194
G1 X83.529 Y134.797 E2.79019
G1 X84.36 Y136.194 E2.86588
G1 X85.449 Y137.359 E2.94014
G1 X86.964 Y138.145 E3.01961
G1 X88.379 Y138.493 E3.08746
G1 X146.456 Y138.493 E5.79177
G1 X148.104 Y138.164 E5.87003
G1 X149.501 Y137.333 E5.94571
G1 X150.666 Y136.244 E6.01997
G1 X151.452 Y134.729 E6.09944
G1 X151.8 Y133.314 E6.1673
G1 X151.8 Y78.237 E8.73191
G1 X151.471 Y76.589 E8.81016
G1 X150.64 Y75.192 E8.88585
G1 X149.551 Y74.027 E8.96011
G1 X148.036 Y73.241 E9.03958
G1 X146.621 Y72.893 E9.10744
G1 X88.544 Y72.893 E11.81174
G1 X86.896 Y73.222 E11.89
G1 X85.499 Y74.053 E11.96569
G1 X84.334 Y75.142 E12.03994
G0 F6000 X84.657 Y75.387
G1 F1200 X83.924 Y76.8 E12.11406
G1 X83.6 Y78.118 E12.17726
G1 X83.6 Y133.111 E14.73797
G1 X83.907 Y134.649 E14.811
G1 X84.684 Y135.955 E14.88176
G1 X85.694 Y137.036 E14.95064
G1 X87.107 Y137.769 E15.02477
G1 X88.425 Y138.093 E15.08796
G1 X146.418 Y138.093 E17.78836
G1 X147.956 Y137.786 E17.86139
G1 X149.262 Y137.009 E17.93215
G1 X150.343 Y135.999 E18.00104
G1 X151.076 Y134.586 E18.07516
G1 X151.4 Y133.268 E18.13836
G1 X151.4 Y78.275 E20.69906
G1 X151.093 Y76.737 E20.77209
G1 X150.316 Y75.431 E20.84285
G1 X149.306 Y74.35 E20.91174
G1 X147.893 Y73.617 E20.98586
G1 X146.575 Y73.293 E21.04906
G1 X88.582 Y73.293 E23.74946
G1 X87.044 Y73.6 E23.82249
G1 X85.738 Y74.377 E23.89325
G1 X84.657 Y75.387 E23.96214
G0 F6000 X84.98 Y75.632
G1 F1200 X84.3 Y76.943 E24.03091
G1 X84 Y78.164 E24.08945
G1 X84 Y133.073 E26.64624
G1 X84.285 Y134.501 E26.71405
G1 X85.008 Y135.716 E26.77988
G1 X85.939 Y136.713 E26.8434
G1 X87.25 Y137.393 E26.91217
G1 X88.471 Y137.693 E26.97072
G1 X146.38 Y137.693 E29.6672
G1 X147.808 Y137.408 E29.73501
G1 X149.023 Y136.685 E29.80084
G1 X150.02 Y135.754 E29.86436
G1 X150.7 Y134.443 E29.93313
G1 X151 Y133.222 E29.99168
G1 X151 Y78.313 E32.54847
G1 X150.715 Y76.885 E32.61627
G1 X149.992 Y75.67 E32.68211
G1 X149.061 Y74.673 E32.74563
G1 X147.75 Y73.993 E32.8144
G1 X146.529 Y73.693 E32.87294
G1 X88.62 Y73.693 E35.56943
G1 X87.192 Y73.978 E35.63723
G1 X85.977 Y74.701 E35.70307
G1 X84.98 Y75.632 E35.76658
G0 F6000 X85.303 Y75.877
G1 F1200 X84.676 Y77.086 E35.83
G1 X84.4 Y78.21 E35.88389
G1 X84.4 Y133.035 E38.43678
G1 X84.663 Y134.353 E38.49936
G1 X85.332 Y135.477 E38.56026
G1 X86.184 Y136.39 E38.61841
G1 X87.393 Y137.017 E38.68183
G1 X88.517 Y137.293 E38.73572
G1 X146.342 Y137.293 E41.4283
G1 X147.66 Y137.03 E41.49088
G1 X148.784 Y136.361 E41.55179
G1 X149.697 Y135.509 E41.60993
G1 X150.324 Y134.3 E41.67335
G1 X150.6 Y133.176 E41.72724
G1 X150.6 Y78.351 E44.28013
G1 X150.337 Y77.033 E44.34271
G1 X149.668 Y75.909 E44.40361
G1 X148.816 Y74.996 E44.46176
G1 X147.607 Y74.369 E44.52518
G1 X146.483 Y74.093 E44.57907
G1 X88.658 Y74.093 E47.27165
G1 X87.34 Y74.356 E47.33423
G1 X86.216 Y75.025 E47.39514
G1 X85.303 Y75.877 E47.45328
G0 F6000 X85.625 Y76.124
G1 F1200 X85.053 Y77.228 E47.51118
G1 X84.8 Y78.257 E47.56052
G1 X84.8 Y132.997 E50.10945
G1 X85.041 Y134.205 E50.1668
G1 X85.654 Y135.235 E50.22262
G1 X86.431 Y136.068 E50.27566
G1 X87.535 Y136.64 E50.33356
G1 X88.564 Y136.893 E50.3829
G1 X146.304 Y136.893 E53.07151
G1 X147.512 Y136.652 E53.12887
G1 X148.542 Y136.039 E53.18468
G1 X149.375 Y135.262 E53.23773
G1 X149.947 Y134.158 E53.29562
G1 X150.2 Y133.129 E53.34497
G1 X150.2 Y78.389 E55.89389
G1 X149.959 Y77.181 E55.95125
G1 X149.346 Y76.151 E56.00706
G1 X148.569 Y75.318 E56.0601
G1 X147.465 Y74.746 E56.118
G1 X146.436 Y74.493 E56.16734
G1 X88.696 Y74.493 E58.85596
G1 X87.488 Y74.734 E58.91332
G1 X86.458 Y75.347 E58.96913
G1 X85.625 Y76.124 E59.02217
G0 F6000 X85.947 Y76.371
G1 F1200 X85.429 Y77.371 E59.07461
G1 X85.2 Y78.303 E59.1193
G1 X85.2 Y132.959 E61.66431
G1 X85.419 Y134.057 E61.71645
G1 X85.976 Y134.993 E61.76716
G1 X86.678 Y135.746 E61.8151
G1 X87.678 Y136.264 E61.86754
G1 X88.61 Y136.493 E61.91223
G1 X146.266 Y136.493 E64.59694
G1 X147.364 Y136.274 E64.64907
G1 X148.3 Y135.717 E64.69979
G1 X149.053 Y135.015 E64.74772
G1 X149.571 Y134.015 E64.80016
G1 X149.8 Y133.083 E64.84485
G1 X149.8 Y78.427 E67.38987
G1 X149.581 Y77.329 E67.442
G1 X149.024 Y76.393 E67.49272
G1 X148.322 Y75.64 E67.54065
G1 X147.322 Y75.122 E67.59309
G1 X146.39 Y74.893 E67.63778
G1 X88.734 Y74.893 E70.32249
G1 X87.636 Y75.112 E70.37462
G1 X86.7 Y75.669 E70.42534
G1 X85.947 Y76.371 E70.47328
G0 F6000 X86.269 Y76.618
G1 F1200 X85.805 Y77.514 E70.52026
G1 X85.6 Y78.349 E70.5603
G1 X85.6 Y132.921 E73.1014
G1 X85.797 Y133.909 E73.14831
G1 X86.298 Y134.751 E73.19393
G1 X86.925 Y135.424 E73.23676
G1 X87.821 Y135.888 E73.28374
G1 X88.656 Y136.093 E73.32378
G1 X146.228 Y136.093 E76.00457
G1 X147.216 Y135.896 E76.05149
G1 X148.058 Y135.395 E76.09711
G1 X148.731 Y134.768 E76.13994
G1 X149.195 Y133.872 E76.18692
G1 X149.4 Y133.037 E76.22696
G1 X149.4 Y78.465 E78.76806
G1 X149.203 Y77.477 E78.81497
G1 X148.702 Y76.635 E78.86059
G1 X148.075 Y75.962 E78.90342
G1 X147.179 Y75.498 E78.95041
G1 X146.344 Y75.293 E78.99044
G1 X88.772 Y75.293 E81.67124
G1 X87.784 Y75.49 E81.71815
G1 X86.942 Y75.991 E81.76377
G1 X86.269 Y76.618 E81.8066
G0 F6000 X86.591 Y76.865
G1 F1200 X87.184 Y76.313 E81.84432
G1 X87.932 Y75.868 E81.88485
G1 X88.81 Y75.693 E81.92654
G1 X146.298 Y75.693 E84.60342
G1 X147.036 Y75.874 E84.6388
G1 X147.828 Y76.284 E84.68033
G1 X148.38 Y76.877 E84.71806
G1 X148.825 Y77.625 E84.75858
G1 X149 Y78.503 E84.80027
G1 X149 Y132.991 E87.33746
G1 X148.819 Y133.729 E87.37284
G1 X148.409 Y134.521 E87.41437
G1 X147.816 Y135.073 E87.4521
G1 X147.068 Y135.518 E87.49262
G1 X146.19 Y135.693 E87.53431
G1 X88.702 Y135.693 E90.21119
G1 X87.964 Y135.512 E90.24658
G1 X87.172 Y135.102 E90.2881
G1 X86.62 Y134.509 E90.32583
G1 X86.175 Y133.761 E90.36635
G1 X86 Y132.883 E90.40804
G1 X86 Y78.395 E92.94523
G1 X86.181 Y77.657 E92.98061
G1 X86.591 Y76.865 E93.02214
G0 F6000 X86.914 Y77.11
G1 F1200 X87.423 Y76.637 E93.0545
G1 X88.08 Y76.246 E93.0901
G1 X88.848 Y76.093 E93.12656
G1 X146.248 Y76.093 E95.79935
G1 X146.897 Y76.252 E95.83046
G1 X147.583 Y76.607 E95.86643
G1 X148.056 Y77.116 E95.89878
G1 X148.447 Y77.773 E95.93438
G1 X148.6 Y78.541 E95.97085
G1 X148.6 Y132.941 E98.50394
G1 X148.441 Y133.59 E98.53505
G1 X148.086 Y134.276 E98.57102
G1 X147.577 Y134.749 E98.60337
G1 X146.92 Y135.14 E98.63897
G1 X146.152 Y135.293 E98.67544
G1 X88.752 Y135.293 E101.34822
G1 X88.103 Y135.134 E101.37934
G1 X87.417 Y134.779 E101.4153
G1 X86.944 Y134.27 E101.44766
G1 X86.553 Y133.613 E101.48326
G1 X86.4 Y132.845 E101.51972
G1 X86.4 Y78.445 E104.05281
G1 X86.559 Y77.796 E104.08393
G1 X86.914 Y77.11 E104.11989
G0 F6000 X87.237 Y77.355
G1 F1200 X87.662 Y76.961 E104.14688
G1 X88.228 Y76.624 E104.17755
G1 X88.886 Y76.493 E104.20879
G1 X146.198 Y76.493 E106.87748
G1 X146.758 Y76.63 E106.90433
G1 X147.338 Y76.93 E106.93473
G1 X147.732 Y77.355 E106.96172
G1 X148.069 Y77.921 E106.99239
G1 X148.2 Y78.579 E107.02363
G1 X148.2 Y132.891 E109.55263
G1 X148.063 Y133.451 E109.57947
G1 X147.763 Y134.031 E109.60988
G1 X147.338 Y134.425 E109.63686
G1 X146.772 Y134.762 E109.66754
G1 X146.114 Y134.893 E109.69878
G1 X88.802 Y134.893 E112.36746
G1 X88.242 Y134.756 E112.39431
G1 X87.662 Y134.456 E112.42471
G1 X87.268 Y134.031 E112.4517
G1 X86.931 Y133.465 E112.48237
G1 X86.8 Y132.807 E112.51361
G1 X86.8 Y78.495 E115.04261
G1 X86.937 Y77.935 E115.06945
G1 X87.237 Y77.355 E115.09986
G0 F6000 X87.56 Y77.601
G1 F1200 X87.901 Y77.285 E115.12151
G1 X88.376 Y77.002 E115.14725
G1 X88.924 Y76.893 E115.17327
G1 X146.148 Y76.893 E117.83786
G1 X146.619 Y77.008 E117.86043
G1 X147.092 Y77.253 E117.88524
G1 X147.408 Y77.594 E117.90689
G1 X147.691 Y78.069 E117.93263
G1 X147.8 Y78.617 E117.95865
G1 X147.8 Y132.841 E120.48355
G1 X147.685 Y133.312 E120.50612
G1 X147.44 Y133.785 E120.53093
G1 X147.099 Y134.101 E120.55257
G1 X146.624 Y134.384 E120.57832
G1 X146.076 Y134.493 E120.60434
G1 X88.852 Y134.493 E123.26893
G1 X88.381 Y134.378 E123.2915
G1 X87.908 Y134.133 E123.31631
G1 X87.592 Y133.792 E123.33795
G1 X87.309 Y133.317 E123.3637
G1 X87.2 Y132.769 E123.38972
G1 X87.2 Y78.545 E125.91461
G1 X87.315 Y78.074 E125.93719
G1 X87.56 Y77.601 E125.96199
G0 F6000 X87.883 Y77.847
G1 F1200 X88.14 Y77.609 E125.9783
G1 X88.524 Y77.38 E125.99912
G1 X88.962 Y77.293 E126.01992
G1 X146.098 Y77.293 E128.68041
G1 X146.48 Y77.386 E128.69872
G1 X146.846 Y77.576 E128.71792
G1 X147.084 Y77.833 E128.73423
G1 X147.313 Y78.217 E128.75505
G1 X147.4 Y78.655 E128.77584
G1 X147.4 Y132.791 E131.29664
G1 X147.307 Y133.173 E131.31495
G1 X147.117 Y133.539 E131.33415
G1 X146.86 Y133.777 E131.35046
G1 X146.476 Y134.006 E131.37128
G1 X146.038 Y134.093 E131.39207
G1 X88.902 Y134.093 E134.05256
G1 X88.52 Y134 E134.07087
G1 X88.154 Y133.81 E134.09007
G1 X87.916 Y133.553 E134.10638
G1 X87.687 Y133.169 E134.1272
G1 X87.6 Y132.731 E134.14799
G1 X87.6 Y78.595 E136.66879
G1 X87.693 Y78.213 E136.6871
G1 X87.883 Y77.847 E136.7063
G0 F6000 X88.207 Y78.092
G1 F1200 X88.345 Y77.953 E136.71542
G1 X88.672 Y77.758 E136.73315
G1 X89 Y77.693 E136.74872
G1 X146.049 Y77.693 E139.40516
G1 X146.338 Y77.763 E139.41901
G1 X146.601 Y77.9 E139.43282
G1 X146.74 Y78.038 E139.44194
G1 X146.935 Y78.365 E139.45966
G1 X147 Y78.693 E139.47523
G1 X147 Y132.742 E141.99198
G1 X146.93 Y133.031 E142.00583
G1 X146.793 Y133.294 E142.01964
G1 X146.655 Y133.433 E142.02876
G1 X146.328 Y133.628 E142.04649
G1 X146 Y133.693 E142.06206
G1 X88.951 Y133.693 E144.7185
G1 X88.662 Y133.623 E144.73234
G1 X88.399 Y133.486 E144.74615
G1 X88.26 Y133.348 E144.75527
G1 X88.065 Y133.021 E144.773
G1 X88 Y132.693 E144.78857
G1 X88 Y78.644 E147.30532
G1 X88.07 Y78.355 E147.31916
G1 X88.207 Y78.092 E147.33297
G0 F6000 X88.55 Y78.297
G1 F1200 X88.82 Y78.136 E147.34761
G1 X89 Y78.093 E147.35623
G1 X146 Y78.093 E150.01039
G1 X146.244 Y78.152 E150.02208
G1 X146.396 Y78.243 E150.03032
G1 X146.557 Y78.513 E150.04496
G1 X146.6 Y78.693 E150.05358
G1 X146.6 Y132.693 E152.56805
G1 X146.541 Y132.937 E152.57974
G1 X146.45 Y133.089 E152.58798
G1 X146.18 Y133.25 E152.60262
G1 X146 Y133.293 E152.61124
G1 X89 Y133.293 E155.2654
G1 X88.756 Y133.234 E155.27709
G1 X88.604 Y133.143 E155.28534
G1 X88.443 Y132.873 E155.29997
G1 X88.4 Y132.693 E155.30859
G1 X88.4 Y78.693 E157.82306
G1 X88.459 Y78.449 E157.83475
G1 X88.55 Y78.297 E157.843
G0 F6000 X88.839 Y78.574
G1 F1200 X89 Y78.493 E157.85139
G1 X146 Y78.493 E160.50555
G1 X146.119 Y78.532 E160.51138
G1 X146.2 Y78.693 E160.51977
G1 X146.2 Y132.693 E163.03424
G1 X146.161 Y132.812 E163.04007
G1 X146 Y132.893 E163.04846
G1 X89 Y132.893 E165.70262
G1 X88.881 Y132.854 E165.70845
G1 X88.8 Y132.693 E165.71684
G1 X88.8 Y78.693 E168.23131
G1 X88.839 Y78.574 E168.23714
G1 F2700 E163.23714
;MESH:megav2-PowerPanel.stl
G0 F6000 X93.094 Y103.944
G0 X93.663 Y108.293
;TYPE:WALL-INNER
G1 F2700 E168.23714
G1 F1200 X93.147 Y108.268 E168.26119
G1 X92.734 Y108.153 E168.28116
G1 X92.281 Y107.909 E168.30512
G1 X91.958 Y107.627 E168.32508
G1 X91.708 Y107.292 E168.34455
G1 X91.522 Y106.91 E168.36433
G1 X91.407 Y106.418 E168.38786
G1 X91.407 Y105.97 E168.40872
G1 X91.557 Y105.383 E168.43693
G1 X91.813 Y104.933 E168.46104
G1 X92.106 Y104.617 E168.4811
G1 X92.578 Y104.278 E168.50816
G1 X93.127 Y104.123 E168.53473
G1 X93.709 Y104.076 E168.56191
G1 X94.274 Y104.24 E168.58931
G1 X94.705 Y104.472 E168.6121
G1 X95.044 Y104.76 E168.63281
G1 X95.338 Y105.17 E168.65631
G1 X95.479 Y105.486 E168.67242
G1 X95.594 Y105.971 E168.69563
G1 X95.592 Y106.413 E168.71621
G1 X95.446 Y106.99 E168.74392
G1 X95.234 Y107.384 E168.76476
G1 X94.92 Y107.741 E168.7869
G1 X94.552 Y108.017 E168.80832
G1 X94.089 Y108.209 E168.83165
G1 X93.663 Y108.293 E168.85187
G1 F2700 E163.85187
G0 F6000 X93.678 Y108.391
G0 X95.03 Y107.892
G0 X111.721 Y107.892
G0 X112.213 Y114.721
G1 F2700 E168.85187
G1 F1200 X111.973 Y114.481 E168.86768
G1 X111.9 Y114.228 E168.87994
G1 X111.9 Y98.072 E169.63223
G1 X112.039 Y97.808 E169.64612
G1 X112.172 Y97.69 E169.6544
G1 X112.429 Y97.593 E169.66719
G1 X120.552 Y97.595 E170.04543
G1 X120.778 Y97.66 E170.05638
G1 X120.934 Y97.777 E170.06546
G1 X121.072 Y98.01 E170.07807
G1 X121.1 Y98.193 E170.08669
G1 X121.1 Y114.193 E170.83172
G1 X121.024 Y114.485 E170.84577
G1 X120.913 Y114.629 E170.85424
G1 X120.779 Y114.725 E170.86191
G1 X120.556 Y114.791 E170.87274
G1 X112.449 Y114.791 E171.25024
G1 X112.213 Y114.721 E171.2617
G1 F2700 E166.2617
G0 F6000 X120.928 Y114.621
G0 X121.281 Y114.192
G0 X124.719 Y113.806
G0 X125.232 Y114.231
G1 F2700 E171.2617
G1 F1200 X125.118 Y114.157 E171.26803
G1 X124.967 Y113.97 E171.27922
G1 X124.9 Y113.781 E171.28856
G1 X124.9 Y98.193 E172.0144
G1 X124.928 Y98.01 E172.02302
G1 X125.066 Y97.777 E172.03563
G1 X125.222 Y97.66 E172.04471
G1 X125.448 Y97.595 E172.05566
G1 X135.546 Y97.594 E172.52587
G1 X135.829 Y97.69 E172.53978
G1 X135.996 Y97.854 E172.55068
G1 X136.073 Y98.011 E172.55882
G1 X136.1 Y98.193 E172.56739
G1 X136.1 Y113.772 E173.29281
G1 X136.001 Y114.025 E173.30546
G1 X135.782 Y114.224 E173.31924
G1 X135.584 Y114.293 E173.32901
G1 X125.45 Y114.291 E173.80089
G1 X125.232 Y114.231 E173.81142
G1 F2700 E168.81142
G0 F6000 X135.58 Y114.47
G0 X145.2 Y114.47
G0 X145.4 Y132.093
G1 F2700 E173.81142
G1 F1200 X145.4 Y79.293 E176.27
G1 X89.6 Y79.293 E178.86829
G1 X89.601 Y132.092 E181.32683
G1 X145.4 Y132.093 E183.92506
G0 F6000 X145.8 Y132.493
;TYPE:WALL-OUTER
G1 F1200 X145.8 Y78.893 E186.42091
G1 X89.2 Y78.893 E189.05644
G1 X89.201 Y132.492 E191.55223
G1 X145.8 Y132.493 E194.18772
G1 F2700 E189.18772
G0 F6000 X145.53 Y132.223
G0 X145.2 Y114.193
G0 X136.281 Y113.777
G0 X135.614 Y113.858
G1 F2700 E194.18772
G1 F1200 X135.544 Y113.892 E194.19134
G1 X125.483 Y113.893 E194.65982
G1 X125.372 Y113.848 E194.6654
G1 X125.302 Y113.728 E194.67187
G1 X125.3 Y98.147 E195.39739
G1 X125.355 Y98.054 E195.40242
G1 X125.482 Y97.993 E195.40898
G1 X135.516 Y97.993 E195.8762
G1 X135.61 Y98.025 E195.88083
G1 X135.698 Y98.162 E195.88841
G1 X135.698 Y113.728 E196.61323
G1 X135.614 Y113.858 E196.62043
G1 F2700 E191.62043
G0 F6000 X135.614 Y114.193
G0 X124.905 Y114.2
G0 X121.281 Y114.192
G0 X120.611 Y114.36
G1 F2700 E196.62043
G1 F1200 X120.519 Y114.393 E196.62499
G1 X112.483 Y114.393 E196.99918
G1 X112.39 Y114.361 E197.00376
G1 X112.302 Y114.226 E197.01126
G1 X112.301 Y98.165 E197.75913
G1 X112.378 Y98.034 E197.7662
G1 X112.483 Y97.993 E197.77145
G1 X120.535 Y97.995 E198.14639
G1 X120.669 Y98.085 E198.1539
G1 X120.7 Y98.193 E198.15913
G1 X120.7 Y114.236 E198.90616
G1 X120.611 Y114.36 E198.91327
G1 F2700 E193.91327
G0 F6000 X120.611 Y114.693
G0 X112.072 Y114.621
G0 X111.721 Y108.383
G0 X95.03 Y107.892
G0 X93.971 Y107.827
G1 F2700 E198.91327
G1 F1200 X93.608 Y107.889 E198.93042
G1 X93.19 Y107.864 E198.94992
G1 X92.865 Y107.769 E198.96568
G1 X92.531 Y107.589 E198.98335
G1 X92.24 Y107.336 E199.00131
G1 X92.061 Y107.096 E199.01525
G1 X91.912 Y106.797 E199.0308
G1 X91.809 Y106.383 E199.05067
G1 X91.807 Y106.022 E199.06748
G1 X91.932 Y105.533 E199.09098
G1 X92.153 Y105.154 E199.11141
G1 X92.359 Y104.932 E199.12551
G1 X92.754 Y104.644 E199.14827
G1 X93.217 Y104.517 E199.17063
G1 X93.671 Y104.485 E199.19182
G1 X94.139 Y104.618 E199.21448
G1 X94.495 Y104.813 E199.23338
G1 X94.748 Y105.034 E199.24902
G1 X94.977 Y105.353 E199.26731
