;FLAVOR:Marlin
;TIME:1724
;Filament used: 1.63947m
;Layer height: 0.28
;MINX:96.074
;MINY:87.474
;MINZ:0.28
;MAXX:154.774
;MAXY:147.074
;MAXZ:1.96
;POSTPROCESSED
;Generated with Cura_SteamEngine 5.3.1
M140 S50
M105
M190 S50
M104 S200
M105
M109 S200
M82 ;absolute extrusion mode
; Ender 3 Custom Start G-code
G92 E0 ; Reset Extruder
G28 ; Home all axes
G1 Z2.0 F3000 ; Move Z Axis up little to prevent scratching of Heat Bed
G1 X0.1 Y20 Z0.3 F5000.0 ; Move to start position
G1 X0.1 Y200.0 Z0.3 F1500.0 E15 ; Draw the first line
G1 X0.4 Y200.0 Z0.3 F5000.0 ; Move to side a little
G1 X0.4 Y20 Z0.3 F1500.0 E30 ; Draw the second line
G92 E0 ; Reset Extruder
G1 Z2.0 F3000 ; Move Z Axis up little to prevent scratching of Heat Bed
G1 X5 Y20 Z0.3 F5000.0 ; Move over to prevent blob squish
G92 E0
G92 E0
G1 F2700 E-5
;LAYER_COUNT:7
;LAYER:0
M107
G0 F6000 X97.808 Y89.723 Z0.28
;TYPE:SKIRT
G1 F2700 E0
G1 F1200 X98.973 Y88.634 E0.07426
G1 X100.37 Y87.803 E0.14995
G1 X102.018 Y87.474 E0.2282
G1 X133.095 Y87.474 E1.67527
G1 X134.51 Y87.822 E1.74313
G1 X136.025 Y88.608 E1.8226
G1 X137.114 Y89.773 E1.89686
G1 X137.945 Y91.17 E1.97254
G1 X138.274 Y92.818 E2.0508
G1 X138.274 Y96.726 E2.23277
G1 X149.595 Y96.726 E2.75992
G1 X151.01 Y97.074 E2.82777
G1 X152.525 Y97.86 E2.90725
G1 X153.614 Y99.025 E2.98151
G1 X154.445 Y100.422 E3.05719
G1 X154.774 Y102.07 E3.13545
G1 X154.774 Y133.147 E4.58252
G1 X154.426 Y134.562 E4.65037
G1 X153.64 Y136.077 E4.72985
G1 X152.475 Y137.166 E4.8041
G1 X151.078 Y137.997 E4.87979
G1 X149.43 Y138.326 E4.95805
G1 X138.274 Y138.326 E5.47752
G1 X138.274 Y141.895 E5.6437
G1 X137.926 Y143.31 E5.71155
G1 X137.14 Y144.825 E5.79103
G1 X135.975 Y145.914 E5.86529
G1 X134.578 Y146.745 E5.94097
G1 X132.93 Y147.074 E6.01923
G1 X101.853 Y147.074 E7.4663
G1 X100.438 Y146.726 E7.53415
G1 X98.923 Y145.94 E7.61363
G1 X97.834 Y144.775 E7.68788
G1 X97.003 Y143.378 E7.76357
G1 X96.674 Y141.73 E7.84183
G1 X96.674 Y127.33 E8.51235
G1 X96.402 Y126.876 E8.53699
G1 X96.074 Y125.23 E8.61514
G1 X96.074 Y109.138 E9.36446
G1 X96.414 Y107.75 E9.431
G1 X96.674 Y107.252 E9.45716
G1 X96.674 Y92.653 E10.13695
G1 X97.022 Y91.238 E10.2048
G1 X97.808 Y89.723 E10.28427
G0 F6000 X98.131 Y89.968
G1 F1200 X99.212 Y88.958 E10.35316
G1 X100.518 Y88.181 E10.42392
G1 X102.056 Y87.874 E10.49695
G1 X133.049 Y87.874 E11.94011
G1 X134.367 Y88.198 E12.00331
G1 X135.78 Y88.931 E12.07743
G1 X136.79 Y90.012 E12.14632
G1 X137.567 Y91.318 E12.21708
G1 X137.874 Y92.856 E12.29011
G1 X137.874 Y97.126 E12.48894
G1 X149.549 Y97.126 E13.03258
G1 X150.867 Y97.45 E13.09578
G1 X152.28 Y98.183 E13.1699
G1 X153.29 Y99.264 E13.23879
G1 X154.067 Y100.57 E13.30955
G1 X154.374 Y102.108 E13.38258
G1 X154.374 Y133.101 E14.82574
G1 X154.05 Y134.419 E14.88894
G1 X153.317 Y135.832 E14.96306
G1 X152.236 Y136.842 E15.03195
G1 X150.93 Y137.619 E15.10271
G1 X149.392 Y137.926 E15.17574
G1 X137.874 Y137.926 E15.71206
G1 X137.874 Y141.849 E15.89474
G1 X137.55 Y143.167 E15.95793
G1 X136.817 Y144.58 E16.03206
G1 X135.736 Y145.59 E16.10094
G1 X134.43 Y146.367 E16.17171
G1 X132.892 Y146.674 E16.24473
G1 X101.899 Y146.674 E17.6879
G1 X100.581 Y146.35 E17.7511
G1 X99.168 Y145.617 E17.82522
G1 X98.158 Y144.536 E17.89411
G1 X97.381 Y143.23 E17.96487
G1 X97.074 Y141.692 E18.0379
G1 X97.074 Y127.221 E18.71173
G1 X96.781 Y126.73 E18.73835
G1 X96.474 Y125.192 E18.81138
G1 X96.474 Y109.184 E19.55678
G1 X96.79 Y107.895 E19.61858
G1 X97.074 Y107.351 E19.64715
G1 X97.074 Y92.699 E20.32941
G1 X97.398 Y91.381 E20.39261
G1 X98.131 Y89.968 E20.46673
G0 F6000 X98.454 Y90.213
G1 F1200 X99.451 Y89.282 E20.53025
G1 X100.666 Y88.559 E20.59608
G1 X102.094 Y88.274 E20.66389
G1 X133.003 Y88.274 E22.10314
G1 X134.224 Y88.574 E22.16169
G1 X135.535 Y89.254 E22.23046
G1 X136.466 Y90.251 E22.29397
G1 X137.189 Y91.466 E22.35981
G1 X137.474 Y92.894 E22.42761
G1 X137.474 Y97.526 E22.6433
G1 X149.503 Y97.526 E23.20342
G1 X150.724 Y97.826 E23.26197
G1 X152.035 Y98.506 E23.33073
G1 X152.966 Y99.503 E23.39425
G1 X153.689 Y100.718 E23.46009
G1 X153.974 Y102.146 E23.52789
G1 X153.974 Y133.055 E24.96714
G1 X153.674 Y134.276 E25.02569
G1 X152.994 Y135.587 E25.09446
G1 X151.997 Y136.518 E25.15798
G1 X150.782 Y137.241 E25.22381
G1 X149.354 Y137.526 E25.29162
G1 X137.474 Y137.526 E25.8448
G1 X137.474 Y141.803 E26.04395
G1 X137.174 Y143.024 E26.1025
G1 X136.494 Y144.335 E26.17127
G1 X135.497 Y145.266 E26.23479
G1 X134.282 Y145.989 E26.30062
G1 X132.854 Y146.274 E26.36843
G1 X101.945 Y146.274 E27.80768
G1 X100.724 Y145.974 E27.86623
G1 X99.413 Y145.294 E27.93499
G1 X98.482 Y144.297 E27.99851
G1 X97.759 Y143.082 E28.06435
G1 X97.474 Y141.654 E28.13215
G1 X97.474 Y127.11 E28.80938
G1 X97.159 Y126.582 E28.83801
G1 X96.874 Y125.154 E28.90582
G1 X96.874 Y109.234 E29.64712
G1 X97.168 Y108.033 E29.70469
G1 X97.474 Y107.448 E29.73543
G1 X97.474 Y92.745 E30.42007
G1 X97.774 Y91.524 E30.47861
G1 X98.454 Y90.213 E30.54738
G0 F6000 X98.777 Y90.458
G1 F1200 X99.69 Y89.606 E30.60553
G1 X100.814 Y88.937 E30.66644
G1 X102.132 Y88.674 E30.72902
G1 X132.957 Y88.674 E32.16436
G1 X134.081 Y88.95 E32.21825
G1 X135.29 Y89.577 E32.28167
G1 X136.142 Y90.49 E32.33982
G1 X136.811 Y91.614 E32.40073
G1 X137.074 Y92.932 E32.46331
G1 X137.074 Y97.926 E32.69585
G1 X149.457 Y97.926 E33.27245
G1 X150.581 Y98.202 E33.32635
G1 X151.79 Y98.829 E33.38976
G1 X152.642 Y99.742 E33.44791
G1 X153.311 Y100.866 E33.50882
G1 X153.574 Y102.184 E33.5714
G1 X153.574 Y133.009 E35.00674
G1 X153.298 Y134.133 E35.06063
G1 X152.671 Y135.342 E35.12405
G1 X151.758 Y136.194 E35.1822
G1 X150.634 Y136.863 E35.24311
G1 X149.316 Y137.126 E35.30569
G1 X137.074 Y137.126 E35.87573
G1 X137.074 Y141.757 E36.09137
G1 X136.798 Y142.881 E36.14526
G1 X136.171 Y144.09 E36.20868
G1 X135.258 Y144.942 E36.26682
G1 X134.134 Y145.611 E36.32773
G1 X132.816 Y145.874 E36.39031
G1 X101.991 Y145.874 E37.82565
G1 X100.867 Y145.598 E37.87955
G1 X99.658 Y144.971 E37.94296
G1 X98.806 Y144.058 E38.00111
G1 X98.137 Y142.934 E38.06202
G1 X97.874 Y141.616 E38.1246
G1 X97.874 Y126.999 E38.80523
G1 X97.537 Y126.434 E38.83586
G1 X97.274 Y125.116 E38.89844
G1 X97.274 Y109.28 E39.63584
G1 X97.544 Y108.179 E39.68862
G1 X97.874 Y107.547 E39.72182
G1 X97.874 Y92.791 E40.40892
G1 X98.15 Y91.667 E40.46281
G1 X98.777 Y90.458 E40.52623
G0 F6000 X99.099 Y90.705
G1 F1200 X99.932 Y89.928 E40.57927
G1 X100.962 Y89.315 E40.63509
G1 X102.17 Y89.074 E40.69244
G1 X132.91 Y89.074 E42.12383
G1 X133.939 Y89.327 E42.17317
G1 X135.043 Y89.899 E42.23107
G1 X135.82 Y90.732 E42.28411
G1 X136.433 Y91.762 E42.33992
G1 X136.674 Y92.97 E42.39728
G1 X136.674 Y98.326 E42.64668
G1 X149.41 Y98.326 E43.23972
G1 X150.439 Y98.579 E43.28906
G1 X151.543 Y99.151 E43.34696
G1 X152.32 Y99.984 E43.4
G1 X152.933 Y101.014 E43.45581
G1 X153.174 Y102.222 E43.51317
G1 X153.174 Y132.962 E44.94455
G1 X152.921 Y133.991 E44.99389
G1 X152.349 Y135.095 E45.05179
G1 X151.516 Y135.872 E45.10483
G1 X150.486 Y136.485 E45.16065
G1 X149.278 Y136.726 E45.218
G1 X136.674 Y136.726 E45.8049
G1 X136.674 Y141.71 E46.03698
G1 X136.421 Y142.739 E46.08632
G1 X135.849 Y143.843 E46.14421
G1 X135.016 Y144.62 E46.19726
G1 X133.986 Y145.233 E46.25307
G1 X132.778 Y145.474 E46.31043
G1 X102.038 Y145.474 E47.74181
G1 X101.009 Y145.221 E47.79115
G1 X99.905 Y144.649 E47.84905
G1 X99.128 Y143.816 E47.90209
G1 X98.515 Y142.786 E47.9579
G1 X98.274 Y141.578 E48.01526
G1 X98.274 Y126.888 E48.69929
G1 X97.915 Y126.286 E48.73193
G1 X97.674 Y125.078 E48.78929
G1 X97.674 Y109.33 E49.52258
G1 X97.922 Y108.317 E49.57114
G1 X98.274 Y107.644 E49.60651
G1 X98.274 Y92.838 E50.29594
G1 X98.527 Y91.809 E50.34528
G1 X99.099 Y90.705 E50.40317
G0 F6000 X99.421 Y90.952
G1 F1200 X100.174 Y90.25 E50.45111
G1 X101.11 Y89.693 E50.50183
G1 X102.208 Y89.474 E50.55396
G1 X132.864 Y89.474 E51.98143
G1 X133.796 Y89.703 E52.02612
G1 X134.796 Y90.221 E52.07856
G1 X135.498 Y90.974 E52.1265
G1 X136.055 Y91.91 E52.17722
G1 X136.274 Y93.008 E52.22935
G1 X136.274 Y98.726 E52.49561
G1 X149.364 Y98.726 E53.10513
G1 X150.296 Y98.955 E53.14982
G1 X151.296 Y99.473 E53.20226
G1 X151.998 Y100.226 E53.2502
G1 X152.555 Y101.162 E53.30092
G1 X152.774 Y102.26 E53.35305
G1 X152.774 Y132.916 E54.78052
G1 X152.545 Y133.848 E54.82521
G1 X152.027 Y134.848 E54.87765
G1 X151.274 Y135.55 E54.92559
G1 X150.338 Y136.107 E54.9763
G1 X149.24 Y136.326 E55.02844
G1 X136.274 Y136.326 E55.63219
G1 X136.274 Y141.664 E55.88075
G1 X136.045 Y142.596 E55.92544
G1 X135.527 Y143.596 E55.97788
G1 X134.774 Y144.298 E56.02582
G1 X133.838 Y144.855 E56.07653
G1 X132.74 Y145.074 E56.12867
G1 X102.084 Y145.074 E57.55614
G1 X101.152 Y144.845 E57.60083
G1 X100.152 Y144.327 E57.65327
G1 X99.45 Y143.574 E57.70121
G1 X98.893 Y142.638 E57.75192
G1 X98.674 Y141.54 E57.80406
G1 X98.674 Y126.777 E58.49148
G1 X98.293 Y126.138 E58.52613
G1 X98.074 Y125.04 E58.57826
G1 X98.074 Y109.376 E59.30764
G1 X98.298 Y108.463 E59.35142
G1 X98.674 Y107.743 E59.38924
G1 X98.674 Y92.884 E60.08114
G1 X98.903 Y91.952 E60.12582
G1 X99.421 Y90.952 E60.17827
G0 F6000 X99.743 Y91.199
G1 F1200 X100.416 Y90.572 E60.2211
G1 X101.258 Y90.071 E60.26672
G1 X102.246 Y89.874 E60.31363
G1 X132.818 Y89.874 E61.73719
G1 X133.653 Y90.079 E61.77723
G1 X134.549 Y90.543 E61.82421
G1 X135.176 Y91.216 E61.86704
G1 X135.677 Y92.058 E61.91266
G1 X135.874 Y93.046 E61.95957
G1 X135.874 Y99.126 E62.24268
G1 X149.318 Y99.126 E62.86869
G1 X150.153 Y99.331 E62.90873
G1 X151.049 Y99.795 E62.95571
G1 X151.676 Y100.468 E62.99854
G1 X152.177 Y101.31 E63.04417
G1 X152.374 Y102.298 E63.09108
G1 X152.374 Y132.87 E64.51464
G1 X152.169 Y133.705 E64.55467
G1 X151.705 Y134.601 E64.60166
G1 X151.032 Y135.228 E64.64449
G1 X150.19 Y135.729 E64.69011
G1 X149.202 Y135.926 E64.73702
G1 X135.874 Y135.926 E65.35763
G1 X135.874 Y141.618 E65.62267
G1 X135.669 Y142.453 E65.66271
G1 X135.205 Y143.349 E65.70969
G1 X134.532 Y143.976 E65.75252
G1 X133.69 Y144.477 E65.79814
G1 X132.702 Y144.674 E65.84505
G1 X102.13 Y144.674 E67.26862
G1 X101.295 Y144.469 E67.30865
G1 X100.399 Y144.005 E67.35564
G1 X99.772 Y143.332 E67.39847
G1 X99.271 Y142.49 E67.44409
G1 X99.074 Y141.502 E67.491
G1 X99.074 Y126.666 E68.18183
G1 X98.671 Y125.99 E68.21847
G1 X98.474 Y125.002 E68.26538
G1 X98.474 Y109.426 E68.99067
G1 X98.676 Y108.601 E69.03022
G1 X98.995 Y107.983 E69.0626
G1 X99.074 Y107.867 E69.06914
G1 X99.074 Y92.93 E69.76467
G1 X99.279 Y92.095 E69.8047
G1 X99.743 Y91.199 E69.85169
G0 F6000 X100.065 Y91.446
G1 F1200 X100.658 Y90.894 E69.88941
G1 X101.406 Y90.449 E69.92994
G1 X102.284 Y90.274 E69.97162
G1 X132.772 Y90.274 E71.39127
G1 X133.51 Y90.455 E71.42666
G1 X134.302 Y90.865 E71.46818
G1 X134.854 Y91.458 E71.50591
G1 X135.299 Y92.206 E71.54644
G1 X135.474 Y93.084 E71.58812
G1 X135.474 Y99.526 E71.88809
G1 X149.272 Y99.526 E72.53058
G1 X150.01 Y99.707 E72.56597
G1 X150.802 Y100.117 E72.60749
G1 X151.354 Y100.71 E72.64522
G1 X151.799 Y101.458 E72.68574
G1 X151.974 Y102.336 E72.72743
G1 X151.974 Y132.824 E74.14708
G1 X151.793 Y133.562 E74.18246
G1 X151.383 Y134.354 E74.22399
G1 X150.79 Y134.906 E74.26172
G1 X150.042 Y135.351 E74.30224
G1 X149.164 Y135.526 E74.34393
G1 X135.474 Y135.526 E74.98139
G1 X135.474 Y141.572 E75.26292
G1 X135.293 Y142.31 E75.2983
G1 X134.883 Y143.102 E75.33983
G1 X134.29 Y143.654 E75.37756
G1 X133.542 Y144.099 E75.41808
G1 X132.664 Y144.274 E75.45977
G1 X102.176 Y144.274 E76.87942
G1 X101.438 Y144.093 E76.9148
G1 X100.646 Y143.683 E76.95633
G1 X100.094 Y143.09 E76.99406
G1 X99.649 Y142.342 E77.03458
G1 X99.474 Y141.464 E77.07627
G1 X99.474 Y126.555 E77.7705
G1 X99.049 Y125.842 E77.80915
G1 X98.874 Y124.964 E77.85083
G1 X98.874 Y109.476 E78.57202
G1 X99.054 Y108.74 E78.6073
G1 X99.35 Y108.167 E78.63733
G1 X99.474 Y107.999 E78.64706
G1 X99.474 Y92.976 E79.34659
G1 X99.655 Y92.238 E79.38197
G1 X100.065 Y91.446 E79.4235
G0 F6000 X100.388 Y91.691
G1 F1200 X100.897 Y91.218 E79.45585
G1 X101.554 Y90.827 E79.49145
G1 X102.322 Y90.674 E79.52792
G1 X132.722 Y90.674 E80.94347
G1 X133.371 Y90.833 E80.97458
G1 X134.057 Y91.188 E81.01055
G1 X134.53 Y91.697 E81.04291
G1 X134.921 Y92.354 E81.07851
G1 X135.074 Y93.122 E81.11497
G1 X135.074 Y99.926 E81.43179
G1 X149.222 Y99.926 E82.09058
G1 X149.871 Y100.085 E82.1217
G1 X150.557 Y100.44 E82.15766
G1 X151.03 Y100.949 E82.19002
G1 X151.421 Y101.606 E82.22562
G1 X151.574 Y102.374 E82.26208
G1 X151.574 Y132.774 E83.67763
G1 X151.415 Y133.423 E83.70875
G1 X151.06 Y134.109 E83.74472
G1 X150.551 Y134.582 E83.77707
G1 X149.894 Y134.973 E83.81267
G1 X149.126 Y135.126 E83.84913
G1 X135.074 Y135.126 E84.50345
G1 X135.074 Y141.522 E84.80128
G1 X134.915 Y142.171 E84.83239
G1 X134.56 Y142.857 E84.86836
G1 X134.051 Y143.33 E84.90071
G1 X133.394 Y143.721 E84.93632
G1 X132.626 Y143.874 E84.97278
G1 X102.226 Y143.874 E86.38833
G1 X101.577 Y143.715 E86.41944
G1 X100.891 Y143.36 E86.45541
G1 X100.418 Y142.851 E86.48777
G1 X100.027 Y142.194 E86.52337
G1 X99.874 Y141.426 E86.55983
G1 X99.874 Y126.403 E87.25936
G1 X99.778 Y126.283 E87.26652
G1 X99.427 Y125.694 E87.29845
G1 X99.274 Y124.926 E87.33491
G1 X99.274 Y109.526 E88.052
G1 X99.433 Y108.877 E88.08311
G1 X99.705 Y108.35 E88.11073
G1 X99.874 Y108.141 E88.12324
G1 X99.874 Y93.026 E88.82706
G1 X100.033 Y92.377 E88.85818
G1 X100.388 Y91.691 E88.89414
G0 F6000 X100.711 Y91.936
G1 F1200 X100.411 Y92.516 E88.92455
G1 X100.274 Y93.076 E88.95139
G1 X100.274 Y108.293 E89.65996
G1 X100.06 Y108.534 E89.67497
G1 X99.811 Y109.016 E89.70023
G1 X99.674 Y109.576 E89.72708
G1 X99.674 Y124.888 E90.44007
G1 X99.805 Y125.546 E90.47131
G1 X100.122 Y126.078 E90.50014
G1 X100.274 Y126.254 E90.51097
G1 X100.274 Y141.388 E91.21567
G1 X100.405 Y142.046 E91.24691
G1 X100.742 Y142.612 E91.27759
G1 X101.136 Y143.037 E91.30457
G1 X101.716 Y143.337 E91.33498
G1 X102.276 Y143.474 E91.36182
G1 X132.588 Y143.474 E92.77328
G1 X133.246 Y143.343 E92.80452
G1 X133.812 Y143.006 E92.83519
G1 X134.237 Y142.612 E92.86218
G1 X134.537 Y142.032 E92.89258
G1 X134.674 Y141.472 E92.91943
G1 X134.674 Y134.726 E93.23355
G1 X149.088 Y134.726 E93.90473
G1 X149.746 Y134.595 E93.93597
G1 X150.312 Y134.258 E93.96664
G1 X150.737 Y133.864 E93.99363
G1 X151.037 Y133.284 E94.02403
G1 X151.174 Y132.724 E94.05088
G1 X151.174 Y102.412 E95.46233
G1 X151.043 Y101.754 E95.49357
G1 X150.706 Y101.188 E95.52424
G1 X150.312 Y100.763 E95.55123
G1 X149.732 Y100.463 E95.58164
G1 X149.172 Y100.326 E95.60848
G1 X134.674 Y100.326 E96.28357
G1 X134.674 Y93.16 E96.61725
G1 X134.543 Y92.502 E96.64849
G1 X134.206 Y91.936 E96.67916
G1 X133.812 Y91.511 E96.70615
G1 X133.232 Y91.211 E96.73655
G1 X132.672 Y91.074 E96.7634
G1 X102.36 Y91.074 E98.17485
G1 X101.702 Y91.205 E98.20609
G1 X101.136 Y91.542 E98.23677
G1 X100.711 Y91.936 E98.26375
G0 F6000 X101.034 Y92.182
G1 F1200 X101.375 Y91.866 E98.2854
G1 X101.85 Y91.583 E98.31115
G1 X102.398 Y91.474 E98.33716
G1 X132.622 Y91.474 E99.74452
G1 X133.093 Y91.589 E99.76709
G1 X133.566 Y91.834 E99.7919
G1 X133.882 Y92.175 E99.81355
G1 X134.165 Y92.65 E99.83929
G1 X134.274 Y93.198 E99.86531
G1 X134.274 Y100.726 E100.21584
G1 X149.122 Y100.726 E100.90723
G1 X149.593 Y100.841 E100.92981
G1 X150.066 Y101.086 E100.95461
G1 X150.382 Y101.427 E100.97626
G1 X150.665 Y101.902 E101.002
G1 X150.774 Y102.45 E101.02802
G1 X150.774 Y132.674 E102.43538
G1 X150.659 Y133.145 E102.45795
G1 X150.414 Y133.618 E102.48276
G1 X150.073 Y133.934 E102.5044
G1 X149.598 Y134.217 E102.53015
G1 X149.05 Y134.326 E102.55617
G1 X134.274 Y134.326 E103.2442
G1 X134.274 Y141.422 E103.57462
G1 X134.159 Y141.893 E103.5972
G1 X133.914 Y142.366 E103.622
G1 X133.573 Y142.682 E103.64365
G1 X133.098 Y142.965 E103.66939
G1 X132.55 Y143.074 E103.69541
G1 X102.326 Y143.074 E105.10277
G1 X101.855 Y142.959 E105.12534
G1 X101.382 Y142.714 E105.15015
G1 X101.066 Y142.373 E105.17179
G1 X100.783 Y141.898 E105.19754
G1 X100.674 Y141.35 E105.22356
G1 X100.674 Y126.097 E105.9338
G1 X100.466 Y125.873 E105.94804
G1 X100.183 Y125.398 E105.97378
G1 X100.074 Y124.85 E105.9998
G1 X100.074 Y109.626 E106.70869
G1 X100.189 Y109.155 E106.73127
G1 X100.393 Y108.761 E106.75193
G1 X100.674 Y108.444 E106.77165
G1 X100.674 Y93.126 E107.48492
G1 X100.789 Y92.655 E107.5075
