;FLAVOR:Marlin
;TIME:2738
;Filament used: 2.30894m
;Layer height: 0.28
;MINX:60.791
;MINY:14.331
;MINZ:0.28
;MAXX:137.391
;MAXY:225.5
;MAXZ:5.04
;Generated with Cura_SteamEngine 5.3.1
M140 S60
M105
M190 S60
M104 S195
M105
M109 S195
M82 ;absolute extrusion mode
; Ender 3 Custom Start G-code
G92 E0 ; Reset Extruder
G28 ; Home all axes
G1 Z2.0 F3000 ; Move Z Axis up little to prevent scratching of Heat Bed
G1 X0.1 Y20 Z0.3 F5000.0 ; Move to start position
G1 X0.1 Y200.0 Z0.3 F1500.0 E15 ; Draw the first line
G1 X0.4 Y200.0 Z0.3 F5000.0 ; Move to side a little
G1 X0.4 Y20 Z0.3 F1500.0 E30 ; Draw the second line
G92 E0 ; Reset Extruder
G1 Z2.0 F3000 ; Move Z Axis up little to prevent scratching of Heat Bed
G1 X5 Y20 Z0.3 F5000.0 ; Move over to prevent blob squish
G92 E0
G92 E0
G1 F2700 E-5
;LAYER_COUNT:18
;LAYER:0
M107
G0 F6000 X61.543 Y225.5 Z0.28
;TYPE:SKIRT
G1 F2700 E0
G1 F1200 X61.23 Y224.975 E0.02846
G1 X60.791 Y222.777 E0.13283
G1 X60.791 Y21.278 E9.51547
G1 X61.257 Y19.382 E9.60638
G1 X62.31 Y17.355 E9.71274
G1 X63.885 Y15.881 E9.81319
G1 X65.757 Y14.769 E9.91458
G1 X67.944 Y14.331 E10.01843
G1 X130.444 Y14.331 E12.9287
G1 X132.34 Y14.797 E13.01961
G1 X134.367 Y15.85 E13.12597
G1 X135.841 Y17.425 E13.22642
G1 X136.953 Y19.297 E13.3278
G1 X137.391 Y21.484 E13.43166
G1 X137.391 Y222.984 E22.81435
G1 X136.925 Y224.88 E22.90526
G1 X136.603 Y225.5 E22.93779
G1 F2700 E17.93779
G0 F6000 X62.009 Y225.5
G1 F2700 E22.93779
G1 F1200 X61.608 Y224.827 E22.97427
G1 X61.191 Y222.739 E23.07342
G1 X61.191 Y21.324 E32.45214
G1 X61.633 Y19.525 E32.5384
G1 X62.633 Y17.6 E32.63941
G1 X64.126 Y16.203 E32.73462
G1 X65.903 Y15.147 E32.83087
G1 X67.982 Y14.731 E32.9296
G1 X130.398 Y14.731 E35.83595
G1 X132.197 Y15.173 E35.92221
G1 X134.122 Y16.173 E36.02322
G1 X135.519 Y17.666 E36.11843
G1 X136.575 Y19.443 E36.21468
G1 X136.991 Y21.522 E36.3134
G1 X136.991 Y222.938 E45.69218
G1 X136.549 Y224.737 E45.77844
G1 X136.153 Y225.5 E45.81847
G1 F2700 E40.81847
G0 F6000 X62.475 Y225.5
G1 F2700 E45.81847
G1 F1200 X61.986 Y224.679 E45.86296
G1 X61.591 Y222.701 E45.95688
G1 X61.591 Y21.371 E55.33165
G1 X62.01 Y19.667 E55.41336
G1 X62.956 Y17.845 E55.50896
G1 X64.367 Y16.525 E55.59893
G1 X66.049 Y15.526 E55.69002
G1 X68.021 Y15.131 E55.78367
G1 X130.351 Y15.131 E58.68601
G1 X132.055 Y15.55 E58.76772
G1 X133.877 Y16.496 E58.86332
G1 X135.197 Y17.907 E58.95329
G1 X136.196 Y19.589 E59.04438
G1 X136.591 Y21.561 E59.13803
G1 X136.591 Y222.891 E68.5128
G1 X136.172 Y224.595 E68.59451
G1 X135.702 Y225.5 E68.64199
G1 F2700 E63.64199
G0 F6000 X62.941 Y225.5
G1 F2700 E68.64199
G1 F1200 X62.364 Y224.531 E68.69451
G1 X61.991 Y222.663 E68.7832
G1 X61.991 Y21.417 E78.15406
G1 X62.386 Y19.81 E78.23112
G1 X63.279 Y18.09 E78.32136
G1 X64.608 Y16.847 E78.40609
G1 X66.195 Y15.904 E78.49205
G1 X68.059 Y15.531 E78.58057
G1 X130.305 Y15.531 E81.479
G1 X131.912 Y15.926 E81.55606
G1 X133.632 Y16.819 E81.6463
G1 X134.875 Y18.148 E81.73103
G1 X135.818 Y19.735 E81.81699
G1 X136.191 Y21.599 E81.90551
G1 X136.191 Y222.845 E91.27636
G1 X135.796 Y224.452 E91.35342
G1 X135.252 Y225.5 E91.4084
G1 F2700 E86.4084
G0 F6000 X63.407 Y225.5
G1 F2700 E91.4084
G1 F1200 X62.742 Y224.383 E91.46893
G1 X62.391 Y222.625 E91.55241
G1 X62.391 Y21.463 E100.91935
G1 X62.762 Y19.953 E100.99176
G1 X63.602 Y18.335 E101.07665
G1 X64.849 Y17.169 E101.15614
G1 X66.341 Y16.282 E101.23696
G1 X68.097 Y15.931 E101.32035
G1 X130.259 Y15.931 E104.21487
G1 X131.769 Y16.302 E104.28728
G1 X133.387 Y17.142 E104.37216
G1 X134.553 Y18.389 E104.45166
G1 X135.44 Y19.881 E104.53248
G1 X135.791 Y21.637 E104.61587
G1 X135.791 Y222.799 E113.98281
G1 X135.42 Y224.309 E114.05522
G1 X134.802 Y225.5 E114.11769
G1 F2700 E109.11769
G0 F6000 X63.873 Y225.5
G1 F2700 E114.11769
G1 F1200 X63.12 Y224.235 E114.18624
G1 X62.791 Y222.587 E114.2645
G1 X62.791 Y21.51 E123.62748
G1 X63.139 Y20.095 E123.69534
G1 X63.925 Y18.58 E123.77481
G1 X65.09 Y17.491 E123.84907
G1 X66.487 Y16.66 E123.92476
G1 X68.135 Y16.331 E124.00301
G1 X130.212 Y16.331 E126.89357
G1 X131.627 Y16.679 E126.96142
G1 X133.142 Y17.465 E127.0409
G1 X134.231 Y18.63 E127.11516
G1 X135.062 Y20.027 E127.19084
G1 X135.391 Y21.675 E127.2691
G1 X135.391 Y222.752 E136.63208
G1 X135.043 Y224.167 E136.69994
G1 X134.352 Y225.5 E136.76985
G1 F2700 E131.76985
G0 F6000 X64.374 Y225.5
G1 F2700 E136.76985
G1 F1200 X64.277 Y225.396 E136.77647
G1 X63.498 Y224.087 E136.8474
G1 X63.191 Y222.549 E136.92043
G1 X63.191 Y21.556 E146.27951
G1 X63.515 Y20.238 E146.3427
G1 X64.248 Y18.825 E146.41683
G1 X65.329 Y17.815 E146.48571
G1 X66.635 Y17.038 E146.55647
G1 X68.173 Y16.731 E146.6295
G1 X130.166 Y16.731 E149.51616
G1 X131.484 Y17.055 E149.57936
G1 X132.897 Y17.788 E149.65348
G1 X133.907 Y18.869 E149.72236
G1 X134.684 Y20.175 E149.79313
G1 X134.991 Y21.713 E149.86616
G1 X134.991 Y222.706 E159.22523
G1 X134.667 Y224.024 E159.28843
G1 X133.933 Y225.439 E159.36266
G1 X133.868 Y225.5 E159.36681
G1 F2700 E154.36681
G0 F6000 X64.921 Y225.5
G1 F2700 E159.36681
G1 F1200 X64.601 Y225.157 E159.38865
G1 X63.876 Y223.939 E159.45465
G1 X63.591 Y222.511 E159.52246
G1 X63.591 Y21.602 E168.87762
G1 X63.891 Y20.381 E168.93617
G1 X64.571 Y19.07 E169.00494
G1 X65.568 Y18.139 E169.06845
G1 X66.783 Y17.416 E169.13429
G1 X68.211 Y17.131 E169.20209
G1 X130.12 Y17.131 E172.08484
G1 X131.341 Y17.431 E172.14338
G1 X132.652 Y18.111 E172.21215
G1 X133.583 Y19.108 E172.27567
G1 X134.306 Y20.323 E172.3415
G1 X134.591 Y21.751 E172.40931
G1 X134.591 Y222.66 E181.76447
G1 X134.291 Y223.881 E181.82302
G1 X133.61 Y225.194 E181.89189
G1 X133.282 Y225.5 E181.91278
G1 F2700 E176.91278
G0 F6000 X65.468 Y225.5
G1 F2700 E181.91278
G1 F1200 X64.923 Y224.915 E181.95001
G1 X64.254 Y223.791 E182.01092
G1 X63.991 Y222.473 E182.0735
G1 X63.991 Y21.648 E191.42475
G1 X64.267 Y20.524 E191.47864
G1 X64.894 Y19.315 E191.54206
G1 X65.807 Y18.463 E191.60021
G1 X66.931 Y17.794 E191.66112
G1 X68.249 Y17.531 E191.7237
G1 X130.074 Y17.531 E194.60253
G1 X131.198 Y17.807 E194.65642
G1 X132.407 Y18.434 E194.71984
G1 X133.259 Y19.347 E194.77799
G1 X133.928 Y20.471 E194.83889
G1 X134.191 Y21.789 E194.90148
G1 X134.191 Y222.614 E204.25273
G1 X133.915 Y223.738 E204.30662
G1 X133.288 Y224.947 E204.37004
G1 X132.695 Y225.5 E204.40779
G1 F2700 E199.40779
G0 F6000 X66.016 Y225.5
G1 F2700 E204.40779
G1 F1200 X65.245 Y224.673 E204.46044
G1 X64.632 Y223.643 E204.51625
G1 X64.391 Y222.435 E204.57361
G1 X64.391 Y21.695 E213.92091
G1 X64.644 Y20.666 E213.97025
G1 X65.216 Y19.562 E214.02815
G1 X66.049 Y18.785 E214.08119
G1 X67.079 Y18.172 E214.137
G1 X68.287 Y17.931 E214.19436
G1 X130.027 Y17.931 E217.06923
G1 X131.056 Y18.184 E217.11857
G1 X132.16 Y18.756 E217.17647
G1 X132.937 Y19.589 E217.22951
G1 X133.55 Y20.619 E217.28533
G1 X133.791 Y21.827 E217.34268
G1 X133.791 Y222.567 E226.68998
G1 X133.538 Y223.596 E226.73932
G1 X132.966 Y224.7 E226.79722
G1 X132.134 Y225.476 E226.8502
G1 X132.094 Y225.5 E226.85237
G1 F2700 E221.85237
G0 F6000 X66.879 Y225.5
G1 F2700 E226.85237
G1 F1200 X66.269 Y225.184 E226.88436
G1 X65.567 Y224.431 E226.93229
G1 X65.01 Y223.495 E226.98301
G1 X64.791 Y222.397 E227.03515
G1 X64.791 Y21.741 E236.37853
G1 X65.02 Y20.809 E236.42322
G1 X65.538 Y19.809 E236.47566
G1 X66.291 Y19.107 E236.52359
G1 X67.227 Y18.55 E236.57431
G1 X68.325 Y18.331 E236.62645
G1 X129.981 Y18.331 E239.49741
G1 X130.913 Y18.56 E239.5421
G1 X131.913 Y19.078 E239.59454
G1 X132.615 Y19.831 E239.64247
G1 X133.172 Y20.767 E239.69319
G1 X133.391 Y21.865 E239.74533
G1 X133.391 Y222.521 E249.08871
G1 X133.162 Y223.453 E249.1334
G1 X132.644 Y224.453 E249.18584
G1 X131.891 Y225.155 E249.23378
G1 X131.311 Y225.5 E249.2652
G1 F2700 E244.2652
G0 F6000 X68.121 Y225.5
G1 F2700 E249.2652
G1 F1200 X67.412 Y225.326 E249.29919
G1 X66.516 Y224.862 E249.34618
G1 X65.889 Y224.189 E249.38901
G1 X65.388 Y223.347 E249.43463
G1 X65.191 Y222.359 E249.48154
G1 X65.191 Y21.787 E258.82101
G1 X65.396 Y20.952 E258.86105
G1 X65.86 Y20.056 E258.90803
G1 X66.533 Y19.429 E258.95086
G1 X67.375 Y18.928 E258.99649
G1 X68.363 Y18.731 E259.0434
G1 X129.935 Y18.731 E261.91045
G1 X130.77 Y18.936 E261.95048
G1 X131.666 Y19.4 E261.99747
G1 X132.293 Y20.073 E262.0403
G1 X132.794 Y20.915 E262.08592
G1 X132.991 Y21.903 E262.13283
G1 X132.991 Y222.475 E271.4723
G1 X132.786 Y223.31 E271.51234
G1 X132.322 Y224.206 E271.55932
G1 X131.649 Y224.833 E271.60215
G1 X130.807 Y225.334 E271.64778
G1 X129.974 Y225.5 E271.68733
G1 F2700 E266.68733
G0 F6000 X67.938 Y222.784
G0 X65.772 Y21.095
G1 F2700 E271.68733
G1 F1200 X66.182 Y20.303 E271.72885
G1 X66.775 Y19.751 E271.76658
G1 X67.523 Y19.306 E271.80711
G1 X68.401 Y19.131 E271.84879
G1 X129.889 Y19.131 E274.71193
G1 X130.627 Y19.312 E274.74732
G1 X131.419 Y19.722 E274.78884
G1 X131.971 Y20.315 E274.82657
G1 X132.416 Y21.063 E274.8671
G1 X132.591 Y21.941 E274.90878
G1 X132.591 Y222.429 E284.24434
G1 X132.41 Y223.167 E284.27973
G1 X132 Y223.959 E284.32125
G1 X131.407 Y224.511 E284.35898
G1 X130.659 Y224.956 E284.39951
G1 X129.781 Y225.131 E284.44119
G1 X68.293 Y225.131 E287.30433
G1 X67.555 Y224.95 E287.33972
G1 X66.763 Y224.54 E287.38124
G1 X66.211 Y223.947 E287.41897
G1 X65.766 Y223.199 E287.45949
G1 X65.591 Y222.321 E287.50118
G1 X65.591 Y21.833 E296.83674
G1 X65.772 Y21.095 E296.87213
G0 F6000 X66.15 Y21.234
G1 F1200 X66.505 Y20.548 E296.90809
G1 X67.014 Y20.075 E296.94045
G1 X67.671 Y19.684 E296.97605
G1 X68.439 Y19.531 E297.01251
G1 X129.839 Y19.531 E299.87155
G1 X130.488 Y19.69 E299.90267
G1 X131.174 Y20.045 E299.93863
G1 X131.647 Y20.554 E299.97099
G1 X132.038 Y21.211 E300.00659
G1 X132.191 Y21.979 E300.04305
G1 X132.191 Y222.379 E309.37452
G1 X132.032 Y223.028 E309.40563
G1 X131.677 Y223.714 E309.4416
G1 X131.168 Y224.187 E309.47395
G1 X130.511 Y224.578 E309.50955
G1 X129.743 Y224.731 E309.54602
G1 X68.343 Y224.731 E312.40506
G1 X67.694 Y224.572 E312.43617
G1 X67.008 Y224.217 E312.47214
G1 X66.535 Y223.708 E312.50449
G1 X66.144 Y223.051 E312.54009
G1 X65.991 Y222.283 E312.57656
G1 X65.991 Y21.883 E321.90802
G1 X66.15 Y21.234 E321.93914
G0 F6000 X66.528 Y21.373
G1 F1200 X66.828 Y20.793 E321.96954
G1 X67.253 Y20.399 E321.99653
G1 X67.819 Y20.062 E322.0272
G1 X68.477 Y19.931 E322.05844
G1 X129.789 Y19.931 E324.91338
G1 X130.349 Y20.068 E324.94023
G1 X130.929 Y20.368 E324.97064
G1 X131.323 Y20.793 E324.99762
G1 X131.66 Y21.359 E325.02829
G1 X131.791 Y22.017 E325.05954
G1 X131.791 Y222.329 E334.3869
G1 X131.654 Y222.889 E334.41375
G1 X131.354 Y223.469 E334.44415
G1 X130.929 Y223.863 E334.47114
G1 X130.363 Y224.2 E334.50181
G1 X129.705 Y224.331 E334.53305
G1 X68.393 Y224.331 E337.38799
G1 X67.833 Y224.194 E337.41484
G1 X67.253 Y223.894 E337.44525
G1 X66.859 Y223.469 E337.47223
G1 X66.522 Y222.903 E337.5029
G1 X66.391 Y222.245 E337.53415
G1 X66.391 Y21.933 E346.86151
G1 X66.528 Y21.373 E346.88836
G0 F6000 X66.906 Y21.512
G1 F1200 X67.151 Y21.039 E346.91316
G1 X67.492 Y20.723 E346.93481
G1 X67.967 Y20.44 E346.96055
G1 X68.515 Y20.331 E346.98657
G1 X129.739 Y20.331 E349.83742
G1 X130.21 Y20.446 E349.85999
G1 X130.683 Y20.691 E349.8848
G1 X130.999 Y21.032 E349.90645
G1 X131.282 Y21.507 E349.93219
G1 X131.391 Y22.055 E349.95821
G1 X131.391 Y222.279 E359.28148
G1 X131.276 Y222.75 E359.30405
G1 X131.031 Y223.223 E359.32886
G1 X130.69 Y223.539 E359.3505
G1 X130.215 Y223.822 E359.37625
G1 X129.667 Y223.931 E359.40227
G1 X68.443 Y223.931 E362.25311
G1 X67.972 Y223.816 E362.27569
G1 X67.499 Y223.571 E362.30049
G1 X67.183 Y223.23 E362.32214
G1 X66.9 Y222.755 E362.34789
G1 X66.791 Y222.207 E362.3739
G1 X66.791 Y21.983 E371.69717
G1 X66.906 Y21.512 E371.71975
G0 F6000 X67.284 Y21.651
G1 F1200 X67.474 Y21.285 E371.73895
G1 X67.731 Y21.047 E371.75526
G1 X68.115 Y20.818 E371.77608
G1 X68.553 Y20.731 E371.79687
G1 X129.689 Y20.731 E374.64362
G1 X130.071 Y20.824 E374.66193
G1 X130.437 Y21.014 E374.68113
G1 X130.675 Y21.271 E374.69744
G1 X130.904 Y21.655 E374.71826
G1 X130.991 Y22.093 E374.73905
G1 X130.991 Y222.229 E384.05822
G1 X130.898 Y222.611 E384.07653
G1 X130.708 Y222.977 E384.09573
G1 X130.451 Y223.215 E384.11204
G1 X130.067 Y223.444 E384.13286
G1 X129.629 Y223.531 E384.15366
G1 X68.493 Y223.531 E387.0004
G1 X68.111 Y223.438 E387.01871
G1 X67.745 Y223.248 E387.03791
G1 X67.507 Y222.991 E387.05422
G1 X67.278 Y222.607 E387.07504
G1 X67.191 Y222.169 E387.09584
G1 X67.191 Y22.033 E396.41501
G1 X67.284 Y21.651 E396.43331
G0 F6000 X67.661 Y21.793
G1 F1200 X67.798 Y21.53 E396.44712
G1 X67.936 Y21.391 E396.45624
G1 X68.263 Y21.196 E396.47397
G1 X68.591 Y21.131 E396.48954
G1 X129.64 Y21.131 E399.33224
G1 X129.929 Y21.201 E399.34608
G1 X130.192 Y21.338 E399.35989
G1 X130.331 Y21.476 E399.36901
G1 X130.526 Y21.803 E399.38674
G1 X130.591 Y22.131 E399.40231
G1 X130.591 Y222.18 E408.71743
G1 X130.521 Y222.469 E408.73128
G1 X130.384 Y222.732 E408.74508
G1 X130.246 Y222.871 E408.75421
G1 X129.919 Y223.066 E408.77193
G1 X129.591 Y223.131 E408.7875
G1 X68.542 Y223.131 E411.6302
G1 X68.253 Y223.061 E411.64405
G1 X67.99 Y222.924 E411.65786
G1 X67.851 Y222.786 E411.66698
G1 X67.656 Y222.459 E411.6847
G1 X67.591 Y222.131 E411.70027
G1 X67.591 Y22.082 E421.01539
G1 X67.661 Y21.793 E421.02924
G0 F6000 X68.05 Y21.887
G1 F1200 X68.141 Y21.735 E421.03749
G1 X68.411 Y21.574 E421.05213
G1 X68.591 Y21.531 E421.06074
G1 X129.591 Y21.531 E423.90116
G1 X129.835 Y21.59 E423.91285
G1 X129.987 Y21.681 E423.9211
G1 X130.148 Y21.951 E423.93574
G1 X130.191 Y22.131 E423.94435
G1 X130.191 Y222.131 E433.25719
G1 X130.132 Y222.375 E433.26888
G1 X130.041 Y222.527 E433.27713
G1 X129.771 Y222.688 E433.29177
G1 X129.591 Y222.731 E433.30038
G1 X68.591 Y222.731 E436.1408
G1 X68.347 Y222.672 E436.15249
G1 X68.195 Y222.581 E436.16074
G1 X68.034 Y222.311 E436.17538
G1 X67.991 Y222.131 E436.18399
G1 X67.991 Y22.131 E445.49683
G1 X68.05 Y21.887 E445.50852
G0 F6000 X68.391 Y22.131
G1 F1200 X68.43 Y22.012 E445.51435
G1 X68.591 Y21.931 E445.52274
G1 X129.591 Y21.931 E448.36316
G1 X129.71 Y21.97 E448.36899
G1 X129.791 Y22.131 E448.37738
G1 X129.791 Y222.131 E457.69022
G1 X129.752 Y222.25 E457.69605
G1 X129.591 Y222.331 E457.70444
G1 X68.591 Y222.331 E460.54486
G1 X68.472 Y222.292 E460.55069
G1 X68.391 Y222.131 E460.55908
G1 X68.391 Y22.131 E469.87192
G1 F2700 E464.87192
;MESH:megav1-LcdBezel.stl
G0 F6000 X72.528 Y37.134
G0 X123.388 Y207.726
;TYPE:WALL-INNER
G1 F2700 E469.87192
G1 F1200 X73.229 Y207.731 E472.20753
G1 X72.947 Y207.611 E472.2218
G1 X72.827 Y207.491 E472.22971
G1 X72.708 Y207.205 E472.24413
G1 X72.708 Y37.131 E480.16349
G1 X72.74 Y36.936 E480.17269
G1 X72.827 Y36.77 E480.18142
G1 X72.947 Y36.651 E480.18929
G1 X73.229 Y36.531 E480.20356
G1 X123.388 Y36.536 E482.53917
G1 X123.572 Y36.591 E482.54811
G1 X123.761 Y36.736 E482.5592
G1 X123.909 Y37.019 E482.57408
G1 X123.909 Y207.243 E490.50042
G1 X123.761 Y207.526 E490.51529
G1 X123.572 Y207.671 E490.52638
G1 X123.388 Y207.726 E490.53532
G1 F2700 E485.53532
G0 F6000 X123.65 Y207.834
G0 X128.791 Y207.834
G0 X128.991 Y221.531
G1 F2700 E490.53532
G1 F1200 X128.991 Y22.731 E499.79228
G1 X69.191 Y22.731 E502.57682
G1 X69.191 Y221.531 E511.83378
G1 X128.991 Y221.531 E514.61832
G0 F6000 X129.391 Y221.931
;TYPE:WALL-OUTER
G1 F1200 X129.391 Y22.331 E523.91253
G1 X68.791 Y22.331 E526.73432
G1 X68.791 Y221.931 E536.02854
G1 X129.391 Y221.931 E538.85033
G1 F2700 E533.85033
G0 F6000 X129.121 Y221.661
G0 X128.791 Y207.182
G0 X124.089 Y207.182
G0 X123.429 Y207.292
G1 F2700 E538.85033
G1 F1200 X123.335 Y207.33 E538.85505
G1 X73.271 Y207.328 E541.18624
G1 X73.147 Y207.251 E541.19303
G1 X73.11 Y207.166 E541.19735
G1 X73.108 Y37.085 E549.11703
G1 X73.187 Y36.971 E549.12349
G1 X73.271 Y36.934 E549.12777
G1 X123.335 Y36.932 E551.45896
G1 X123.429 Y36.97 E551.46368
G1 X123.509 Y37.131 E551.47205
G1 X123.506 Y207.166 E559.38959
G1 X123.429 Y207.292 E559.39647
G1 F2700 E554.39647
G0 F6000 X124.009 Y207.182
G0 X123.897 Y207.646
G0 X128.791 Y207.646
G0 X128.631 Y221.171
;TYPE:SKIN
G1 F2700 E559.39647
G1 F1200 X69.551 Y221.171 E562.14748
G1 X69.551 Y23.091 E571.37091
G1 X128.631 Y23.091 E574.12193
G1 X128.631 Y221.171 E583.34536
G1 F2700 E578.34536
G0 F6000 X128.891 Y221.171
G0 X128.791 Y207.833
