;FLAVOR:Marlin
;TIME:5191
;Filament used: 4.15123m
;Layer height: 0.28
;MINX:57.2
;MINY:52.367
;MINZ:0.28
;MAXX:176.8
;MAXY:197.967
;MAXZ:10.08
;Generated with Cura_SteamEngine 5.3.1
M140 S60
M105
M190 S60
M104 S195
M105
M109 S195
M82 ;absolute extrusion mode
; Ender 3 Custom Start G-code
G92 E0 ; Reset Extruder
G28 ; Home all axes
G1 Z2.0 F3000 ; Move Z Axis up little to prevent scratching of Heat Bed
G1 X0.1 Y20 Z0.3 F5000.0 ; Move to start position
G1 X0.1 Y200.0 Z0.3 F1500.0 E15 ; Draw the first line
G1 X0.4 Y200.0 Z0.3 F5000.0 ; Move to side a little
G1 X0.4 Y20 Z0.3 F1500.0 E30 ; Draw the second line
G92 E0 ; Reset Extruder
G1 Z2.0 F3000 ; Move Z Axis up little to prevent scratching of Heat Bed
G1 X5 Y20 Z0.3 F5000.0 ; Move over to prevent blob squish
G92 E0
G92 E0
G1 F2700 E-5
;LAYER_COUNT:36
;LAYER:0
M107
G0 F6000 X58.719 Y55.391 Z0.28
;TYPE:SKIRT
G1 F2700 E0
G1 F1200 X60.294 Y53.917 E0.10045
G1 X62.166 Y52.805 E0.20183
G1 X64.353 Y52.367 E0.30569
G1 X169.853 Y52.367 E5.21821
G1 X171.749 Y52.833 E5.30913
G1 X173.776 Y53.886 E5.41549
G1 X175.25 Y55.461 E5.51593
G1 X176.362 Y57.333 E5.61732
G1 X176.8 Y59.52 E5.72118
G1 X176.8 Y191.02 E11.84437
G1 X176.334 Y192.916 E11.93528
G1 X175.281 Y194.943 E12.04165
G1 X173.706 Y196.417 E12.14209
G1 X171.834 Y197.529 E12.24348
G1 X169.647 Y197.967 E12.34734
G1 X148.147 Y197.967 E13.34847
G1 X146.251 Y197.501 E13.43938
G1 X144.224 Y196.448 E13.54574
G1 X142.75 Y194.873 E13.64619
G1 X141.638 Y193.001 E13.74757
G1 X141.2 Y190.814 E13.85143
G1 X141.2 Y75.967 E19.19919
G1 X136.8 Y75.967 E19.40407
G1 X136.8 Y81.02 E19.63936
G1 X136.334 Y82.916 E19.73027
G1 X135.281 Y84.943 E19.83664
G1 X133.706 Y86.417 E19.93708
G1 X131.834 Y87.529 E20.03847
G1 X129.647 Y87.967 E20.14233
G1 X113.147 Y87.967 E20.91064
G1 X111.251 Y87.501 E21.00155
G1 X109.224 Y86.448 E21.10791
G1 X107.75 Y84.873 E21.20836
G1 X106.638 Y83.001 E21.30975
G1 X106.2 Y80.814 E21.4136
G1 X106.2 Y75.967 E21.6393
G1 X83.304 Y75.967 E22.70543
G1 X82.282 Y77.943 E22.80902
G1 X80.706 Y79.417 E22.9095
G1 X78.834 Y80.529 E23.01089
G1 X76.647 Y80.967 E23.11475
G1 X64.147 Y80.967 E23.6968
G1 X62.251 Y80.501 E23.78771
G1 X60.224 Y79.448 E23.89408
G1 X58.75 Y77.873 E23.99452
G1 X57.638 Y76.001 E24.09591
G1 X57.2 Y73.814 E24.19977
G1 X57.2 Y59.314 E24.87495
G1 X57.666 Y57.418 E24.96586
G1 X58.719 Y55.391 E25.07222
G0 F6000 X59.042 Y55.636
G1 F1200 X60.535 Y54.239 E25.16743
G1 X62.312 Y53.183 E25.26368
G1 X64.391 Y52.767 E25.36241
G1 X169.807 Y52.767 E30.27102
G1 X171.606 Y53.209 E30.35728
G1 X173.531 Y54.209 E30.45829
G1 X174.928 Y55.702 E30.5535
G1 X175.984 Y57.479 E30.64975
G1 X176.4 Y59.558 E30.74848
G1 X176.4 Y190.974 E36.86775
G1 X175.958 Y192.773 E36.95401
G1 X174.958 Y194.698 E37.05502
G1 X173.465 Y196.095 E37.15023
G1 X171.688 Y197.151 E37.24648
G1 X169.609 Y197.567 E37.34521
G1 X148.193 Y197.567 E38.34243
G1 X146.394 Y197.125 E38.42869
G1 X144.469 Y196.125 E38.5297
G1 X143.072 Y194.632 E38.62491
G1 X142.016 Y192.855 E38.72116
G1 X141.6 Y190.776 E38.81989
G1 X141.6 Y75.567 E44.1845
G1 X136.4 Y75.567 E44.42663
G1 X136.4 Y80.974 E44.67841
G1 X135.958 Y82.773 E44.76467
G1 X134.958 Y84.698 E44.86567
G1 X133.465 Y86.095 E44.96088
G1 X131.688 Y87.151 E45.05714
G1 X129.609 Y87.567 E45.15586
G1 X113.193 Y87.567 E45.92026
G1 X111.394 Y87.125 E46.00652
G1 X109.469 Y86.125 E46.10753
G1 X108.072 Y84.632 E46.20274
G1 X107.016 Y82.855 E46.29899
G1 X106.6 Y80.776 E46.39771
G1 X106.6 Y75.567 E46.64027
G1 X83.008 Y75.567 E47.73881
G1 X82.936 Y75.815 E47.75083
G1 X81.958 Y77.698 E47.84964
G1 X80.465 Y79.095 E47.94484
G1 X78.688 Y80.151 E48.0411
G1 X76.609 Y80.567 E48.13982
G1 X64.193 Y80.567 E48.71796
G1 X62.394 Y80.125 E48.80422
G1 X60.469 Y79.125 E48.90523
G1 X59.072 Y77.632 E49.00044
G1 X58.016 Y75.855 E49.09669
G1 X57.6 Y73.776 E49.19542
G1 X57.6 Y59.36 E49.86669
G1 X58.042 Y57.561 E49.95295
G1 X59.042 Y55.636 E50.05396
G0 F6000 X59.365 Y55.881
G1 F1200 X60.776 Y54.561 E50.14393
G1 X62.458 Y53.562 E50.23502
G1 X64.43 Y53.167 E50.32867
G1 X169.76 Y53.167 E55.23328
G1 X171.464 Y53.586 E55.31499
G1 X173.286 Y54.532 E55.41058
G1 X174.606 Y55.943 E55.50055
G1 X175.605 Y57.625 E55.59164
G1 X176 Y59.597 E55.68529
G1 X176 Y190.927 E61.80057
G1 X175.581 Y192.631 E61.88228
G1 X174.635 Y194.453 E61.97787
G1 X173.224 Y195.773 E62.06784
G1 X171.542 Y196.772 E62.15893
G1 X169.57 Y197.167 E62.25258
G1 X148.24 Y197.167 E63.2458
G1 X146.536 Y196.748 E63.32751
G1 X144.714 Y195.802 E63.4231
G1 X143.394 Y194.391 E63.51307
G1 X142.395 Y192.709 E63.60416
G1 X142 Y190.737 E63.69781
G1 X142 Y75.167 E69.07924
G1 X136 Y75.167 E69.35862
G1 X136 Y80.927 E69.62683
G1 X135.581 Y82.631 E69.70854
G1 X134.635 Y84.453 E69.80413
G1 X133.224 Y85.773 E69.8941
G1 X131.542 Y86.772 E69.9852
G1 X129.57 Y87.167 E70.07885
G1 X113.24 Y87.167 E70.83924
G1 X111.536 Y86.748 E70.92095
G1 X109.714 Y85.802 E71.01654
G1 X108.394 Y84.391 E71.10651
G1 X107.395 Y82.709 E71.19761
G1 X107 Y80.737 E71.29126
G1 X107 Y75.167 E71.55062
G1 X82.695 Y75.167 E72.68236
G1 X82.581 Y75.631 E72.70461
G1 X81.635 Y77.453 E72.8002
G1 X80.224 Y78.773 E72.89017
G1 X78.542 Y79.772 E72.98127
G1 X76.57 Y80.167 E73.07492
G1 X64.24 Y80.167 E73.64905
G1 X62.536 Y79.748 E73.73076
G1 X60.714 Y78.802 E73.82635
G1 X59.394 Y77.391 E73.91632
G1 X58.395 Y75.709 E74.00742
G1 X58 Y73.737 E74.10107
G1 X58 Y59.407 E74.76833
G1 X58.419 Y57.703 E74.85004
G1 X59.365 Y55.881 E74.94563
G0 F6000 X59.688 Y56.126
G1 F1200 X61.017 Y54.883 E75.03037
G1 X62.604 Y53.94 E75.11633
G1 X64.468 Y53.567 E75.20484
G1 X169.714 Y53.567 E80.10554
G1 X171.321 Y53.962 E80.18259
G1 X173.041 Y54.855 E80.27283
G1 X174.284 Y56.184 E80.35757
G1 X175.227 Y57.771 E80.44353
G1 X175.6 Y59.635 E80.53204
G1 X175.6 Y190.881 E86.64341
G1 X175.205 Y192.488 E86.72046
G1 X174.312 Y194.208 E86.8107
G1 X172.983 Y195.451 E86.89544
G1 X171.396 Y196.394 E86.98139
G1 X169.532 Y196.767 E87.06991
G1 X148.286 Y196.767 E88.05921
G1 X146.679 Y196.372 E88.13627
G1 X144.959 Y195.479 E88.22651
G1 X143.716 Y194.15 E88.31124
G1 X142.773 Y192.563 E88.3972
G1 X142.4 Y190.699 E88.48572
G1 X142.4 Y74.767 E93.884
G1 X135.6 Y74.767 E94.20064
G1 X135.6 Y80.881 E94.48533
G1 X135.205 Y82.488 E94.56238
G1 X134.312 Y84.208 E94.65263
G1 X132.983 Y85.451 E94.73736
G1 X131.396 Y86.394 E94.82332
G1 X129.532 Y86.767 E94.91183
G1 X113.286 Y86.767 E95.66832
G1 X111.679 Y86.372 E95.74537
G1 X109.959 Y85.479 E95.83561
G1 X108.716 Y84.15 E95.92035
G1 X107.773 Y82.563 E96.0063
G1 X107.4 Y80.699 E96.09482
G1 X107.4 Y74.767 E96.37104
G1 X82.382 Y74.767 E97.53598
G1 X82.205 Y75.488 E97.57055
G1 X81.312 Y77.208 E97.66079
G1 X79.983 Y78.451 E97.74553
G1 X78.396 Y79.394 E97.83148
G1 X76.532 Y79.767 E97.92
G1 X64.286 Y79.767 E98.49023
G1 X62.679 Y79.372 E98.56728
G1 X60.959 Y78.479 E98.65752
G1 X59.716 Y77.15 E98.74226
G1 X58.773 Y75.563 E98.82822
G1 X58.4 Y73.699 E98.91673
G1 X58.4 Y59.453 E99.58009
G1 X58.795 Y57.846 E99.65714
G1 X59.688 Y56.126 E99.74738
G0 F6000 X60.011 Y56.371
G1 F1200 X61.258 Y55.205 E99.82688
G1 X62.75 Y54.318 E99.9077
G1 X64.506 Y53.967 E99.99109
G1 X169.668 Y53.967 E104.88787
G1 X171.178 Y54.338 E104.96027
G1 X172.796 Y55.178 E105.04516
G1 X173.962 Y56.425 E105.12466
G1 X174.849 Y57.917 E105.20548
G1 X175.2 Y59.673 E105.28886
G1 X175.2 Y190.835 E111.39632
G1 X174.829 Y192.345 E111.46872
G1 X173.989 Y193.963 E111.55361
G1 X172.742 Y195.129 E111.6331
G1 X171.25 Y196.016 E111.71393
G1 X169.494 Y196.367 E111.79731
G1 X148.332 Y196.367 E112.7827
G1 X146.822 Y195.996 E112.85511
G1 X145.204 Y195.156 E112.93999
G1 X144.038 Y193.909 E113.01949
G1 X143.151 Y192.417 E113.10031
G1 X142.8 Y190.661 E113.1837
G1 X142.8 Y74.367 E118.59883
G1 X135.2 Y74.367 E118.95272
G1 X135.2 Y80.835 E119.2539
G1 X134.829 Y82.345 E119.3263
G1 X133.989 Y83.963 E119.41119
G1 X132.742 Y85.129 E119.49068
G1 X131.25 Y86.016 E119.57151
G1 X129.494 Y86.367 E119.65489
G1 X113.332 Y86.367 E120.40746
G1 X111.822 Y85.996 E120.47987
G1 X110.204 Y85.156 E120.56476
G1 X109.038 Y83.909 E120.64425
G1 X108.151 Y82.417 E120.72507
G1 X107.8 Y80.661 E120.80846
G1 X107.8 Y74.367 E121.10153
G1 X82.069 Y74.367 E122.29968
G1 X81.829 Y75.345 E122.34657
G1 X80.989 Y76.963 E122.43146
G1 X79.742 Y78.129 E122.51095
G1 X78.25 Y79.016 E122.59177
G1 X76.494 Y79.367 E122.67516
G1 X64.332 Y79.367 E123.24147
G1 X62.822 Y78.996 E123.31388
G1 X61.204 Y78.156 E123.39876
G1 X60.038 Y76.909 E123.47826
G1 X59.151 Y75.417 E123.55908
G1 X58.8 Y73.661 E123.64247
G1 X58.8 Y59.499 E124.30191
G1 X59.171 Y57.989 E124.37431
G1 X60.011 Y56.371 E124.4592
G0 F6000 X60.334 Y56.616
G1 F1200 X61.499 Y55.527 E124.53346
G1 X62.896 Y54.696 E124.60915
G1 X64.544 Y54.367 E124.6874
G1 X169.621 Y54.367 E129.58023
G1 X171.036 Y54.715 E129.64808
G1 X172.551 Y55.501 E129.72755
G1 X173.64 Y56.666 E129.80181
G1 X174.471 Y58.063 E129.8775
G1 X174.8 Y59.711 E129.95575
G1 X174.8 Y190.788 E136.05924
G1 X174.452 Y192.203 E136.12709
G1 X173.666 Y193.718 E136.20657
G1 X172.501 Y194.807 E136.28083
G1 X171.104 Y195.638 E136.35651
G1 X169.456 Y195.967 E136.43477
G1 X148.379 Y195.967 E137.4162
G1 X146.964 Y195.619 E137.48405
G1 X145.449 Y194.833 E137.56353
G1 X144.36 Y193.668 E137.63778
G1 X143.529 Y192.271 E137.71347
G1 X143.2 Y190.623 E137.79172
G1 X143.2 Y73.967 E143.22372
G1 X134.8 Y73.967 E143.61485
G1 X134.8 Y80.788 E143.93247
G1 X134.452 Y82.203 E144.00032
G1 X133.666 Y83.718 E144.07979
G1 X132.501 Y84.807 E144.15405
G1 X131.104 Y85.638 E144.22974
G1 X129.456 Y85.967 E144.30799
G1 X113.379 Y85.967 E145.0566
G1 X111.964 Y85.619 E145.12446
G1 X110.449 Y84.833 E145.20393
G1 X109.36 Y83.668 E145.27819
G1 X108.529 Y82.271 E145.35388
G1 X108.2 Y80.623 E145.43213
G1 X108.2 Y73.967 E145.74206
G1 X81.756 Y73.967 E146.9734
G1 X81.453 Y75.202 E147.03262
G1 X80.666 Y76.718 E147.11215
G1 X79.501 Y77.807 E147.18641
G1 X78.104 Y78.638 E147.2621
G1 X76.456 Y78.967 E147.34035
G1 X64.379 Y78.967 E147.90271
G1 X62.964 Y78.619 E147.97056
G1 X61.449 Y77.833 E148.05003
G1 X60.36 Y76.668 E148.12429
G1 X59.529 Y75.271 E148.19998
G1 X59.2 Y73.623 E148.27823
G1 X59.2 Y59.546 E148.93371
G1 X59.548 Y58.131 E149.00156
G1 X60.334 Y56.616 E149.08104
G0 F6000 X60.657 Y56.861
G1 F1200 X61.738 Y55.851 E149.14993
G1 X63.044 Y55.074 E149.22069
G1 X64.582 Y54.767 E149.29372
G1 X169.575 Y54.767 E154.18263
G1 X170.893 Y55.091 E154.24583
G1 X172.306 Y55.824 E154.31995
G1 X173.316 Y56.905 E154.38884
G1 X174.093 Y58.211 E154.4596
G1 X174.4 Y59.749 E154.53263
G1 X174.4 Y190.742 E160.63221
G1 X174.076 Y192.06 E160.69541
G1 X173.343 Y193.473 E160.76953
G1 X172.262 Y194.483 E160.83842
G1 X170.956 Y195.26 E160.90918
G1 X169.418 Y195.567 E160.98221
G1 X148.425 Y195.567 E161.95973
G1 X147.107 Y195.243 E162.02293
G1 X145.694 Y194.51 E162.09705
G1 X144.684 Y193.429 E162.16594
G1 X143.907 Y192.123 E162.2367
G1 X143.6 Y190.585 E162.30973
G1 X143.6 Y73.567 E167.75858
G1 X134.4 Y73.567 E168.18697
G1 X134.4 Y80.742 E168.52107
G1 X134.076 Y82.06 E168.58426
G1 X133.343 Y83.473 E168.65839
G1 X132.262 Y84.483 E168.72727
G1 X130.956 Y85.26 E168.79804
G1 X129.418 Y85.567 E168.87106
G1 X113.425 Y85.567 E169.61576
G1 X112.107 Y85.243 E169.67896
G1 X110.694 Y84.51 E169.75308
G1 X109.684 Y83.429 E169.82197
G1 X108.907 Y82.123 E169.89273
G1 X108.6 Y80.585 E169.96576
G1 X108.6 Y73.567 E170.29255
G1 X81.4 Y73.567 E171.5591
G1 X81.388 Y73.791 E171.56954
G1 X81.076 Y75.06 E171.63039
G1 X80.343 Y76.473 E171.70451
G1 X79.262 Y77.483 E171.7734
G1 X77.956 Y78.26 E171.84416
G1 X76.418 Y78.567 E171.91719
G1 X64.425 Y78.567 E172.47563
G1 X63.107 Y78.243 E172.53883
G1 X61.694 Y77.51 E172.61295
G1 X60.684 Y76.429 E172.68184
G1 X59.907 Y75.123 E172.7526
G1 X59.6 Y73.585 E172.82563
G1 X59.6 Y59.592 E173.47721
G1 X59.924 Y58.274 E173.5404
G1 X60.657 Y56.861 E173.61453
G0 F6000 X60.98 Y57.106
G1 F1200 X61.977 Y56.175 E173.67804
G1 X63.192 Y55.452 E173.74388
G1 X64.62 Y55.167 E173.81168
G1 X169.529 Y55.167 E178.69669
G1 X170.75 Y55.467 E178.75523
G1 X172.061 Y56.147 E178.824
G1 X172.992 Y57.144 E178.88752
G1 X173.715 Y58.359 E178.95335
G1 X174 Y59.787 E179.02116
G1 X174 Y190.696 E185.11683
G1 X173.7 Y191.917 E185.17538
G1 X173.02 Y193.228 E185.24414
G1 X172.023 Y194.159 E185.30766
G1 X170.808 Y194.882 E185.3735
G1 X169.38 Y195.167 E185.4413
G1 X148.471 Y195.167 E186.41491
G1 X147.25 Y194.867 E186.47346
G1 X145.939 Y194.187 E186.54223
G1 X145.008 Y193.19 E186.60575
G1 X144.285 Y191.975 E186.67158
G1 X144 Y190.547 E186.73939
G1 X144 Y73.167 E192.20509
G1 X134 Y73.167 E192.67073
G1 X134 Y80.696 E193.02131
G1 X133.7 Y81.917 E193.07986
G1 X133.02 Y83.228 E193.14863
G1 X132.023 Y84.159 E193.21215
G1 X130.808 Y84.882 E193.27798
G1 X129.38 Y85.167 E193.34579
G1 X113.471 Y85.167 E194.08658
G1 X112.25 Y84.867 E194.14512
G1 X110.939 Y84.187 E194.21389
G1 X110.008 Y83.19 E194.27741
G1 X109.285 Y81.975 E194.34324
G1 X109 Y80.547 E194.41105
G1 X109 Y73.167 E194.75469
G1 X81 Y73.167 E196.05849
G1 X81 Y73.696 E196.08312
G1 X80.7 Y74.917 E196.14167
G1 X80.02 Y76.228 E196.21044
G1 X79.023 Y77.159 E196.27395
G1 X77.808 Y77.882 E196.33979
G1 X76.38 Y78.167 E196.40759
G1 X64.471 Y78.167 E196.96213
G1 X63.25 Y77.867 E197.02067
G1 X61.939 Y77.187 E197.08944
G1 X61.008 Y76.19 E197.15296
G1 X60.285 Y74.975 E197.21879
G1 X60 Y73.547 E197.2866
G1 X60 Y59.638 E197.93426
G1 X60.3 Y58.417 E197.99281
G1 X60.98 Y57.106 E198.06158
G0 F6000 X61.303 Y57.351
G1 F1200 X62.216 Y56.499 E198.11972
G1 X63.34 Y55.83 E198.18063
G1 X64.658 Y55.567 E198.24321
G1 X169.483 Y55.567 E203.1243
G1 X170.607 Y55.843 E203.1782
G1 X171.816 Y56.47 E203.24161
G1 X172.668 Y57.383 E203.29976
G1 X173.337 Y58.507 E203.36067
G1 X173.6 Y59.825 E203.42325
G1 X173.6 Y190.65 E209.51501
G1 X173.324 Y191.774 E209.5689
G1 X172.697 Y192.983 E209.63232
G1 X171.784 Y193.835 E209.69047
G1 X170.66 Y194.504 E209.75138
G1 X169.342 Y194.767 E209.81396
G1 X148.517 Y194.767 E210.78366
G1 X147.393 Y194.491 E210.83755
G1 X146.184 Y193.864 E210.90097
G1 X145.332 Y192.951 E210.95912
G1 X144.663 Y191.827 E211.02002
G1 X144.4 Y190.509 E211.0826
G1 X144.4 Y72.767 E216.56517
G1 X133.6 Y72.767 E217.06806
G1 X133.6 Y80.65 E217.43512
G1 X133.324 Y81.774 E217.48902
G1 X132.697 Y82.983 E217.55243
G1 X131.784 Y83.835 E217.61058
G1 X130.66 Y84.504 E217.67149
G1 X129.342 Y84.767 E217.73407
G1 X113.517 Y84.767 E218.47095
G1 X112.393 Y84.491 E218.52484
G1 X111.184 Y83.864 E218.58826
G1 X110.332 Y82.951 E218.64641
G1 X109.663 Y81.827 E218.70731
G1 X109.4 Y80.509 E218.7699
G1 X109.4 Y72.767 E219.1304
G1 X80.6 Y72.767 E220.47144
G1 X80.6 Y73.65 E220.51256
G1 X80.324 Y74.774 E220.56645
G1 X79.697 Y75.983 E220.62987
G1 X78.784 Y76.835 E220.68802
G1 X77.66 Y77.504 E220.74893
G1 X76.342 Y77.767 E220.81151
G1 X64.517 Y77.767 E221.36213
G1 X63.393 Y77.491 E221.41602
G1 X62.184 Y76.864 E221.47944
G1 X61.332 Y75.951 E221.53759
G1 X60.663 Y74.827 E221.59849
G1 X60.4 Y73.509 E221.66108
G1 X60.4 Y59.684 E222.30483
G1 X60.676 Y58.56 E222.35872
G1 X61.303 Y57.351 E222.42214
G0 F6000 X61.625 Y57.598
G1 F1200 X62.458 Y56.821 E222.47518
G1 X63.488 Y56.208 E222.53099
G1 X64.696 Y55.967 E222.58835
G1 X169.436 Y55.967 E227.46548
G1 X170.465 Y56.22 E227.51482
G1 X171.569 Y56.792 E227.57272
G1 X172.346 Y57.625 E227.62576
G1 X172.959 Y58.655 E227.68158
G1 X173.2 Y59.863 E227.73893
G1 X173.2 Y190.603 E233.82674
G1 X172.947 Y191.632 E233.87608
G1 X172.375 Y192.736 E233.93397
G1 X171.542 Y193.513 E233.98702
G1 X170.512 Y194.126 E234.04283
G1 X169.304 Y194.367 E234.10019
G1 X148.564 Y194.367 E235.06593
G1 X147.535 Y194.114 E235.11527
G1 X146.431 Y193.542 E235.17317
G1 X145.654 Y192.709 E235.22621
G1 X145.041 Y191.679 E235.28202
G1 X144.8 Y190.471 E235.33938
G1 X144.8 Y72.367 E240.8388
G1 X133.2 Y72.367 E241.37894
G1 X133.2 Y80.603 E241.76244
G1 X132.947 Y81.632 E241.81179
G1 X132.375 Y82.736 E241.86968
G1 X131.542 Y83.513 E241.92273
G1 X130.512 Y84.126 E241.97854
G1 X129.304 Y84.367 E242.0359
G1 X113.564 Y84.367 E242.76882
G1 X112.535 Y84.114 E242.81816
G1 X111.431 Y83.542 E242.87606
G1 X110.654 Y82.709 E242.9291
G1 X110.041 Y81.679 E242.98491
G1 X109.8 Y80.471 E243.04227
G1 X109.8 Y72.367 E243.41962
G1 X80.2 Y72.367 E244.79792
G1 X80.2 Y73.603 E244.85548
