;FLAVOR:Marlin
;TIME:11044
;Filament used: 9.49925m
;Layer height: 0.28
;MINX:67.201
;MINY:10.652
;MINZ:0.28
;MAXX:159.801
;MAXY:225.252
;MAXZ:3.36
;Generated with Cura_SteamEngine 5.3.1
M140 S60
M105
M190 S60
M104 S195
M105
M109 S195
M82 ;absolute extrusion mode
; Ender 3 Custom Start G-code
G92 E0 ; Reset Extruder
G28 ; Home all axes
G1 Z2.0 F3000 ; Move Z Axis up little to prevent scratching of Heat Bed
G1 X0.1 Y20 Z0.3 F5000.0 ; Move to start position
G1 X0.1 Y200.0 Z0.3 F1500.0 E15 ; Draw the first line
G1 X0.4 Y200.0 Z0.3 F5000.0 ; Move to side a little
G1 X0.4 Y20 Z0.3 F1500.0 E30 ; Draw the second line
G92 E0 ; Reset Extruder
G1 Z2.0 F3000 ; Move Z Axis up little to prevent scratching of Heat Bed
G1 X5 Y20 Z0.3 F5000.0 ; Move over to prevent blob squish
G92 E0
G92 E0
G1 F2700 E-5
;LAYER_COUNT:13
;LAYER:0
M107
G0 F6000 X67.667 Y15.703 Z0.28
;TYPE:SKIRT
G1 F2700 E0
G1 F1200 X67.201 Y17.599 E0.09091
G1 X67.201 Y218.099 E9.42703
G1 X67.639 Y220.286 E9.53089
G1 X68.751 Y222.158 E9.63228
G1 X70.225 Y223.733 E9.73272
G1 X72.252 Y224.786 E9.83909
G1 X74.148 Y225.252 E9.93
G1 X82.654 Y225.252 E10.32607
G1 X82.942 Y225.201 E10.33969
G1 X83.23 Y225.252 E10.35331
G1 X92.654 Y225.252 E10.79213
G1 X92.942 Y225.201 E10.80575
G1 X93.23 Y225.252 E10.81937
G1 X102.654 Y225.252 E11.25819
G1 X102.942 Y225.201 E11.27181
G1 X103.23 Y225.252 E11.28543
G1 X112.654 Y225.252 E11.72425
G1 X112.942 Y225.201 E11.73787
G1 X113.23 Y225.252 E11.75149
G1 X122.654 Y225.252 E12.19031
G1 X122.942 Y225.201 E12.20393
G1 X123.23 Y225.252 E12.21755
G1 X132.654 Y225.252 E12.65637
G1 X132.942 Y225.201 E12.66999
G1 X133.23 Y225.252 E12.68361
G1 X142.654 Y225.252 E13.12243
G1 X142.942 Y225.201 E13.13605
G1 X143.23 Y225.252 E13.14967
G1 X152.648 Y225.252 E13.58821
G1 X154.835 Y224.814 E13.69207
G1 X156.707 Y223.702 E13.79345
G1 X158.282 Y222.228 E13.8939
G1 X159.335 Y220.201 E14.00026
G1 X159.801 Y218.305 E14.09118
G1 X159.801 Y17.805 E23.4273
G1 X159.363 Y15.618 E23.53115
G1 X158.251 Y13.746 E23.63254
G1 X156.777 Y12.171 E23.73299
G1 X154.75 Y11.118 E23.83935
G1 X152.854 Y10.652 E23.93026
G1 X143.348 Y10.652 E24.3729
G1 X143.06 Y10.703 E24.38652
G1 X142.772 Y10.652 E24.40014
G1 X133.348 Y10.652 E24.83896
G1 X133.06 Y10.703 E24.85258
G1 X132.772 Y10.652 E24.8662
G1 X123.348 Y10.652 E25.30502
G1 X123.06 Y10.703 E25.31864
G1 X122.772 Y10.652 E25.33226
G1 X113.348 Y10.652 E25.77108
G1 X113.06 Y10.703 E25.7847
G1 X112.772 Y10.652 E25.79832
G1 X103.348 Y10.652 E26.23714
G1 X103.06 Y10.703 E26.25076
G1 X102.772 Y10.652 E26.26438
G1 X93.348 Y10.652 E26.7032
G1 X93.06 Y10.703 E26.71682
G1 X92.772 Y10.652 E26.73043
G1 X83.348 Y10.652 E27.16926
G1 X83.06 Y10.703 E27.18287
G1 X82.772 Y10.652 E27.19649
G1 X74.354 Y10.652 E27.58847
G1 X72.167 Y11.09 E27.69233
G1 X70.295 Y12.202 E27.79372
G1 X68.72 Y13.676 E27.89416
G1 X67.667 Y15.703 E28.00052
G0 F6000 X68.043 Y15.846
G1 F1200 X69.043 Y13.921 E28.10153
G1 X70.536 Y12.524 E28.19674
G1 X72.313 Y11.468 E28.29299
G1 X74.392 Y11.052 E28.39172
G1 X82.772 Y11.052 E28.78193
G1 X83.06 Y11.112 E28.79563
G1 X83.348 Y11.052 E28.80932
G1 X92.772 Y11.052 E29.24815
G1 X93.06 Y11.112 E29.26184
G1 X93.348 Y11.052 E29.27554
G1 X102.772 Y11.052 E29.71436
G1 X103.06 Y11.112 E29.72806
G1 X103.348 Y11.052 E29.74176
G1 X112.772 Y11.052 E30.18058
G1 X113.06 Y11.112 E30.19428
G1 X113.348 Y11.052 E30.20798
G1 X122.772 Y11.052 E30.6468
G1 X123.06 Y11.112 E30.6605
G1 X123.348 Y11.052 E30.6742
G1 X132.772 Y11.052 E31.11302
G1 X133.06 Y11.112 E31.12672
G1 X133.348 Y11.052 E31.14041
G1 X142.772 Y11.052 E31.57923
G1 X143.06 Y11.112 E31.59293
G1 X143.348 Y11.052 E31.60663
G1 X152.808 Y11.052 E32.04713
G1 X154.607 Y11.494 E32.13339
G1 X156.532 Y12.494 E32.2344
G1 X157.929 Y13.987 E32.32961
G1 X158.985 Y15.764 E32.42586
G1 X159.401 Y17.843 E32.52458
G1 X159.401 Y218.259 E41.85679
G1 X158.959 Y220.058 E41.94305
G1 X157.959 Y221.983 E42.04406
G1 X156.466 Y223.38 E42.13927
G1 X154.689 Y224.436 E42.23552
G1 X152.61 Y224.852 E42.33425
G1 X143.23 Y224.852 E42.77102
G1 X142.942 Y224.792 E42.78472
G1 X142.654 Y224.852 E42.79842
G1 X133.23 Y224.852 E43.23724
G1 X132.942 Y224.792 E43.25094
G1 X132.654 Y224.852 E43.26464
G1 X123.23 Y224.852 E43.70346
G1 X122.942 Y224.792 E43.71716
G1 X122.654 Y224.852 E43.73085
G1 X113.23 Y224.852 E44.16967
G1 X112.942 Y224.792 E44.18337
G1 X112.654 Y224.852 E44.19707
G1 X103.23 Y224.852 E44.63589
G1 X102.942 Y224.792 E44.64959
G1 X102.654 Y224.852 E44.66329
G1 X93.23 Y224.852 E45.10211
G1 X92.942 Y224.792 E45.11581
G1 X92.654 Y224.852 E45.12951
G1 X83.23 Y224.852 E45.56833
G1 X82.942 Y224.792 E45.58203
G1 X82.654 Y224.852 E45.59572
G1 X74.194 Y224.852 E45.98966
G1 X72.395 Y224.41 E46.07592
G1 X70.47 Y223.41 E46.17693
G1 X69.073 Y221.917 E46.27214
G1 X68.017 Y220.14 E46.36839
G1 X67.601 Y218.061 E46.46711
G1 X67.601 Y17.645 E55.79932
G1 X68.043 Y15.846 E55.88558
G0 F6000 X68.42 Y15.988
G1 F1200 X68.001 Y17.692 E55.96729
G1 X68.001 Y218.022 E65.2955
G1 X68.396 Y219.994 E65.38914
G1 X69.395 Y221.676 E65.48024
G1 X70.715 Y223.087 E65.57021
G1 X72.537 Y224.033 E65.6658
G1 X74.241 Y224.452 E65.74751
G1 X82.61 Y224.452 E66.13721
G1 X82.94 Y224.383 E66.1529
G1 X83.269 Y224.452 E66.16856
G1 X92.61 Y224.452 E66.60351
G1 X92.94 Y224.383 E66.61921
G1 X93.269 Y224.452 E66.63487
G1 X102.61 Y224.452 E67.06982
G1 X102.94 Y224.383 E67.08552
G1 X103.269 Y224.452 E67.10117
G1 X112.61 Y224.452 E67.53613
G1 X112.94 Y224.383 E67.55183
G1 X113.269 Y224.452 E67.56748
G1 X122.61 Y224.452 E68.00244
G1 X122.94 Y224.383 E68.01813
G1 X123.269 Y224.452 E68.03379
G1 X132.61 Y224.452 E68.46874
G1 X132.94 Y224.383 E68.48444
G1 X133.269 Y224.452 E68.5001
G1 X142.61 Y224.452 E68.93505
G1 X142.94 Y224.383 E68.95075
G1 X143.269 Y224.452 E68.9664
G1 X152.571 Y224.452 E69.39954
G1 X154.543 Y224.057 E69.49319
G1 X156.225 Y223.058 E69.58429
G1 X157.636 Y221.738 E69.67426
G1 X158.582 Y219.916 E69.76985
G1 X159.001 Y218.212 E69.85156
G1 X159.001 Y17.882 E79.17976
G1 X158.606 Y15.91 E79.27341
G1 X157.607 Y14.228 E79.3645
G1 X156.287 Y12.817 E79.45448
G1 X154.465 Y11.871 E79.55007
G1 X152.761 Y11.452 E79.63178
G1 X143.392 Y11.452 E80.06804
G1 X143.062 Y11.521 E80.08374
G1 X142.733 Y11.452 E80.09939
G1 X133.392 Y11.452 E80.53435
G1 X133.062 Y11.521 E80.55004
G1 X132.733 Y11.452 E80.5657
G1 X123.392 Y11.452 E81.00065
G1 X123.062 Y11.521 E81.01635
G1 X122.733 Y11.452 E81.032
G1 X113.392 Y11.452 E81.46696
G1 X113.062 Y11.521 E81.48266
G1 X112.733 Y11.452 E81.49831
G1 X103.392 Y11.452 E81.93327
G1 X103.062 Y11.521 E81.94897
G1 X102.733 Y11.452 E81.96462
G1 X93.392 Y11.452 E82.39958
G1 X93.062 Y11.521 E82.41527
G1 X92.733 Y11.452 E82.43093
G1 X83.392 Y11.452 E82.86588
G1 X83.062 Y11.521 E82.88158
G1 X82.733 Y11.452 E82.89723
G1 X74.431 Y11.452 E83.28381
G1 X72.459 Y11.847 E83.37746
G1 X70.777 Y12.846 E83.46855
G1 X69.366 Y14.166 E83.55852
G1 X68.42 Y15.988 E83.65412
G0 F6000 X68.796 Y16.131
G1 F1200 X69.689 Y14.411 E83.74436
G1 X71.018 Y13.168 E83.82909
G1 X72.605 Y12.225 E83.91505
G1 X74.469 Y11.852 E84.00357
G1 X82.733 Y11.852 E84.38837
G1 X83.054 Y11.931 E84.40377
G1 X83.431 Y11.852 E84.4217
G1 X92.733 Y11.852 E84.85484
G1 X93.054 Y11.931 E84.87023
G1 X93.431 Y11.852 E84.88817
G1 X102.733 Y11.852 E85.32131
G1 X103.054 Y11.931 E85.3367
G1 X103.431 Y11.852 E85.35464
G1 X112.733 Y11.852 E85.78778
G1 X113.054 Y11.931 E85.80317
G1 X113.431 Y11.852 E85.82111
G1 X122.733 Y11.852 E86.25425
G1 X123.054 Y11.931 E86.26964
G1 X123.431 Y11.852 E86.28758
G1 X132.733 Y11.852 E86.72072
G1 X133.054 Y11.931 E86.73611
G1 X133.431 Y11.852 E86.75405
G1 X142.733 Y11.852 E87.18719
G1 X143.054 Y11.931 E87.20258
G1 X143.431 Y11.852 E87.22052
G1 X152.715 Y11.852 E87.65282
G1 X154.322 Y12.247 E87.72987
G1 X156.042 Y13.14 E87.82012
G1 X157.285 Y14.469 E87.90485
G1 X158.228 Y16.056 E87.99081
G1 X158.601 Y17.92 E88.07932
G1 X158.601 Y218.166 E97.40362
G1 X158.206 Y219.773 E97.48067
G1 X157.313 Y221.493 E97.57091
G1 X155.984 Y222.736 E97.65565
G1 X154.397 Y223.679 E97.7416
G1 X152.533 Y224.052 E97.83012
G1 X143.269 Y224.052 E98.26149
G1 X142.948 Y223.973 E98.27689
G1 X142.571 Y224.052 E98.29482
G1 X133.269 Y224.052 E98.72796
G1 X132.948 Y223.973 E98.74335
G1 X132.571 Y224.052 E98.76129
G1 X123.269 Y224.052 E99.19443
G1 X122.948 Y223.973 E99.20982
G1 X122.571 Y224.052 E99.22776
G1 X113.269 Y224.052 E99.6609
G1 X112.948 Y223.973 E99.67629
G1 X112.571 Y224.052 E99.69423
G1 X103.269 Y224.052 E100.12737
G1 X102.948 Y223.973 E100.14276
G1 X102.571 Y224.052 E100.1607
G1 X93.269 Y224.052 E100.59384
G1 X92.948 Y223.973 E100.60923
G1 X92.571 Y224.052 E100.62717
G1 X83.269 Y224.052 E101.06031
G1 X82.948 Y223.973 E101.0757
G1 X82.571 Y224.052 E101.09364
G1 X74.287 Y224.052 E101.47937
G1 X72.68 Y223.657 E101.55643
G1 X70.96 Y222.764 E101.64667
G1 X69.717 Y221.435 E101.7314
G1 X68.774 Y219.848 E101.81736
G1 X68.401 Y217.984 E101.90588
G1 X68.401 Y17.738 E111.23017
G1 X68.796 Y16.131 E111.30723
G0 F6000 X69.172 Y16.274
G1 F1200 X70.012 Y14.656 E111.39212
G1 X71.259 Y13.49 E111.47161
G1 X72.751 Y12.603 E111.55244
G1 X74.507 Y12.252 E111.63582
G1 X82.687 Y12.252 E112.01671
G1 X83.049 Y12.341 E112.03407
G1 X83.475 Y12.252 E112.05434
G1 X92.687 Y12.252 E112.48329
G1 X93.049 Y12.341 E112.50064
G1 X93.475 Y12.252 E112.52091
G1 X102.687 Y12.252 E112.94986
G1 X103.049 Y12.341 E112.96722
G1 X103.475 Y12.252 E112.98748
G1 X112.687 Y12.252 E113.41643
G1 X113.049 Y12.341 E113.43379
G1 X113.475 Y12.252 E113.45405
G1 X122.687 Y12.252 E113.883
G1 X123.049 Y12.341 E113.90036
G1 X123.475 Y12.252 E113.92063
G1 X132.687 Y12.252 E114.34958
G1 X133.049 Y12.341 E114.36693
G1 X133.475 Y12.252 E114.3872
G1 X142.687 Y12.252 E114.81615
G1 X143.049 Y12.341 E114.83351
G1 X143.475 Y12.252 E114.85377
G1 X152.669 Y12.252 E115.28188
G1 X154.179 Y12.623 E115.35428
G1 X155.797 Y13.463 E115.43917
G1 X156.963 Y14.71 E115.51867
G1 X157.85 Y16.202 E115.59949
G1 X158.201 Y17.958 E115.68288
G1 X158.201 Y218.12 E125.00326
G1 X157.83 Y219.63 E125.07566
G1 X156.99 Y221.248 E125.16055
G1 X155.743 Y222.414 E125.24004
G1 X154.251 Y223.301 E125.32087
G1 X152.495 Y223.652 E125.40425
G1 X143.315 Y223.652 E125.83171
G1 X142.953 Y223.563 E125.84907
G1 X142.527 Y223.652 E125.86933
G1 X133.315 Y223.652 E126.29828
G1 X132.953 Y223.563 E126.31564
G1 X132.527 Y223.652 E126.33591
G1 X123.315 Y223.652 E126.76486
G1 X122.953 Y223.563 E126.78221
G1 X122.527 Y223.652 E126.80248
G1 X113.315 Y223.652 E127.23143
G1 X112.953 Y223.563 E127.24879
G1 X112.527 Y223.652 E127.26905
G1 X103.315 Y223.652 E127.698
G1 X102.953 Y223.563 E127.71536
G1 X102.527 Y223.652 E127.73562
G1 X93.315 Y223.652 E128.16457
G1 X92.953 Y223.563 E128.18193
G1 X92.527 Y223.652 E128.2022
G1 X83.315 Y223.652 E128.63114
G1 X82.953 Y223.563 E128.6485
G1 X82.527 Y223.652 E128.66877
G1 X74.333 Y223.652 E129.05031
G1 X72.823 Y223.281 E129.12272
G1 X71.205 Y222.441 E129.20761
G1 X70.039 Y221.194 E129.2871
G1 X69.152 Y219.702 E129.36793
G1 X68.801 Y217.946 E129.45131
G1 X68.801 Y17.784 E138.77169
G1 X69.172 Y16.274 E138.84409
G0 F6000 X69.549 Y16.416
G1 F1200 X70.335 Y14.901 E138.92357
G1 X71.5 Y13.812 E138.99782
G1 X72.897 Y12.981 E139.07351
G1 X74.545 Y12.652 E139.15177
G1 X82.641 Y12.652 E139.52875
G1 X83.044 Y12.751 E139.54807
G1 X83.519 Y12.652 E139.57067
G1 X92.641 Y12.652 E139.99542
G1 X93.044 Y12.751 E140.01475
G1 X93.519 Y12.652 E140.03734
G1 X102.641 Y12.652 E140.4621
G1 X103.044 Y12.751 E140.48142
G1 X103.519 Y12.652 E140.50402
G1 X112.641 Y12.652 E140.92877
G1 X113.044 Y12.751 E140.9481
G1 X113.519 Y12.652 E140.97069
G1 X122.641 Y12.652 E141.39545
G1 X123.044 Y12.751 E141.41477
G1 X123.519 Y12.652 E141.43737
G1 X132.641 Y12.652 E141.86212
G1 X133.044 Y12.751 E141.88145
G1 X133.519 Y12.652 E141.90404
G1 X142.641 Y12.652 E142.3288
G1 X143.044 Y12.751 E142.34812
G1 X143.519 Y12.652 E142.37072
G1 X152.622 Y12.652 E142.79459
G1 X154.037 Y13 E142.86244
G1 X155.552 Y13.786 E142.94192
G1 X156.641 Y14.951 E143.01617
G1 X157.472 Y16.348 E143.09186
G1 X157.801 Y17.996 E143.17011
G1 X157.801 Y218.073 E152.48654
G1 X157.453 Y219.488 E152.55439
G1 X156.667 Y221.003 E152.63386
G1 X155.502 Y222.092 E152.70812
G1 X154.105 Y222.923 E152.78381
G1 X152.457 Y223.252 E152.86206
G1 X143.361 Y223.252 E153.28561
G1 X142.958 Y223.153 E153.30493
G1 X142.483 Y223.252 E153.32752
G1 X133.361 Y223.252 E153.75228
G1 X132.958 Y223.153 E153.77161
G1 X132.483 Y223.252 E153.7942
G1 X123.361 Y223.252 E154.21896
G1 X122.958 Y223.153 E154.23828
G1 X122.483 Y223.252 E154.26087
G1 X113.361 Y223.252 E154.68563
G1 X112.958 Y223.153 E154.70496
G1 X112.483 Y223.252 E154.72755
G1 X103.361 Y223.252 E155.15231
G1 X102.958 Y223.153 E155.17163
G1 X102.483 Y223.252 E155.19423
G1 X93.361 Y223.252 E155.61898
G1 X92.958 Y223.153 E155.63831
G1 X92.483 Y223.252 E155.6609
G1 X83.361 Y223.252 E156.08566
G1 X82.958 Y223.153 E156.10498
G1 X82.483 Y223.252 E156.12758
G1 X74.38 Y223.252 E156.50489
G1 X72.965 Y222.904 E156.57274
G1 X71.45 Y222.118 E156.65221
G1 X70.361 Y220.953 E156.72647
G1 X69.53 Y219.556 E156.80216
G1 X69.201 Y217.908 E156.88041
G1 X69.201 Y17.831 E166.19683
G1 X69.549 Y16.416 E166.26468
G0 F6000 X69.925 Y16.559
G1 F1200 X70.658 Y15.146 E166.3388
G1 X71.739 Y14.136 E166.40769
G1 X73.045 Y13.359 E166.47845
G1 X74.583 Y13.052 E166.55148
G1 X82.591 Y13.052 E166.92437
G1 X83.036 Y13.161 E166.9457
G1 X83.562 Y13.052 E166.97072
G1 X92.591 Y13.052 E167.39114
G1 X93.036 Y13.161 E167.41248
G1 X93.562 Y13.052 E167.43749
G1 X102.591 Y13.052 E167.85792
G1 X103.036 Y13.161 E167.87925
G1 X103.562 Y13.052 E167.90427
G1 X112.591 Y13.052 E168.32469
G1 X113.036 Y13.161 E168.34603
G1 X113.562 Y13.052 E168.37104
G1 X122.591 Y13.052 E168.79147
G1 X123.036 Y13.161 E168.8128
G1 X123.562 Y13.052 E168.83781
G1 X132.591 Y13.052 E169.25824
G1 X133.036 Y13.161 E169.27958
G1 X133.562 Y13.052 E169.30459
G1 X142.591 Y13.052 E169.72502
G1 X143.036 Y13.161 E169.74635
G1 X143.562 Y13.052 E169.77136
G1 X152.576 Y13.052 E170.19109
G1 X153.894 Y13.376 E170.25429
G1 X155.307 Y14.109 E170.32841
G1 X156.317 Y15.19 E170.3973
G1 X157.094 Y16.496 E170.46806
G1 X157.401 Y18.034 E170.54109
G1 X157.401 Y218.027 E179.8536
G1 X157.077 Y219.345 E179.9168
G1 X156.344 Y220.758 E179.99092
G1 X155.263 Y221.768 E180.05981
G1 X153.957 Y222.545 E180.13057
G1 X152.419 Y222.852 E180.2036
G1 X143.411 Y222.852 E180.62305
G1 X142.966 Y222.743 E180.64439
G1 X142.44 Y222.852 E180.6694
G1 X133.411 Y222.852 E181.08983
G1 X132.966 Y222.743 E181.11116
G1 X132.44 Y222.852 E181.13617
G1 X123.411 Y222.852 E181.5566
G1 X122.966 Y222.743 E181.57794
G1 X122.44 Y222.852 E181.60295
G1 X113.411 Y222.852 E182.02338
G1 X112.966 Y222.743 E182.04471
G1 X112.44 Y222.852 E182.06972
G1 X103.411 Y222.852 E182.49015
G1 X102.966 Y222.743 E182.51148
G1 X102.44 Y222.852 E182.5365
G1 X93.411 Y222.852 E182.95693
G1 X92.966 Y222.743 E182.97826
G1 X92.44 Y222.852 E183.00327
G1 X83.411 Y222.852 E183.4237
G1 X82.966 Y222.743 E183.44503
G1 X82.44 Y222.852 E183.47005
G1 X74.426 Y222.852 E183.84321
G1 X73.108 Y222.528 E183.90641
G1 X71.695 Y221.795 E183.98053
G1 X70.685 Y220.714 E184.04942
G1 X69.908 Y219.408 E184.12018
G1 X69.601 Y217.87 E184.19321
G1 X69.601 Y17.877 E193.50572
G1 X69.925 Y16.559 E193.56892
G0 F6000 X70.301 Y16.702
G1 F1200 X70.981 Y15.391 E193.63769
G1 X71.978 Y14.46 E193.70121
G1 X73.193 Y13.737 E193.76704
G1 X74.621 Y13.452 E193.83485
G1 X82.545 Y13.452 E194.20382
G1 X83.03 Y13.571 E194.22708
G1 X83.604 Y13.452 E194.25437
G1 X92.545 Y13.452 E194.6707
G1 X93.03 Y13.571 E194.69396
G1 X93.604 Y13.452 E194.72125
G1 X102.545 Y13.452 E195.13758
G1 X103.03 Y13.571 E195.16084
G1 X103.604 Y13.452 E195.18813
G1 X112.545 Y13.452 E195.60446
G1 X113.03 Y13.571 E195.62772
G1 X113.604 Y13.452 E195.65501
G1 X122.545 Y13.452 E196.07134
G1 X123.03 Y13.571 E196.0946
G1 X123.604 Y13.452 E196.12189
G1 X132.545 Y13.452 E196.53822
G1 X133.03 Y13.571 E196.56148
G1 X133.604 Y13.452 E196.58877
G1 X142.545 Y13.452 E197.0051
G1 X143.03 Y13.571 E197.02836
G1 X143.604 Y13.452 E197.05565
G1 X152.53 Y13.452 E197.47128
G1 X153.751 Y13.752 E197.52983
G1 X155.062 Y14.432 E197.5986
G1 X155.993 Y15.429 E197.66212
