;FLAVOR:Marlin
;TIME:5128
;Filament used: 2.8005m
;Layer height: 0.2
;MINX:54.5
;MINY:96.7
;MINZ:0.2
;MAXX:180.5
;MAXY:131.4
;MAXZ:14
;Generated with Cura_SteamEngine 5.3.1
M140 S50
M105
M190 S50
M104 S200
M105
M109 S200
M82 ;absolute extrusion mode
; Ender 3 Custom Start G-code
G92 E0 ; Reset Extruder
G28 ; Home all axes
G1 Z2.0 F3000 ; Move Z Axis up little to prevent scratching of Heat Bed
G1 X0.1 Y20 Z0.3 F5000.0 ; Move to start position
G1 X0.1 Y200.0 Z0.3 F1500.0 E15 ; Draw the first line
G1 X0.4 Y200.0 Z0.3 F5000.0 ; Move to side a little
G1 X0.4 Y20 Z0.3 F1500.0 E30 ; Draw the second line
G92 E0 ; Reset Extruder
G1 Z2.0 F3000 ; Move Z Axis up little to prevent scratching of Heat Bed
G1 X5 Y20 Z0.3 F5000.0 ; Move over to prevent blob squish
G92 E0
G92 E0
G1 F2700 E-5
;LAYER_COUNT:70
;LAYER:0
M107
G0 F6000 X59.894 Y99.194 Z0.2
;TYPE:SKIRT
G1 F2700 E0
G1 F1200 X60.669 Y98.731 E0.03003
G1 X61.482 Y98.338 E0.06006
G1 X62.327 Y98.018 E0.09011
G1 X63.196 Y97.775 E0.12012
G1 X64.084 Y97.609 E0.15017
G1 X65.223 Y97.513 E0.18819
G1 X65.83 Y97.5 E0.20838
G1 X168.939 Y97.501 E3.6378
G1 X169.637 Y97.511 E3.66102
G1 X170.539 Y97.564 E3.69107
G1 X171.432 Y97.696 E3.7211
G1 X172.31 Y97.907 E3.75113
G1 X173.166 Y98.195 E3.78117
G1 X173.993 Y98.557 E3.81119
G1 X174.785 Y98.992 E3.84125
G1 X175.536 Y99.494 E3.87129
G1 X176.239 Y100.061 E3.90133
G1 X176.889 Y100.688 E3.93137
G1 X177.481 Y101.37 E3.96141
G1 X178.011 Y102.101 E3.99144
G1 X178.473 Y102.877 E4.02148
G1 X178.866 Y103.69 E4.05151
G1 X179.184 Y104.535 E4.08154
G1 X179.427 Y105.405 E4.11158
G1 X179.592 Y106.293 E4.14162
G1 X179.687 Y107.423 E4.17934
G1 X179.7 Y108.03 E4.19953
G1 X179.699 Y119.79 E4.59067
G1 X179.69 Y120.517 E4.61486
G1 X179.639 Y121.419 E4.6449
G1 X179.508 Y122.313 E4.67496
G1 X179.299 Y123.191 E4.70497
G1 X179.013 Y124.048 E4.73502
G1 X178.652 Y124.876 E4.76507
G1 X178.22 Y125.668 E4.79507
G1 X177.719 Y126.42 E4.82513
G1 X177.153 Y127.124 E4.85517
G1 X176.528 Y127.775 E4.88519
G1 X175.847 Y128.369 E4.91524
G1 X175.116 Y128.9 E4.94529
G1 X174.342 Y129.364 E4.97531
G1 X173.529 Y129.758 E5.00536
G1 X172.685 Y130.078 E5.03538
G1 X171.815 Y130.323 E5.06544
G1 X170.928 Y130.489 E5.09545
G1 X169.777 Y130.587 E5.13387
G1 X169.17 Y130.6 E5.15407
G1 X66.075 Y130.599 E8.58302
G1 X65.377 Y130.59 E8.60624
G1 X64.476 Y130.539 E8.63625
G1 X63.582 Y130.407 E8.66631
G1 X62.704 Y130.198 E8.69633
G1 X61.847 Y129.911 E8.72639
G1 X61.02 Y129.55 E8.7564
G1 X60.227 Y129.117 E8.78645
G1 X59.476 Y128.616 E8.81648
G1 X58.772 Y128.05 E8.84652
G1 X58.121 Y127.424 E8.87656
G1 X57.528 Y126.743 E8.9066
G1 X56.998 Y126.012 E8.93663
G1 X56.534 Y125.237 E8.96667
G1 X56.14 Y124.424 E8.99672
G1 X55.82 Y123.58 E9.02674
G1 X55.576 Y122.71 E9.05679
G1 X55.41 Y121.822 E9.08684
G1 X55.313 Y120.667 E9.12539
G1 X55.3 Y120.058 E9.14565
G1 X55.301 Y108.236 E9.53885
G1 X55.31 Y107.571 E9.56097
G1 X55.362 Y106.669 E9.59102
G1 X55.494 Y105.776 E9.62105
G1 X55.704 Y104.898 E9.65107
G1 X55.991 Y104.041 E9.68113
G1 X56.353 Y103.214 E9.71116
G1 X56.786 Y102.422 E9.74118
G1 X57.288 Y101.671 E9.77123
G1 X57.855 Y100.967 E9.80129
G1 X58.481 Y100.317 E9.83131
G1 X59.162 Y99.724 E9.86134
G1 X59.894 Y99.194 E9.8914
G0 F6000 X59.659 Y98.87
G1 F1200 X60.495 Y98.371 E9.92378
G1 X61.34 Y97.964 E9.95498
G1 X62.185 Y97.644 E9.98503
G1 X63.122 Y97.382 E10.01739
G1 X64.05 Y97.21 E10.04878
G1 X65.189 Y97.114 E10.0868
G1 X65.83 Y97.1 E10.10812
G1 X168.945 Y97.101 E13.53774
G1 X169.66 Y97.112 E13.56152
G1 X170.597 Y97.168 E13.59274
G1 X171.49 Y97.3 E13.62277
G1 X172.438 Y97.528 E13.6552
G1 X173.294 Y97.816 E13.68524
G1 X174.186 Y98.206 E13.71762
G1 X174.978 Y98.641 E13.74767
G1 X175.758 Y99.161 E13.77885
G1 X176.517 Y99.773 E13.81128
G1 X177.167 Y100.4 E13.84132
G1 X177.805 Y101.135 E13.87369
G1 X178.355 Y101.896 E13.90492
G1 X178.817 Y102.672 E13.93496
G1 X179.24 Y103.549 E13.96734
G1 X179.569 Y104.427 E13.99853
G1 X179.82 Y105.332 E14.02976
G1 X179.991 Y106.259 E14.06111
G1 X180.086 Y107.389 E14.09883
G1 X180.1 Y108.03 E14.12016
G1 X180.099 Y119.795 E14.51146
G1 X180.089 Y120.54 E14.53624
G1 X180.035 Y121.477 E14.56746
G1 X179.904 Y122.371 E14.59751
G1 X179.688 Y123.284 E14.62872
G1 X179.38 Y124.208 E14.66111
G1 X179.019 Y125.036 E14.69115
G1 X178.553 Y125.89 E14.72351
G1 X178.031 Y126.671 E14.75476
G1 X177.465 Y127.375 E14.7848
G1 X176.817 Y128.052 E14.81597
G1 X176.082 Y128.693 E14.84841
G1 X175.351 Y129.224 E14.87846
G1 X174.548 Y129.707 E14.90962
G1 X173.671 Y130.132 E14.94204
G1 X172.827 Y130.452 E14.97206
G1 X171.889 Y130.716 E15.00447
G1 X170.962 Y130.888 E15.03583
G1 X169.811 Y130.986 E15.07425
G1 X169.17 Y131 E15.09557
G1 X66.07 Y130.999 E18.52469
G1 X65.354 Y130.989 E18.54851
G1 X64.418 Y130.935 E18.57969
G1 X63.524 Y130.803 E18.60975
G1 X62.611 Y130.587 E18.64095
G1 X61.687 Y130.278 E18.67336
G1 X60.86 Y129.917 E18.70337
G1 X60.005 Y129.45 E18.73578
G1 X59.225 Y128.928 E18.76699
G1 X58.521 Y128.362 E18.79704
G1 X57.819 Y127.687 E18.82943
G1 X57.226 Y127.006 E18.85946
G1 X56.674 Y126.247 E18.89068
G1 X56.174 Y125.411 E18.92307
G1 X55.766 Y124.566 E18.95428
G1 X55.446 Y123.722 E18.98431
G1 X55.183 Y122.784 E19.01671
G1 X55.011 Y121.855 E19.04813
G1 X54.913 Y120.676 E19.08748
G1 X54.9 Y120.058 E19.10804
G1 X54.901 Y108.231 E19.50141
G1 X54.911 Y107.548 E19.52413
G1 X54.966 Y106.611 E19.55534
G1 X55.098 Y105.718 E19.58537
G1 X55.315 Y104.805 E19.61658
G1 X55.612 Y103.914 E19.64782
G1 X56.002 Y103.022 E19.6802
G1 X56.453 Y102.2 E19.71138
G1 X56.976 Y101.42 E19.74262
G1 X57.543 Y100.716 E19.77268
G1 X58.218 Y100.015 E19.80505
G1 X58.899 Y99.422 E19.83508
G1 X59.659 Y98.87 E19.86633
G0 F6000 X59.424 Y98.546
G1 F1200 X60.321 Y98.011 E19.90106
G1 X61.198 Y97.59 E19.93342
G1 X62.043 Y97.27 E19.96347
G1 X63.049 Y96.989 E19.99821
G1 X64.016 Y96.811 E20.03092
G1 X65.155 Y96.715 E20.06893
G1 X65.83 Y96.7 E20.09139
G1 X168.951 Y96.701 E23.52121
G1 X169.684 Y96.713 E23.54559
G1 X170.655 Y96.772 E23.57795
G1 X171.584 Y96.911 E23.60919
G1 X172.532 Y97.139 E23.64162
G1 X173.454 Y97.449 E23.67397
G1 X174.379 Y97.855 E23.70757
G1 X175.171 Y98.29 E23.73762
G1 X175.98 Y98.828 E23.76994
G1 X176.795 Y99.485 E23.80476
G1 X177.445 Y100.112 E23.83479
G1 X178.107 Y100.873 E23.86834
G1 X178.699 Y101.691 E23.90193
G1 X179.161 Y102.467 E23.93196
G1 X179.615 Y103.409 E23.96674
G1 X179.944 Y104.287 E23.99793
G1 X180.213 Y105.259 E24.03147
G1 X180.39 Y106.225 E24.06414
G1 X180.485 Y107.355 E24.10185
G1 X180.5 Y108.03 E24.12431
G1 X180.499 Y119.8 E24.51578
G1 X180.488 Y120.563 E24.54116
G1 X180.431 Y121.535 E24.57355
G1 X180.3 Y122.429 E24.6036
G1 X180.077 Y123.376 E24.63596
G1 X179.747 Y124.368 E24.67073
G1 X179.386 Y125.196 E24.70077
G1 X178.886 Y126.112 E24.73548
G1 X178.343 Y126.922 E24.76791
G1 X177.777 Y127.626 E24.79796
G1 X177.106 Y128.329 E24.83028
G1 X176.317 Y129.017 E24.8651
G1 X175.586 Y129.548 E24.89515
G1 X174.754 Y130.05 E24.92747
G1 X173.813 Y130.506 E24.96225
G1 X172.969 Y130.826 E24.99227
G1 X171.997 Y131.101 E25.02587
G1 X170.996 Y131.287 E25.05973
G1 X169.845 Y131.385 E25.09815
G1 X169.17 Y131.4 E25.12061
G1 X66.064 Y131.399 E28.54993
G1 X65.331 Y131.388 E28.57431
G1 X64.36 Y131.331 E28.60666
G1 X63.466 Y131.199 E28.63672
G1 X62.484 Y130.966 E28.67029
G1 X61.527 Y130.645 E28.70386
G1 X60.7 Y130.284 E28.73387
G1 X59.813 Y129.801 E28.76746
G1 X58.974 Y129.24 E28.80103
G1 X58.27 Y128.674 E28.83108
G1 X57.517 Y127.95 E28.86582
G1 X56.924 Y127.269 E28.89585
G1 X56.331 Y126.452 E28.92943
G1 X55.814 Y125.585 E28.96301
G1 X55.392 Y124.708 E28.99538
G1 X55.072 Y123.864 E29.0254
G1 X54.798 Y122.892 E29.05899
G1 X54.612 Y121.888 E29.09295
G1 X54.514 Y120.709 E29.1323
G1 X54.5 Y120.058 E29.15395
G1 X54.501 Y108.225 E29.54752
G1 X54.512 Y107.525 E29.57081
G1 X54.57 Y106.553 E29.60319
G1 X54.702 Y105.66 E29.63322
G1 X54.926 Y104.713 E29.66558
G1 X55.245 Y103.754 E29.6992
G1 X55.635 Y102.862 E29.73158
G1 X56.102 Y102.008 E29.76395
G1 X56.664 Y101.169 E29.79754
G1 X57.231 Y100.465 E29.8276
G1 X57.955 Y99.713 E29.86232
G1 X58.636 Y99.12 E29.89236
G1 X59.424 Y98.546 E29.92478
G1 F2700 E24.92478
;MESH:megav1-KeyBoardRiser.stl
G0 F6000 X65.92 Y107.035
G0 X168.9 Y112.7
;TYPE:WALL-INNER
G1 F2700 E29.92478
G1 F1200 X168.9 Y108.3 E30.07113
G1 X66.1 Y108.3 E33.49027
G1 X66.1 Y112.7 E33.63661
G1 X168.9 Y112.7 E37.05576
G0 F6000 X169.3 Y113.1
;TYPE:WALL-OUTER
G1 F1200 X169.3 Y107.9 E37.22871
G1 X65.7 Y107.9 E40.67446
G1 X65.7 Y113.1 E40.84741
G1 X169.3 Y113.1 E44.29316
G0 F6000 X169.03 Y112.83
G0 X168.8 Y112.34
G0 X168.54 Y112.34
;TYPE:SKIN
G1 F1200 X66.46 Y112.34 E47.68836
G1 X66.46 Y108.66 E47.81075
G1 X168.54 Y108.66 E51.20595
G1 X168.54 Y112.34 E51.32834
G0 F6000 X168.8 Y112.34
G0 X168.8 Y108.942
G0 X168.339 Y108.942
G1 F1200 X168.256 Y108.859 E51.33225
G0 F6000 X167.691 Y108.859
G1 F1200 X168.339 Y109.508 E51.36275
G0 F6000 X168.339 Y110.073
G1 F1200 X167.125 Y108.859 E51.41986
G0 F6000 X166.559 Y108.859
G1 F1200 X168.339 Y110.639 E51.50358
G0 F6000 X168.339 Y111.205
G1 F1200 X165.994 Y108.859 E51.61391
G0 F6000 X165.428 Y108.859
G1 F1200 X168.339 Y111.77 E51.75083
G0 F6000 X168.142 Y112.139
G1 F1200 X164.862 Y108.859 E51.90511
G0 F6000 X164.296 Y108.859
G1 F1200 X167.576 Y112.139 E52.05939
G0 F6000 X167.01 Y112.139
G1 F1200 X163.731 Y108.859 E52.21365
G0 F6000 X163.165 Y108.859
G1 F1200 X166.445 Y112.139 E52.36793
G0 F6000 X165.879 Y112.139
G1 F1200 X162.599 Y108.859 E52.52221
G0 F6000 X162.034 Y108.859
G1 F1200 X165.313 Y112.139 E52.67647
G0 F6000 X164.748 Y112.139
G1 F1200 X161.468 Y108.859 E52.83075
G0 F6000 X160.902 Y108.859
G1 F1200 X164.182 Y112.139 E52.98503
G0 F6000 X163.616 Y112.139
G1 F1200 X160.337 Y108.859 E53.13929
G0 F6000 X159.771 Y108.859
G1 F1200 X163.051 Y112.139 E53.29357
G0 F6000 X162.485 Y112.139
G1 F1200 X159.205 Y108.859 E53.44785
G0 F6000 X158.64 Y108.859
G1 F1200 X161.919 Y112.139 E53.60211
G0 F6000 X161.353 Y112.139
G1 F1200 X158.074 Y108.859 E53.75637
G0 F6000 X157.508 Y108.859
G1 F1200 X160.788 Y112.139 E53.91065
G0 F6000 X160.222 Y112.139
G1 F1200 X156.943 Y108.859 E54.06491
G0 F6000 X156.377 Y108.859
G1 F1200 X159.656 Y112.139 E54.21916
G0 F6000 X159.091 Y112.139
G1 F1200 X155.811 Y108.859 E54.37345
G0 F6000 X155.246 Y108.859
G1 F1200 X158.525 Y112.139 E54.5277
G0 F6000 X157.959 Y112.139
G1 F1200 X154.68 Y108.859 E54.68196
G0 F6000 X154.114 Y108.859
G1 F1200 X157.394 Y112.139 E54.83624
G0 F6000 X156.828 Y112.139
G1 F1200 X153.548 Y108.859 E54.99052
G0 F6000 X152.983 Y108.859
G1 F1200 X156.262 Y112.139 E55.14478
G0 F6000 X155.697 Y112.139
G1 F1200 X152.417 Y108.859 E55.29906
G0 F6000 X151.851 Y108.859
G1 F1200 X155.131 Y112.139 E55.45334
G0 F6000 X154.565 Y112.139
G1 F1200 X151.286 Y108.859 E55.6076
G0 F6000 X150.72 Y108.859
G1 F1200 X154 Y112.139 E55.76188
G0 F6000 X153.434 Y112.139
G1 F1200 X150.154 Y108.859 E55.91616
G0 F6000 X149.589 Y108.859
G1 F1200 X152.868 Y112.139 E56.07042
G0 F6000 X152.303 Y112.139
G1 F1200 X149.023 Y108.859 E56.2247
G0 F6000 X148.457 Y108.859
G1 F1200 X151.737 Y112.139 E56.37898
G0 F6000 X151.171 Y112.139
G1 F1200 X147.892 Y108.859 E56.53324
G0 F6000 X147.326 Y108.859
G1 F1200 X150.605 Y112.139 E56.6875
G0 F6000 X150.04 Y112.139
G1 F1200 X146.76 Y108.859 E56.84178
G0 F6000 X146.195 Y108.859
G1 F1200 X149.474 Y112.139 E56.99604
G0 F6000 X148.908 Y112.139
G1 F1200 X145.629 Y108.859 E57.15029
G0 F6000 X145.063 Y108.859
G1 F1200 X148.343 Y112.139 E57.30458
G0 F6000 X147.777 Y112.139
G1 F1200 X144.497 Y108.859 E57.45886
G0 F6000 X143.932 Y108.859
G1 F1200 X147.211 Y112.139 E57.61311
G0 F6000 X146.646 Y112.139
G1 F1200 X143.366 Y108.859 E57.7674
G0 F6000 X142.8 Y108.859
G1 F1200 X146.08 Y112.139 E57.92168
G0 F6000 X145.514 Y112.139
G1 F1200 X142.235 Y108.859 E58.07593
G0 F6000 X141.669 Y108.859
G1 F1200 X144.949 Y112.139 E58.23022
G0 F6000 X144.383 Y112.139
G1 F1200 X141.103 Y108.859 E58.3845
G0 F6000 X140.538 Y108.859
G1 F1200 X143.817 Y112.139 E58.53875
G0 F6000 X143.252 Y112.139
G1 F1200 X139.972 Y108.859 E58.69304
G0 F6000 X139.406 Y108.859
G1 F1200 X142.686 Y112.139 E58.84732
G0 F6000 X142.12 Y112.139
G1 F1200 X138.841 Y108.859 E59.00157
G0 F6000 X138.275 Y108.859
G1 F1200 X141.554 Y112.139 E59.15583
G0 F6000 X140.989 Y112.139
G1 F1200 X137.709 Y108.859 E59.31011
G0 F6000 X137.144 Y108.859
G1 F1200 X140.423 Y112.139 E59.46437
G0 F6000 X139.857 Y112.139
G1 F1200 X136.578 Y108.859 E59.61863
G0 F6000 X136.012 Y108.859
G1 F1200 X139.292 Y112.139 E59.77291
G0 F6000 X138.726 Y112.139
G1 F1200 X135.447 Y108.859 E59.92717
G0 F6000 X134.881 Y108.859
G1 F1200 X138.16 Y112.139 E60.08142
G0 F6000 X137.595 Y112.139
G1 F1200 X134.315 Y108.859 E60.23571
G0 F6000 X133.749 Y108.859
G1 F1200 X137.029 Y112.139 E60.38999
G0 F6000 X136.463 Y112.139
G1 F1200 X133.184 Y108.859 E60.54424
G0 F6000 X132.618 Y108.859
G1 F1200 X135.898 Y112.139 E60.69853
G0 F6000 X135.332 Y112.139
G1 F1200 X132.052 Y108.859 E60.85281
G0 F6000 X131.487 Y108.859
G1 F1200 X134.766 Y112.139 E61.00706
G0 F6000 X134.201 Y112.139
G1 F1200 X130.921 Y108.859 E61.16135
G0 F6000 X130.355 Y108.859
G1 F1200 X133.635 Y112.139 E61.31563
G0 F6000 X133.069 Y112.139
G1 F1200 X129.79 Y108.859 E61.46988
G0 F6000 X129.224 Y108.859
G1 F1200 X132.504 Y112.139 E61.62417
G0 F6000 X131.938 Y112.139
G1 F1200 X128.658 Y108.859 E61.77845
G0 F6000 X128.093 Y108.859
G1 F1200 X131.372 Y112.139 E61.9327
G0 F6000 X130.806 Y112.139
G1 F1200 X127.527 Y108.859 E62.08696
G0 F6000 X126.961 Y108.859
G1 F1200 X130.241 Y112.139 E62.24124
G0 F6000 X129.675 Y112.139
G1 F1200 X126.396 Y108.859 E62.3955
G0 F6000 X125.83 Y108.859
G1 F1200 X129.109 Y112.139 E62.54976
G0 F6000 X128.544 Y112.139
G1 F1200 X125.264 Y108.859 E62.70404
G0 F6000 X124.698 Y108.859
G1 F1200 X127.978 Y112.139 E62.85832
G0 F6000 X127.412 Y112.139
G1 F1200 X124.133 Y108.859 E63.01258
G0 F6000 X123.567 Y108.859
G1 F1200 X126.847 Y112.139 E63.16686
G0 F6000 X126.281 Y112.139
G1 F1200 X123.001 Y108.859 E63.32114
G0 F6000 X122.436 Y108.859
G1 F1200 X125.715 Y112.139 E63.4754
G0 F6000 X125.15 Y112.139
G1 F1200 X121.87 Y108.859 E63.62968
G0 F6000 X121.304 Y108.859
G1 F1200 X124.584 Y112.139 E63.78396
G0 F6000 X124.018 Y112.139
G1 F1200 X120.739 Y108.859 E63.93822
G0 F6000 X120.173 Y108.859
G1 F1200 X123.453 Y112.139 E64.0925
G0 F6000 X122.887 Y112.139
G1 F1200 X119.607 Y108.859 E64.24678
G0 F6000 X119.042 Y108.859
G1 F1200 X122.321 Y112.139 E64.40104
G0 F6000 X121.756 Y112.139
G1 F1200 X118.476 Y108.859 E64.55532
G0 F6000 X117.91 Y108.859
G1 F1200 X121.19 Y112.139 E64.7096
G0 F6000 X120.624 Y112.139
G1 F1200 X117.345 Y108.859 E64.86386
G0 F6000 X116.779 Y108.859
G1 F1200 X120.058 Y112.139 E65.01812
G0 F6000 X119.493 Y112.139
G1 F1200 X116.213 Y108.859 E65.1724
G0 F6000 X115.648 Y108.859
G1 F1200 X118.927 Y112.139 E65.32665
G0 F6000 X118.361 Y112.139
G1 F1200 X115.082 Y108.859 E65.48091
G0 F6000 X114.516 Y108.859
G1 F1200 X117.796 Y112.139 E65.63519
G0 F6000 X117.23 Y112.139
G1 F1200 X113.95 Y108.859 E65.78947
G0 F6000 X113.385 Y108.859
G1 F1200 X116.664 Y112.139 E65.94373
G0 F6000 X116.099 Y112.139
G1 F1200 X112.819 Y108.859 E66.09801
G0 F6000 X112.253 Y108.859
G1 F1200 X115.533 Y112.139 E66.25229
G0 F6000 X114.967 Y112.139
G1 F1200 X111.688 Y108.859 E66.40655
G0 F6000 X111.122 Y108.859
G1 F1200 X114.402 Y112.139 E66.56083
G0 F6000 X113.836 Y112.139
G1 F1200 X110.556 Y108.859 E66.71511
G0 F6000 X109.991 Y108.859
G1 F1200 X113.27 Y112.139 E66.86937
G0 F6000 X112.705 Y112.139
G1 F1200 X109.425 Y108.859 E67.02365
G0 F6000 X108.859 Y108.859
G1 F1200 X112.139 Y112.139 E67.17793
G0 F6000 X111.573 Y112.139
G1 F1200 X108.294 Y108.859 E67.33219
G0 F6000 X107.728 Y108.859
G1 F1200 X111.007 Y112.139 E67.48645
G0 F6000 X110.442 Y112.139
G1 F1200 X107.162 Y108.859 E67.64073
G0 F6000 X106.597 Y108.859
G1 F1200 X109.876 Y112.139 E67.79499
G0 F6000 X109.31 Y112.139
G1 F1200 X106.031 Y108.859 E67.94925
G0 F6000 X105.465 Y108.859
G1 F1200 X108.745 Y112.139 E68.10353
G0 F6000 X108.179 Y112.139
G1 F1200 X104.899 Y108.859 E68.25781
G0 F6000 X104.334 Y108.859
G1 F1200 X107.613 Y112.139 E68.41207
G0 F6000 X107.048 Y112.139
G1 F1200 X103.768 Y108.859 E68.56635
G0 F6000 X103.202 Y108.859
