;FLAVOR:Marlin
;TIME:34588
;Filament used: 28.2113m
;Layer height: 0.28
;MINX:10.858
;MINY:18.711
;MINZ:0.28
;MAXX:226.644
;MAXY:214.433
;MAXZ:14
;Generated with Cura_SteamEngine 5.3.1
M140 S60
M105
M190 S60
M104 S195
M105
M109 S195
M82 ;absolute extrusion mode
; Ender 3 Custom Start G-code
G92 E0 ; Reset Extruder
G28 ; Home all axes
G1 Z2.0 F3000 ; Move Z Axis up little to prevent scratching of Heat Bed
G1 X0.1 Y20 Z0.3 F5000.0 ; Move to start position
G1 X0.1 Y200.0 Z0.3 F1500.0 E15 ; Draw the first line
G1 X0.4 Y200.0 Z0.3 F5000.0 ; Move to side a little
G1 X0.4 Y20 Z0.3 F1500.0 E30 ; Draw the second line
G92 E0 ; Reset Extruder
G1 Z2.0 F3000 ; Move Z Axis up little to prevent scratching of Heat Bed
G1 X5 Y20 Z0.3 F5000.0 ; Move over to prevent blob squish
G92 E0
G92 E0
G1 F2700 E-5
;LAYER_COUNT:50
;LAYER:0
M107
G0 F6000 X20.138 Y20.261 Z0.28
;TYPE:SKIRT
G1 F2700 E0
G1 F1200 X22.01 Y19.149 E0.10139
G1 X24.197 Y18.711 E0.20525
G1 X219.697 Y18.711 E9.30854
G1 X221.593 Y19.177 E9.39946
G1 X223.62 Y20.23 E9.50582
G1 X225.094 Y21.805 E9.60627
G1 X226.206 Y23.677 E9.70765
G1 X226.644 Y25.864 E9.81151
G1 X226.644 Y64.364 E11.60423
G1 X226.178 Y66.26 E11.69515
G1 X225.125 Y68.287 E11.80151
G1 X223.709 Y69.612 E11.89181
G1 X223.883 Y70.486 E11.9333
G1 X223.883 Y77.585 E12.26386
G1 X223.418 Y79.479 E12.35467
G1 X223.187 Y79.927 E12.37814
G1 X223.538 Y81.667 E12.4608
G1 X223.538 Y88.771 E12.79159
G1 X223.072 Y90.667 E12.8825
G1 X222.019 Y92.694 E12.98886
G1 X220.444 Y94.168 E13.08931
G1 X218.572 Y95.28 E13.1907
G1 X216.385 Y95.718 E13.29456
G1 X208.337 Y95.718 E13.6693
G1 X208.337 Y152.545 E16.31541
G1 X207.976 Y154.006 E16.38548
G1 X207.489 Y155.338 E16.45152
G1 X206.303 Y156.937 E16.54422
G1 X204.816 Y158.264 E16.63703
G1 X202.952 Y159.086 E16.73189
G1 X201.049 Y159.519 E16.82276
G1 X199.11 Y159.355 E16.91337
G1 X189.86 Y156.773 E17.36056
G1 X189.994 Y157.067 E17.3756
G1 X190.404 Y159.506 E17.49077
G1 X185.705 Y186.146 E18.75039
G1 X184.924 Y187.915 E18.84043
G1 X183.532 Y189.736 E18.94716
G1 X181.75 Y190.88 E19.04576
G1 X179.653 Y191.672 E19.15014
G1 X178.582 Y191.701 E19.20003
G1 X184.776 Y192.794 E19.4929
G1 X186.541 Y193.573 E19.58274
G1 X188.413 Y195.011 E19.69266
G1 X189.57 Y196.869 E19.79457
G1 X190.358 Y199.099 E19.90471
G1 X190.358 Y207.486 E20.29524
G1 X189.892 Y209.382 E20.38615
G1 X188.839 Y211.409 E20.49251
G1 X187.264 Y212.883 E20.59296
G1 X185.392 Y213.995 E20.69435
G1 X183.205 Y214.433 E20.79821
G1 X21.705 Y214.433 E28.31832
G1 X19.809 Y213.967 E28.40924
G1 X17.782 Y212.914 E28.5156
G1 X16.308 Y211.339 E28.61604
G1 X15.196 Y209.467 E28.71743
G1 X14.758 Y207.28 E28.82129
G1 X14.758 Y147.78 E31.59186
G1 X15.224 Y145.884 E31.68277
G1 X16.277 Y143.857 E31.78913
G1 X17.852 Y142.383 E31.88958
G1 X19.724 Y141.271 E31.99097
G1 X21.911 Y140.833 E32.09482
G1 X25.42 Y140.833 E32.25822
G1 X27.491 Y141.519 E32.3598
G1 X38.854 Y146.818 E32.94362
G1 X38.854 Y126.203 E33.90354
G1 X22.767 Y133.708 E34.73012
G1 X21.07 Y134.016 E34.81043
G1 X17.805 Y134.016 E34.96247
G1 X15.909 Y133.55 E35.05338
G1 X13.882 Y132.497 E35.15974
G1 X12.408 Y130.922 E35.26019
G1 X11.296 Y129.05 E35.36158
G1 X10.858 Y126.863 E35.46543
G1 X10.858 Y67.363 E38.236
G1 X11.324 Y65.467 E38.32692
G1 X12.377 Y63.44 E38.43328
G1 X13.952 Y61.966 E38.53372
G1 X15.824 Y60.853 E38.63513
G1 X17.044 Y60.608 E38.69308
G1 X17.044 Y25.658 E40.3205
G1 X17.51 Y23.762 E40.41141
G1 X18.563 Y21.735 E40.51777
G1 X20.138 Y20.261 E40.61822
G0 F6000 X20.379 Y20.583
G1 F1200 X22.156 Y19.527 E40.71447
G1 X24.235 Y19.111 E40.81319
G1 X219.651 Y19.111 E49.91258
G1 X221.45 Y19.553 E49.99884
G1 X223.375 Y20.553 E50.09985
G1 X224.772 Y22.046 E50.19506
G1 X225.828 Y23.823 E50.29131
G1 X226.244 Y25.902 E50.39004
G1 X226.244 Y64.318 E52.17885
G1 X225.802 Y66.117 E52.26511
G1 X224.802 Y68.042 E52.36612
G1 X223.273 Y69.472 E52.4636
G1 X223.483 Y70.524 E52.51355
G1 X223.483 Y77.539 E52.8402
G1 X223.041 Y79.338 E52.92646
G1 X222.767 Y79.869 E52.95428
G1 X223.138 Y81.706 E53.04155
G1 X223.138 Y88.725 E53.36838
G1 X222.696 Y90.524 E53.45464
G1 X221.696 Y92.449 E53.55565
G1 X220.203 Y93.846 E53.65086
G1 X218.426 Y94.902 E53.74711
G1 X216.347 Y95.318 E53.84584
G1 X207.937 Y95.318 E54.23744
G1 X207.937 Y152.498 E56.89998
G1 X207.588 Y153.91 E56.96771
G1 X207.134 Y155.146 E57.02902
G1 X206.006 Y156.667 E57.1172
G1 X204.598 Y157.923 E57.20506
G1 X202.827 Y158.704 E57.29518
G1 X201.022 Y159.115 E57.38138
G1 X199.178 Y158.959 E57.46755
G1 X189.062 Y156.135 E57.95661
G1 X189.6 Y157.133 E58.0094
G1 X189.998 Y159.503 E58.1213
G1 X185.32 Y186.028 E59.37548
G1 X184.577 Y187.71 E59.4611
G1 X183.257 Y189.437 E59.56232
G1 X181.567 Y190.522 E59.65583
G1 X179.576 Y191.274 E59.75494
G1 X177.535 Y191.329 E59.85001
G1 X84.958 Y175.008 E64.22726
G1 X84.958 Y175.593 E64.2545
G1 X184.658 Y193.179 E68.96862
G1 X186.336 Y193.92 E69.05403
G1 X188.11 Y195.283 E69.1582
G1 X189.209 Y197.047 E69.25498
G1 X189.958 Y199.167 E69.35967
G1 X189.958 Y207.44 E69.7449
G1 X189.516 Y209.239 E69.83116
G1 X188.516 Y211.164 E69.93217
G1 X187.023 Y212.561 E70.02738
G1 X185.246 Y213.617 E70.12363
G1 X183.167 Y214.033 E70.22235
G1 X21.751 Y214.033 E77.73856
G1 X19.952 Y213.591 E77.82482
G1 X18.027 Y212.591 E77.92583
G1 X16.63 Y211.098 E78.02104
G1 X15.574 Y209.321 E78.11729
G1 X15.158 Y207.242 E78.21602
G1 X15.158 Y147.826 E80.98267
G1 X15.6 Y146.027 E81.06893
G1 X16.6 Y144.102 E81.16994
G1 X18.093 Y142.705 E81.26515
G1 X19.87 Y141.649 E81.3614
G1 X21.949 Y141.233 E81.46013
G1 X25.355 Y141.233 E81.61873
G1 X27.322 Y141.882 E81.71518
G1 X39.254 Y147.446 E82.32822
G1 X39.254 Y125.576 E83.34658
G1 X22.648 Y133.323 E84.19983
G1 X21.032 Y133.616 E84.2763
G1 X17.851 Y133.616 E84.42442
G1 X16.052 Y133.174 E84.51068
G1 X14.127 Y132.174 E84.61169
G1 X12.73 Y130.681 E84.7069
G1 X11.674 Y128.904 E84.80315
G1 X11.258 Y126.825 E84.90188
G1 X11.258 Y67.409 E87.66853
G1 X11.7 Y65.61 E87.7548
G1 X12.7 Y63.685 E87.8558
G1 X14.193 Y62.288 E87.95101
G1 X15.97 Y61.231 E88.04729
G1 X17.444 Y60.936 E88.11729
G1 X17.444 Y25.704 E89.75783
G1 X17.886 Y23.905 E89.8441
G1 X18.886 Y21.98 E89.9451
G1 X20.379 Y20.583 E90.04031
G0 F6000 X20.62 Y20.905
G1 F1200 X22.302 Y19.906 E90.13141
G1 X24.274 Y19.511 E90.22505
G1 X219.604 Y19.511 E99.32044
G1 X221.308 Y19.93 E99.40215
G1 X223.13 Y20.876 E99.49774
G1 X224.45 Y22.287 E99.58771
G1 X225.449 Y23.969 E99.6788
G1 X225.844 Y25.941 E99.77245
G1 X225.844 Y64.271 E101.55726
G1 X225.425 Y65.975 E101.63897
G1 X224.479 Y67.797 E101.73456
G1 X223.102 Y69.085 E101.82236
G1 X222.823 Y69.261 E101.83772
G1 X223.083 Y70.562 E101.8995
G1 X223.083 Y77.492 E102.22219
G1 X222.664 Y79.196 E102.30389
G1 X222.332 Y79.839 E102.33759
G1 X222.385 Y79.983 E102.34474
G1 X222.738 Y81.745 E102.42841
G1 X222.738 Y88.678 E102.75124
G1 X222.319 Y90.382 E102.83295
G1 X221.373 Y92.204 E102.92854
G1 X219.962 Y93.524 E103.01852
G1 X218.28 Y94.523 E103.10961
G1 X216.308 Y94.918 E103.20326
G1 X207.537 Y94.918 E103.61167
G1 X207.537 Y152.452 E106.2907
G1 X207.213 Y153.772 E106.35399
G1 X206.779 Y154.954 E106.41262
G1 X205.711 Y156.394 E106.4961
G1 X204.379 Y157.582 E106.57921
G1 X202.7 Y158.323 E106.66466
G1 X200.995 Y158.711 E106.74609
G1 X199.246 Y158.563 E106.82782
G1 X188.263 Y155.497 E107.35878
G1 X189.217 Y157.266 E107.45237
G1 X189.592 Y159.5 E107.55785
G1 X184.934 Y185.911 E108.80664
G1 X184.231 Y187.504 E108.88772
G1 X182.982 Y189.138 E108.98348
G1 X181.384 Y190.164 E109.07191
G1 X179.499 Y190.876 E109.16574
G1 X177.564 Y190.928 E109.25587
G1 X84.558 Y174.531 E113.65341
G1 X84.558 Y175.929 E113.71851
G1 X184.541 Y193.565 E118.446
G1 X186.13 Y194.266 E118.52688
G1 X187.809 Y195.556 E118.62547
G1 X188.847 Y197.223 E118.71691
G1 X189.558 Y199.235 E118.81627
G1 X189.558 Y207.393 E119.19614
G1 X189.139 Y209.097 E119.27785
G1 X188.193 Y210.919 E119.37345
G1 X186.782 Y212.239 E119.46342
G1 X185.1 Y213.238 E119.55451
G1 X183.128 Y213.633 E119.64816
G1 X21.798 Y213.633 E127.16036
G1 X20.094 Y213.214 E127.24207
G1 X18.272 Y212.268 E127.33766
G1 X16.952 Y210.857 E127.42763
G1 X15.953 Y209.175 E127.51873
G1 X15.558 Y207.203 E127.61238
G1 X15.558 Y147.873 E130.37503
G1 X15.977 Y146.169 E130.45674
G1 X16.923 Y144.347 E130.55233
G1 X18.334 Y143.027 E130.6423
G1 X20.016 Y142.028 E130.7334
G1 X21.988 Y141.633 E130.82704
G1 X25.291 Y141.633 E130.98085
G1 X27.197 Y142.262 E131.07431
G1 X39.654 Y148.073 E131.71436
G1 X39.654 Y124.949 E132.79111
G1 X22.529 Y132.938 E133.67103
G1 X20.994 Y133.216 E133.74367
G1 X17.898 Y133.216 E133.88783
G1 X16.194 Y132.797 E133.96954
G1 X14.372 Y131.851 E134.06513
G1 X13.052 Y130.44 E134.1551
G1 X12.053 Y128.758 E134.2462
G1 X11.658 Y126.786 E134.33985
G1 X11.658 Y67.456 E137.1025
G1 X12.077 Y65.752 E137.18421
G1 X13.023 Y63.93 E137.2798
G1 X14.434 Y62.61 E137.36977
G1 X16.116 Y61.61 E137.46089
G1 X17.844 Y61.264 E137.54295
G1 X17.844 Y25.751 E139.19658
G1 X18.263 Y24.047 E139.27829
G1 X19.209 Y22.225 E139.37389
G1 X20.62 Y20.905 E139.46386
G0 F6000 X20.861 Y21.227
G1 F1200 X22.448 Y20.284 E139.54982
G1 X24.312 Y19.911 E139.63833
G1 X219.558 Y19.911 E148.7298
G1 X221.165 Y20.306 E148.80686
G1 X222.885 Y21.199 E148.8971
G1 X224.128 Y22.528 E148.98183
G1 X225.071 Y24.115 E149.06779
G1 X225.444 Y25.979 E149.15631
G1 X225.444 Y64.225 E150.9372
G1 X225.049 Y65.832 E151.01426
G1 X224.156 Y67.552 E151.1045
G1 X222.829 Y68.793 E151.1891
G1 X222.376 Y69.062 E151.21363
G1 X222.683 Y70.6 E151.28666
G1 X222.683 Y77.446 E151.60544
G1 X222.288 Y79.053 E151.6825
G1 X221.889 Y79.825 E151.72296
G1 X221.993 Y80.062 E151.73501
G1 X222.338 Y81.784 E151.81679
G1 X222.338 Y88.632 E152.13566
G1 X221.943 Y90.239 E152.21272
G1 X221.05 Y91.959 E152.30296
G1 X219.721 Y93.202 E152.38769
G1 X218.134 Y94.145 E152.47365
G1 X216.27 Y94.518 E152.56217
G1 X207.137 Y94.518 E152.98744
G1 X207.137 Y152.402 E155.68276
G1 X206.837 Y153.634 E155.7418
G1 X206.422 Y154.765 E155.7979
G1 X205.416 Y156.121 E155.87652
G1 X204.159 Y157.242 E155.95495
G1 X202.575 Y157.941 E156.03557
G1 X200.968 Y158.307 E156.11231
G1 X199.314 Y158.167 E156.1896
G1 X187.086 Y154.753 E156.78077
G1 X187.858 Y155.589 E156.83375
G1 X188.834 Y157.399 E156.92951
G1 X189.186 Y159.497 E157.02856
G1 X184.549 Y185.793 E158.27191
G1 X183.884 Y187.299 E158.34856
G1 X182.707 Y188.839 E158.43882
G1 X181.201 Y189.806 E158.52216
G1 X179.422 Y190.478 E158.61071
G1 X177.593 Y190.527 E158.6959
G1 X84.158 Y174.054 E163.11373
G1 X84.158 Y176.265 E163.21668
G1 X184.423 Y193.95 E167.95751
G1 X185.925 Y194.613 E168.03396
G1 X187.506 Y195.828 E168.1268
G1 X188.486 Y197.401 E168.2131
G1 X189.158 Y199.303 E168.30703
G1 X189.158 Y207.347 E168.68159
G1 X188.763 Y208.954 E168.75865
G1 X187.87 Y210.674 E168.84889
G1 X186.541 Y211.917 E168.93362
G1 X184.954 Y212.86 E169.01958
G1 X183.09 Y213.233 E169.1081
G1 X21.844 Y213.233 E176.61639
G1 X20.237 Y212.838 E176.69344
G1 X18.517 Y211.945 E176.78369
G1 X17.274 Y210.616 E176.86842
G1 X16.331 Y209.029 E176.95438
G1 X15.958 Y207.165 E177.04289
G1 X15.958 Y147.919 E179.80164
G1 X16.353 Y146.312 E179.87869
G1 X17.246 Y144.592 E179.96893
G1 X18.575 Y143.349 E180.05367
G1 X20.162 Y142.406 E180.13962
G1 X22.026 Y142.033 E180.22814
G1 X25.227 Y142.033 E180.37719
G1 X27.028 Y142.625 E180.46547
G1 X40.054 Y148.701 E181.13475
G1 X40.054 Y124.322 E182.26994
G1 X22.41 Y132.553 E183.17652
G1 X20.956 Y132.816 E183.24533
G1 X17.944 Y132.816 E183.38558
G1 X16.337 Y132.421 E183.46263
G1 X14.617 Y131.528 E183.55287
G1 X13.374 Y130.199 E183.63761
G1 X12.431 Y128.612 E183.72357
G1 X12.058 Y126.748 E183.81208
G1 X12.058 Y67.502 E186.57082
G1 X12.453 Y65.895 E186.64788
G1 X13.346 Y64.175 E186.73812
G1 X14.675 Y62.932 E186.82285
G1 X16.262 Y61.989 E186.90881
G1 X18.244 Y61.592 E187.00294
G1 X18.244 Y25.797 E188.6697
G1 X18.639 Y24.19 E188.74676
G1 X19.532 Y22.47 E188.837
G1 X20.861 Y21.227 E188.92173
G0 F6000 X21.102 Y21.549
G1 F1200 X22.594 Y20.662 E189.00256
G1 X24.35 Y20.311 E189.08594
G1 X219.512 Y20.311 E198.1735
G1 X221.022 Y20.682 E198.2459
G1 X222.64 Y21.522 E198.33079
G1 X223.806 Y22.769 E198.41029
G1 X224.693 Y24.261 E198.49111
G1 X225.044 Y26.017 E198.5745
G1 X225.044 Y64.179 E200.35148
G1 X224.673 Y65.689 E200.42388
G1 X223.833 Y67.307 E200.50877
G1 X222.588 Y68.471 E200.58813
G1 X221.929 Y68.863 E200.62384
G1 X222.283 Y70.638 E200.70812
G1 X222.283 Y77.4 E201.02298
G1 X221.912 Y78.91 E201.09539
G1 X221.439 Y79.824 E201.14331
G1 X221.601 Y80.141 E201.15988
G1 X221.938 Y81.823 E201.23976
G1 X221.938 Y88.586 E201.55468
G1 X221.567 Y90.096 E201.62708
G1 X220.727 Y91.714 E201.71197
G1 X219.48 Y92.88 E201.79146
G1 X217.988 Y93.767 E201.87229
G1 X216.232 Y94.118 E201.95567
G1 X206.737 Y94.118 E202.3978
G1 X206.737 Y152.352 E205.10942
G1 X206.448 Y153.539 E205.1663
G1 X206.066 Y154.574 E205.21767
G1 X205.121 Y155.848 E205.29154
G1 X203.939 Y156.902 E205.36528
G1 X202.45 Y157.559 E205.44106
G1 X200.941 Y157.903 E205.51313
G1 X199.382 Y157.771 E205.58598
G1 X184.872 Y153.72 E206.28747
G1 X185.602 Y154.121 E206.32625
G1 X186.667 Y154.889 E206.38739
G1 X187.53 Y155.823 E206.4466
G1 X188.451 Y157.532 E206.537
G1 X188.78 Y159.494 E206.62964
G1 X184.163 Y185.676 E207.86759
G1 X183.538 Y187.093 E207.93971
G1 X182.432 Y188.54 E208.02451
G1 X181.018 Y189.448 E208.10276
G1 X179.345 Y190.08 E208.18603
G1 X177.622 Y190.126 E208.26629
G1 X83.758 Y173.577 E212.70441
G1 X83.758 Y176.601 E212.84522
G1 X184.305 Y194.335 E217.59937
G1 X185.72 Y194.96 E217.6714
G1 X187.205 Y196.101 E217.7586
G1 X188.124 Y197.576 E217.83952
G1 X188.758 Y199.371 E217.92817
G1 X188.758 Y207.301 E218.29742
G1 X188.387 Y208.811 E218.36982
G1 X187.547 Y210.429 E218.45471
G1 X186.3 Y211.595 E218.53421
G1 X184.808 Y212.482 E218.61503
G1 X183.052 Y212.833 E218.69842
G1 X21.89 Y212.833 E226.20279
G1 X20.38 Y212.462 E226.2752
G1 X18.762 Y211.622 E226.36009
G1 X17.596 Y210.375 E226.43958
G1 X16.709 Y208.883 E226.5204
G1 X16.358 Y207.127 E226.60379
G1 X16.358 Y147.965 E229.35862
G1 X16.729 Y146.455 E229.43102
G1 X17.569 Y144.837 E229.51591
G1 X18.816 Y143.671 E229.59541
G1 X20.308 Y142.784 E229.67623
G1 X22.064 Y142.433 E229.75961
G1 X25.164 Y142.433 E229.90396
G1 X26.859 Y142.988 E229.98701
G1 X40.454 Y149.329 E230.68553
G1 X40.454 Y123.695 E231.87915
G1 X22.291 Y132.168 E232.8124
G1 X20.918 Y132.416 E232.87736
G1 X17.99 Y132.416 E233.0137
G1 X16.48 Y132.045 E233.08611
G1 X14.862 Y131.205 E233.171
G1 X13.696 Y129.958 E233.25049
G1 X12.809 Y128.466 E233.33131
G1 X12.458 Y126.71 E233.4147
G1 X12.458 Y67.548 E236.16953
G1 X12.829 Y66.038 E236.24193
G1 X13.669 Y64.42 E236.32682
G1 X14.916 Y63.254 E236.40632
G1 X16.408 Y62.367 E236.48714
G1 X18.164 Y62.016 E236.57052
G1 X18.644 Y62.016 E236.59288
G1 X18.644 Y25.843 E238.27724
G1 X19.015 Y24.333 E238.34964
G1 X19.855 Y22.715 E238.43453
G1 X21.102 Y21.549 E238.51403
G0 F6000 X21.343 Y21.871
G1 F1200 X22.74 Y21.04 E238.58972
G1 X24.388 Y20.711 E238.66797
G1 X219.465 Y20.711 E247.75157
G1 X220.88 Y21.059 E247.81942
G1 X222.395 Y21.845 E247.8989
G1 X223.484 Y23.01 E247.97315
G1 X224.315 Y24.407 E248.04884
G1 X224.644 Y26.055 E248.1271
G1 X224.644 Y64.132 E249.90012
G1 X224.296 Y65.547 E249.96797
G1 X223.51 Y67.062 E250.04745
G1 X222.347 Y68.149 E250.12157
G1 X221.375 Y68.727 E250.17423
G1 X221.554 Y69.028 E250.19054
G1 X221.883 Y70.676 E250.26879
G1 X221.883 Y77.353 E250.5797
G1 X221.535 Y78.768 E250.64755
G1 X220.982 Y79.837 E250.70359
G1 X221.209 Y80.22 E250.72432
G1 X221.538 Y81.862 E250.8023
G1 X221.538 Y88.539 E251.11321
G1 X221.19 Y89.954 E251.18106
G1 X220.404 Y91.469 E251.26054
G1 X219.239 Y92.558 E251.33479
G1 X217.842 Y93.389 E251.41048
G1 X216.194 Y93.718 E251.48873
G1 X206.337 Y93.718 E251.94772
G1 X206.337 Y152.302 E254.67563
G1 X206.059 Y153.444 E254.73036
G1 X205.71 Y154.383 E254.77701
G1 X204.826 Y155.575 E254.84611
G1 X203.72 Y156.561 E254.9151
G1 X202.322 Y157.178 E254.98626
G1 X200.914 Y157.499 E255.0535
G1 X199.45 Y157.375 E255.12192
G1 X145.668 Y142.36 E257.722
G1 X145.6 Y142.642 E257.73551
G1 X144.803 Y144.365 E257.8239
G1 X143.733 Y145.869 E257.90985
G1 X142.41 Y147.124 E257.99476
G1 X140.793 Y148.164 E258.08429
G1 X139.077 Y148.849 E258.17032
