;FLAVOR:Marlin
;TIME:4725
;Filament used: 4.64687m
;Layer height: 0.28
;MINX:14.446
;MINY:14.114
;MINZ:0.28
;MAXX:210.643
;MAXY:210.311
;MAXZ:5.04
;POSTPROCESSED
;Generated with Cura_SteamEngine 5.3.1
M140 S50
M105
M190 S50
M104 S200
M105
M109 S200
M82 ;absolute extrusion mode
; Ender 3 Custom Start G-code
G92 E0 ; Reset Extruder
G28 ; Home all axes
G1 Z2.0 F3000 ; Move Z Axis up little to prevent scratching of Heat Bed
G1 X0.1 Y20 Z0.3 F5000.0 ; Move to start position
G1 X0.1 Y200.0 Z0.3 F1500.0 E15 ; Draw the first line
G1 X0.4 Y200.0 Z0.3 F5000.0 ; Move to side a little
G1 X0.4 Y20 Z0.3 F1500.0 E30 ; Draw the second line
G92 E0 ; Reset Extruder
G1 Z2.0 F3000 ; Move Z Axis up little to prevent scratching of Heat Bed
G1 X5 Y20 Z0.3 F5000.0 ; Move over to prevent blob squish
G92 E0
G92 E0
G1 F2700 E-5
;LAYER_COUNT:18
;LAYER:0
M107
G0 F6000 X15.836 Y59.294 Z0.28
;TYPE:SKIRT
G1 F2700 E0
G1 F1200 X59.613 Y15.517 E2.88279
G1 X60.892 Y14.668 E2.95427
G1 X62.63 Y14.114 E3.03921
G1 X64.202 Y14.183 E3.11248
G1 X65.8 Y14.588 E3.18924
G1 X67.176 Y15.504 E3.26622
G1 X209.24 Y157.568 E12.62137
G1 X210.089 Y158.847 E12.69285
G1 X210.643 Y160.585 E12.7778
G1 X210.574 Y162.157 E12.85106
G1 X210.169 Y163.755 E12.92783
G1 X209.253 Y165.131 E13.0048
G1 X165.477 Y208.908 E15.88756
G1 X164.198 Y209.757 E15.95904
G1 X162.46 Y210.311 E16.04398
G1 X160.888 Y210.242 E16.11725
G1 X159.29 Y209.837 E16.19401
G1 X157.914 Y208.921 E16.27098
G1 X15.849 Y66.857 E25.62617
G1 X15 Y65.578 E25.69765
G1 X14.446 Y63.84 E25.78259
G1 X14.515 Y62.268 E25.85586
G1 X14.92 Y60.67 E25.93262
G1 X15.836 Y59.294 E26.0096
G0 F6000 X16.147 Y59.549
G1 F1200 X59.87 Y15.826 E28.88883
G1 X61.066 Y15.032 E28.95568
G1 X62.682 Y14.517 E29.03465
G1 X64.144 Y14.581 E29.10279
G1 X65.635 Y14.959 E29.17442
G1 X66.921 Y15.815 E29.24635
G1 X208.931 Y157.825 E38.59795
G1 X209.725 Y159.021 E38.6648
G1 X210.24 Y160.637 E38.74378
G1 X210.176 Y162.099 E38.81192
G1 X209.798 Y163.59 E38.88354
G1 X208.942 Y164.876 E38.95548
G1 X165.22 Y208.599 E41.83468
G1 X164.024 Y209.393 E41.90152
G1 X162.408 Y209.908 E41.9805
G1 X160.946 Y209.844 E42.04864
G1 X159.455 Y209.466 E42.12027
G1 X158.169 Y208.61 E42.1922
G1 X16.158 Y66.6 E51.54383
G1 X15.364 Y65.404 E51.61068
G1 X14.849 Y63.788 E51.68966
G1 X14.913 Y62.326 E51.7578
G1 X15.291 Y60.835 E51.82942
G1 X16.147 Y59.549 E51.90136
G0 F6000 X16.458 Y59.804
G1 F1200 X60.127 Y16.135 E54.77703
G1 X61.239 Y15.397 E54.83918
G1 X62.735 Y14.92 E54.91229
G1 X64.086 Y14.979 E54.97526
G1 X65.47 Y15.33 E55.04175
G1 X66.666 Y16.126 E55.10865
G1 X208.622 Y158.082 E64.45669
G1 X209.36 Y159.194 E64.51884
G1 X209.837 Y160.69 E64.59195
G1 X209.778 Y162.041 E64.65492
G1 X209.427 Y163.425 E64.7214
G1 X208.631 Y164.621 E64.7883
G1 X164.963 Y208.29 E67.66395
G1 X163.851 Y209.028 E67.72609
G1 X162.355 Y209.505 E67.79921
G1 X161.004 Y209.446 E67.86218
G1 X159.62 Y209.095 E67.92866
G1 X158.424 Y208.299 E67.99556
G1 X16.467 Y66.343 E77.34364
G1 X15.729 Y65.231 E77.40578
G1 X15.252 Y63.735 E77.4789
G1 X15.311 Y62.384 E77.54186
G1 X15.662 Y61 E77.60835
G1 X16.458 Y59.804 E77.67525
G0 F6000 X16.769 Y60.059
G1 F1200 X60.384 Y16.444 E80.54737
G1 X61.413 Y15.761 E80.60488
G1 X62.787 Y15.323 E80.67203
G1 X64.028 Y15.377 E80.72987
G1 X65.305 Y15.701 E80.79122
G1 X66.411 Y16.437 E80.85308
G1 X208.313 Y158.339 E90.19757
G1 X208.996 Y159.368 E90.25508
G1 X209.434 Y160.742 E90.32223
G1 X209.38 Y161.983 E90.38007
G1 X209.056 Y163.26 E90.44141
G1 X208.32 Y164.366 E90.50328
G1 X164.706 Y207.981 E93.37536
G1 X163.677 Y208.664 E93.43287
G1 X162.303 Y209.102 E93.50002
G1 X161.062 Y209.048 E93.55787
G1 X159.785 Y208.724 E93.61921
G1 X158.679 Y207.988 E93.68107
G1 X16.776 Y66.086 E103.02559
G1 X16.093 Y65.057 E103.0831
G1 X15.655 Y63.683 E103.15025
G1 X15.709 Y62.442 E103.2081
G1 X16.033 Y61.165 E103.26944
G1 X16.769 Y60.059 E103.3313
G0 F6000 X17.08 Y60.314
G1 F1200 X60.641 Y16.753 E106.19987
G1 X61.587 Y16.125 E106.25274
G1 X62.839 Y15.726 E106.31393
G1 X63.97 Y15.775 E106.36664
G1 X65.14 Y16.072 E106.42285
G1 X66.156 Y16.748 E106.47967
G1 X208.004 Y158.596 E115.82061
G1 X208.632 Y159.542 E115.87348
G1 X209.031 Y160.794 E115.93467
G1 X208.982 Y161.925 E115.98738
G1 X208.685 Y163.095 E116.04359
G1 X208.009 Y164.111 E116.10041
G1 X164.449 Y207.672 E118.96895
G1 X163.503 Y208.3 E119.02182
G1 X162.251 Y208.699 E119.08301
G1 X161.12 Y208.65 E119.13572
G1 X159.95 Y208.353 E119.19193
G1 X158.934 Y207.677 E119.24875
G1 X17.085 Y65.829 E128.58972
G1 X16.457 Y64.883 E128.64259
G1 X16.058 Y63.631 E128.70378
G1 X16.107 Y62.5 E128.75649
G1 X16.404 Y61.33 E128.8127
G1 X17.08 Y60.314 E128.86952
G0 F6000 X17.391 Y60.569
G1 F1200 X60.898 Y17.062 E131.73453
G1 X61.76 Y16.49 E131.7827
G1 X62.892 Y16.129 E131.83803
G1 X63.912 Y16.173 E131.88557
G1 X64.975 Y16.443 E131.93664
G1 X65.901 Y17.059 E131.98843
G1 X207.695 Y158.853 E141.3258
G1 X208.267 Y159.715 E141.37398
G1 X208.628 Y160.847 E141.4293
G1 X208.584 Y161.867 E141.47684
G1 X208.314 Y162.93 E141.52791
G1 X207.698 Y163.856 E141.5797
G1 X164.192 Y207.363 E144.44468
G1 X163.33 Y207.935 E144.49285
G1 X162.198 Y208.296 E144.54817
G1 X161.178 Y208.252 E144.59571
G1 X160.115 Y207.982 E144.64678
G1 X159.189 Y207.366 E144.69857
G1 X17.394 Y65.572 E154.03598
G1 X16.822 Y64.71 E154.08415
G1 X16.461 Y63.578 E154.13948
G1 X16.505 Y62.558 E154.18702
G1 X16.775 Y61.495 E154.23809
G1 X17.391 Y60.569 E154.28987
G0 F6000 X17.7 Y60.826
G1 F1200 X61.155 Y17.371 E157.15146
G1 X61.934 Y16.854 E157.195
G1 X62.944 Y16.532 E157.24436
G1 X63.853 Y16.571 E157.28672
G1 X64.812 Y16.815 E157.3328
G1 X65.644 Y17.368 E157.37932
G1 X207.386 Y159.11 E166.71327
G1 X207.903 Y159.889 E166.75681
G1 X208.225 Y160.899 E166.80617
G1 X208.186 Y161.808 E166.84854
G1 X207.942 Y162.767 E166.89461
G1 X207.389 Y163.599 E166.94113
G1 X163.935 Y207.054 E169.80268
G1 X163.156 Y207.571 E169.84622
G1 X162.146 Y207.893 E169.89558
G1 X161.237 Y207.854 E169.93795
G1 X160.278 Y207.61 E169.98403
G1 X159.446 Y207.057 E170.03054
G1 X17.703 Y65.315 E179.36453
G1 X17.186 Y64.536 E179.40806
G1 X16.864 Y63.526 E179.45743
G1 X16.903 Y62.617 E179.49979
G1 X17.147 Y61.658 E179.54587
G1 X17.7 Y60.826 E179.59239
G0 F6000 X18.011 Y61.081
G1 F1200 X61.412 Y17.68 E182.45042
G1 X62.108 Y17.218 E182.48932
G1 X62.996 Y16.935 E182.53272
G1 X63.794 Y16.969 E182.56991
G1 X64.648 Y17.186 E182.61094
G1 X65.389 Y17.679 E182.65238
G1 X207.077 Y159.367 E191.98278
G1 X207.539 Y160.063 E192.02168
G1 X207.822 Y160.951 E192.06507
G1 X207.788 Y161.749 E192.10227
G1 X207.571 Y162.603 E192.14329
G1 X207.078 Y163.344 E192.18474
G1 X163.678 Y206.745 E195.04273
G1 X162.982 Y207.207 E195.08163
G1 X162.094 Y207.49 E195.12503
G1 X161.296 Y207.456 E195.16222
G1 X160.442 Y207.239 E195.20325
G1 X159.701 Y206.746 E195.2447
G1 X18.012 Y65.058 E204.57513
G1 X17.55 Y64.362 E204.61402
G1 X17.267 Y63.474 E204.65742
G1 X17.301 Y62.676 E204.69461
G1 X17.518 Y61.822 E204.73564
G1 X18.011 Y61.081 E204.77709
G0 F6000 X18.32 Y61.338
G1 F1200 X61.669 Y17.989 E207.63169
G1 X62.282 Y17.582 E207.66595
G1 X63.048 Y17.338 E207.70339
G1 X63.735 Y17.367 E207.73541
G1 X64.485 Y17.558 E207.77144
G1 X65.132 Y17.988 E207.80762
G1 X206.768 Y159.624 E217.13459
G1 X207.175 Y160.237 E217.16885
G1 X207.419 Y161.003 E217.20629
G1 X207.39 Y161.69 E217.23831
G1 X207.199 Y162.44 E217.27434
G1 X206.769 Y163.087 E217.31052
G1 X163.421 Y206.436 E220.16509
G1 X162.808 Y206.843 E220.19935
G1 X162.042 Y207.087 E220.23679
G1 X161.355 Y207.058 E220.2688
G1 X160.605 Y206.867 E220.30484
G1 X159.958 Y206.437 E220.34102
G1 X18.321 Y64.801 E229.66802
G1 X17.914 Y64.188 E229.70228
G1 X17.67 Y63.422 E229.73972
G1 X17.699 Y62.735 E229.77174
G1 X17.89 Y61.985 E229.80777
G1 X18.32 Y61.338 E229.84395
G0 F6000 X18.631 Y61.593
G1 F1200 X61.926 Y18.298 E232.695
G1 X62.455 Y17.947 E232.72456
G1 X63.101 Y17.741 E232.75613
G1 X63.676 Y17.765 E232.78293
G1 X64.321 Y17.929 E232.81392
G1 X64.877 Y18.299 E232.84502
G1 X206.459 Y159.881 E242.16843
G1 X206.81 Y160.41 E242.198
G1 X207.016 Y161.056 E242.22957
G1 X206.992 Y161.631 E242.25637
G1 X206.828 Y162.276 E242.28736
G1 X206.458 Y162.832 E242.31845
G1 X163.164 Y206.127 E245.16947
G1 X162.635 Y206.478 E245.19903
G1 X161.989 Y206.684 E245.23061
G1 X161.414 Y206.66 E245.2574
G1 X160.769 Y206.496 E245.28839
G1 X160.213 Y206.126 E245.31949
G1 X18.63 Y64.544 E254.64294
G1 X18.279 Y64.015 E254.6725
G1 X18.073 Y63.369 E254.70407
G1 X18.097 Y62.794 E254.73087
G1 X18.261 Y62.149 E254.76186
G1 X18.631 Y61.593 E254.79296
G0 F6000 X18.94 Y61.85
G1 F1200 X62.183 Y18.607 E257.64059
G1 X62.628 Y18.312 E257.66545
G1 X63.154 Y18.144 E257.69116
G1 X63.617 Y18.163 E257.71274
G1 X64.158 Y18.301 E257.73873
G1 X64.62 Y18.608 E257.76456
G1 X206.15 Y160.138 E267.08455
G1 X206.445 Y160.583 E267.10942
G1 X206.613 Y161.109 E267.13513
G1 X206.594 Y161.572 E267.1567
G1 X206.456 Y162.113 E267.1827
G1 X206.149 Y162.575 E267.20853
G1 X162.907 Y205.818 E270.05612
G1 X162.462 Y206.113 E270.08098
G1 X161.936 Y206.281 E270.1067
G1 X161.473 Y206.262 E270.12827
G1 X160.932 Y206.124 E270.15427
G1 X160.47 Y205.817 E270.1801
G1 X18.939 Y64.287 E279.50013
G1 X18.644 Y63.842 E279.52499
G1 X18.476 Y63.316 E279.5507
G1 X18.495 Y62.853 E279.57228
G1 X18.633 Y62.312 E279.59827
G1 X18.94 Y61.85 E279.6241
G0 F6000 X19.251 Y62.105
G1 F1200 X62.44 Y18.916 E282.46817
G1 X62.802 Y18.676 E282.4884
G1 X63.207 Y18.547 E282.50819
G1 X63.558 Y18.561 E282.52455
G1 X63.994 Y18.672 E282.54549
G1 X64.365 Y18.919 E282.56625
G1 X205.841 Y160.395 E291.88268
G1 X206.081 Y160.757 E291.90291
G1 X206.21 Y161.162 E291.9227
G1 X206.196 Y161.513 E291.93906
G1 X206.085 Y161.949 E291.96001
G1 X205.838 Y162.32 E291.98076
G1 X162.65 Y205.509 E294.8248
G1 X162.288 Y205.749 E294.84502
G1 X161.883 Y205.878 E294.86481
G1 X161.532 Y205.864 E294.88117
G1 X161.096 Y205.753 E294.90212
G1 X160.725 Y205.506 E294.92287
G1 X19.248 Y64.03 E304.23934
G1 X19.008 Y63.668 E304.25957
G1 X18.879 Y63.263 E304.27936
G1 X18.893 Y62.912 E304.29572
G1 X19.004 Y62.476 E304.31667
G1 X19.251 Y62.105 E304.33742
G0 F6000 X19.56 Y62.362
G1 F1200 X62.694 Y19.228 E307.17787
G1 X62.978 Y19.04 E307.19373
G1 X63.262 Y18.949 E307.20761
G1 X63.459 Y18.949 E307.21679
G1 X63.831 Y19.044 E307.23466
G1 X64.108 Y19.228 E307.25015
G1 X205.529 Y160.649 E316.56296
G1 X205.717 Y160.933 E316.57882
G1 X205.808 Y161.217 E316.59271
G1 X205.808 Y161.414 E316.60188
G1 X205.713 Y161.786 E316.61976
G1 X205.529 Y162.063 E316.63524
G1 X162.396 Y205.197 E319.47566
G1 X162.112 Y205.385 E319.49152
G1 X161.828 Y205.476 E319.50541
G1 X161.631 Y205.476 E319.51458
G1 X161.259 Y205.381 E319.53246
G1 X160.982 Y205.197 E319.54794
G1 X19.56 Y63.776 E328.86079
G1 X19.372 Y63.492 E328.87665
G1 X19.281 Y63.208 E328.89053
G1 X19.281 Y63.011 E328.89971
G1 X19.376 Y62.639 E328.91758
G1 X19.56 Y62.362 E328.93307
G0 F6000 X19.843 Y62.645
G1 F1200 X62.977 Y19.511 E331.77352
G1 X63.188 Y19.381 E331.78506
G1 X63.361 Y19.337 E331.79337
G1 X63.668 Y19.415 E331.80812
G1 X63.825 Y19.511 E331.81669
G1 X205.246 Y160.932 E341.1295
G1 X205.376 Y161.143 E341.14104
G1 X205.42 Y161.316 E341.14935
G1 X205.342 Y161.623 E341.1641
G1 X205.246 Y161.78 E341.17267
G1 X162.113 Y204.914 E344.01309
G1 X161.902 Y205.044 E344.02463
G1 X161.729 Y205.088 E344.03294
G1 X161.422 Y205.01 E344.04769
G1 X161.265 Y204.914 E344.05626
G1 X19.843 Y63.493 E353.3691
G1 X19.713 Y63.282 E353.38064
G1 X19.669 Y63.109 E353.38896
G1 X19.747 Y62.802 E353.40371
G1 X19.843 Y62.645 E353.41228
G0 F6000 X20.126 Y62.928
G1 F1200 X63.26 Y19.794 E356.25272
G1 X63.371 Y19.737 E356.25853
G1 X63.542 Y19.794 E356.26693
G1 X204.963 Y161.215 E365.57974
G1 X205.02 Y161.326 E365.58555
G1 X204.963 Y161.497 E365.59394
G1 X161.83 Y204.631 E368.43436
G1 X161.719 Y204.688 E368.44017
G1 X161.548 Y204.631 E368.44856
G1 X20.126 Y63.21 E377.76141
G1 X20.069 Y63.099 E377.76722
G1 X20.126 Y62.928 E377.77561
G1 F2700 E372.77561
;MESH:megav2-LcdBezel.stl
G0 F6000 X38.75 Y68.517
G0 X156.705 Y185.999
;TYPE:WALL-INNER
G1 F2700 E377.77561
G1 F1200 X156.54 Y185.967 E377.78344
G1 X156.361 Y185.873 E377.79285
G1 X38.884 Y68.396 E385.52891
G1 X38.79 Y68.217 E385.53833
G1 X38.769 Y67.9 E385.55312
G1 X38.884 Y67.644 E385.56619
G1 X68.657 Y37.872 E387.52676
G1 X68.881 Y37.746 E387.53873
G1 X69.223 Y37.744 E387.55465
G1 X69.427 Y37.842 E387.56519
G1 X186.916 Y155.331 E395.30204
G1 X187.013 Y155.534 E395.31252
G1 X187.011 Y155.876 E395.32844
G1 X186.907 Y156.08 E395.33911
G1 X157.125 Y185.858 E397.30017
G1 X156.984 Y185.947 E397.30793
G1 X156.705 Y185.999 E397.32115
G1 F2700 E392.32115
G0 F6000 X156.247 Y185.901
G0 X156.893 Y186.165
G0 X150.694 Y192.363
G0 X161.569 Y203.377
G0 X161.689 Y203.64
G1 F2700 E397.32115
G1 F1200 X203.972 Y161.356 E400.10559
G1 X63.401 Y20.785 E409.36243
G1 X21.117 Y63.069 E412.1469
G1 X161.689 Y203.64 E421.40378
G0 F6000 X161.689 Y204.206
;TYPE:WALL-OUTER
G1 F1200 X204.538 Y161.356 E424.22549
G1 X63.401 Y20.219 E433.5196
G1 X20.551 Y63.069 E436.34135
G1 X161.689 Y204.206 E445.63549
G1 F2700 E440.63549
G0 F6000 X161.689 Y203.824
G0 X150.283 Y191.952
G0 X156.235 Y186.001
G0 X156.646 Y185.589
G1 F2700 E445.63549
G1 F1200 X39.216 Y68.162 E453.36836
G1 X39.161 Y68.058 E453.37384
G1 X39.194 Y67.904 E453.38117
G1 X68.937 Y38.159 E455.33987
G1 X69.081 Y38.122 E455.34679
G1 X69.172 Y38.157 E455.35133
G1 X186.614 Y155.595 E463.08495
G1 X186.634 Y155.734 E463.09149
G1 X186.598 Y155.82 E463.09583
G1 X156.829 Y185.59 E465.05621
G1 X156.646 Y185.589 E465.06473
G1 F2700 E460.06473
G0 F6000 X156.291 Y185.945
G0 X156.893 Y186.165
G0 X150.694 Y192.363
G0 X161.689 Y203.397
G0 X161.689 Y203.13
;TYPE:SKIN
G1 F2700 E465.06473
G1 F1200 X21.627 Y63.069 E474.28802
G1 X63.401 Y21.295 E477.03891
G1 X203.462 Y161.356 E486.26216
G1 X161.689 Y203.13 E489.01302
G1 F2700 E484.01302
G0 F6000 X161.871 Y203.314
G0 X150.294 Y191.963
G0 X156.246 Y186.012
G0 X156.146 Y186.168
G1 F2700 E489.01302
G1 F1200 X156.424 Y186.307 E489.02749
G1 X156.658 Y186.355 E489.03861
G1 X156.936 Y186.34 E489.05158
G1 X157.283 Y186.211 E489.06882
G1 X187.198 Y156.297 E491.03874
G1 X187.388 Y155.856 E491.0611
G1 X187.361 Y155.44 E491.08051
G1 X187.209 Y155.112 E491.09734
G1 X69.644 Y37.549 E498.83913
G1 X69.326 Y37.395 E498.85558
G1 X69.005 Y37.363 E498.8706
G1 X68.768 Y37.406 E498.88182
G1 X68.409 Y37.609 E498.90102
G1 X38.626 Y67.395 E500.86238
G1 X38.475 Y67.645 E500.87598
G1 X38.394 Y68.066 E500.89595
G1 X38.462 Y68.362 E500.91009
G1 X38.605 Y68.629 E500.92419
G1 X156.146 Y186.168 E508.6644
G1 F2700 E503.6644
G0 F6000 X156.302 Y185.956
G0 X38.75 Y68.517
G0 X27.351 Y57.118
G0 X21.8 Y62.529
G0 X22.124 Y62.854
G1 F2700 E508.6644
G1 F1200 X161.902 Y202.632 E517.86902
G0 F6000 X162.185 Y202.349
G1 F1200 X22.407 Y62.571 E527.07364
G0 F6000 X22.69 Y62.288
G1 F1200 X162.468 Y202.066 E536.27826
G0 F6000 X162.751 Y201.783
G1 F1200 X22.973 Y62.005 E545.48288
G0 F6000 X23.256 Y61.722
G1 F1200 X163.034 Y201.5 E554.6875
G0 F6000 X163.316 Y201.217
G1 F1200 X23.538 Y61.439 E563.89212
G0 F6000 X23.821 Y61.156
G1 F1200 X163.599 Y200.934 E573.09674
G0 F6000 X163.882 Y200.652
G1 F1200 X24.104 Y60.874 E582.30136
G0 F6000 X24.387 Y60.591
G1 F1200 X164.165 Y200.369 E591.50598
G0 F6000 X164.448 Y200.086
G1 F1200 X24.67 Y60.308 E600.7106
G0 F6000 X24.953 Y60.025
G1 F1200 X164.731 Y199.803 E609.91522
G0 F6000 X165.013 Y199.52
G1 F1200 X25.235 Y59.742 E619.11984
G0 F6000 X25.518 Y59.459
G1 F1200 X165.296 Y199.237 E628.32446
G0 F6000 X165.579 Y198.955
G1 F1200 X25.801 Y59.177 E637.52908
G0 F6000 X26.084 Y58.894
G1 F1200 X165.862 Y198.672 E646.7337
G0 F6000 X166.145 Y198.389
G1 F1200 X26.367 Y58.611 E655.93832
G0 F6000 X26.65 Y58.328
G1 F1200 X166.428 Y198.106 E665.14294
G0 F6000 X166.711 Y197.823
G1 F1200 X26.932 Y58.045 E674.3476
G0 F6000 X27.215 Y57.762
G1 F1200 X166.993 Y197.54 E683.55222
G0 F6000 X167.276 Y197.258
G1 F1200 X156.552 Y186.533 E684.25844
G0 F6000 X157.08 Y186.496
G1 F1200 X167.559 Y196.975 E684.9485
G0 F6000 X167.842 Y196.692
G1 F1200 X157.463 Y186.313 E685.63198
G0 F6000 X157.746 Y186.03
G1 F1200 X168.125 Y196.409 E686.31545
G0 F6000 X168.408 Y196.126
G1 F1200 X158.029 Y185.747 E686.99893
