;FLAVOR:Marlin
;TIME:15432
;Filament used: 14.0547m
;Layer height: 0.28
;MINX:112.539
;MINY:49.883
;MINZ:0.28
;MAXX:190.539
;MAXY:188.883
;MAXZ:29.12
;TARGET_MACHINE.NAME:Creality Ender-3
;POSTPROCESSED
;  [FilamentChange]
;Generated with Cura_SteamEngine 5.10.1
M140 S50
M105
M190 S50
M104 S200
M105
M109 S200
; Ender 3 Custom Start G-code
G92 E0 ; Reset Extruder
G28 ; Home all axes
G1 Z2.0 F3000 ; Move Z Axis up little to prevent scratching of Heat Bed
G1 X0.1 Y20 Z0.3 F5000.0 ; Move to start position
G1 X0.1 Y200.0 Z0.3 F1500.0 E15 ; Draw the first line
G1 X0.4 Y200.0 Z0.3 F5000.0 ; Move to side a little
G1 X0.4 Y20 Z0.3 F1500.0 E30 ; Draw the second line
G92 E0 ; Reset Extruder
G1 Z2.0 F3000 ; Move Z Axis up little to prevent scratching of Heat Bed
G1 X5 Y20 Z0.3 F5000.0 ; Move over to prevent blob squish
M82 ;absolute extrusion mode
G92 E0
G92 E0
G1 F2700 E-5
;LAYER_COUNT:104
;LAYER:0
M107
G0 F6000 X112.83 Y53.143 Z0.28
;TYPE:SKIRT
G1 F2700 E0
G1 F1200 X113.515 Y51.823 E0.06925
G1 X114.522 Y50.889 E0.1332
G1 X115.81 Y50.121 E0.20303
G1 X117.015 Y49.923 E0.25989
G1 X186.068 Y49.883 E3.47529
G1 X187.289 Y50.183 E3.53384
G1 X188.599 Y50.862 E3.60254
G1 X189.527 Y51.857 E3.6659
G1 X190.301 Y53.154 E3.73623
G1 X190.499 Y54.359 E3.79309
G1 X190.539 Y184.417 E9.84913
G1 X190.248 Y185.623 E9.9069
G1 X189.563 Y186.943 E9.97615
G1 X188.556 Y187.877 E10.0401
G1 X187.268 Y188.645 E10.10993
G1 X186.063 Y188.843 E10.16679
G1 X117.01 Y188.883 E13.38219
G1 X115.789 Y188.583 E13.44074
G1 X114.479 Y187.904 E13.50944
G1 X113.551 Y186.909 E13.5728
G1 X112.777 Y185.612 E13.64313
G1 X112.579 Y184.407 E13.69999
G1 X112.539 Y54.349 E19.75604
G1 X112.83 Y53.143 E19.8138
G0 F6000 X113.208 Y53.283
G1 F1200 X113.838 Y52.069 E19.87749
G1 X114.761 Y51.213 E19.93611
G1 X115.95 Y50.504 E20.00057
G1 X117.08 Y50.318 E20.05389
G1 X186.022 Y50.283 E23.26412
G1 X187.146 Y50.559 E23.31802
G1 X188.352 Y51.184 E23.38127
G1 X189.205 Y52.099 E23.43951
G1 X189.918 Y53.294 E23.50431
G1 X190.104 Y54.424 E23.55764
G1 X190.139 Y184.369 E29.60842
G1 X189.87 Y185.483 E29.66178
G1 X189.24 Y186.697 E29.72547
G1 X188.317 Y187.553 E29.78409
G1 X187.128 Y188.262 E29.84855
G1 X185.998 Y188.448 E29.90187
G1 X117.056 Y188.483 E33.1121
G1 X115.932 Y188.207 E33.166
G1 X114.726 Y187.582 E33.22925
G1 X113.873 Y186.667 E33.28749
G1 X113.16 Y185.472 E33.35229
G1 X112.974 Y184.342 E33.40562
G1 X112.939 Y54.397 E39.4564
G1 X113.208 Y53.283 E39.50976
G0 F6000 X113.586 Y53.423
G1 F1200 X114.161 Y52.315 E39.56789
G1 X115 Y51.537 E39.62117
G1 X116.09 Y50.887 E39.68026
G1 X117.145 Y50.713 E39.73005
G1 X185.975 Y50.683 E42.93506
G1 X187.004 Y50.936 E42.98441
G1 X188.105 Y51.506 E43.04214
G1 X188.883 Y52.341 E43.09528
G1 X189.535 Y53.434 E43.15454
G1 X189.709 Y54.489 E43.20433
G1 X189.739 Y184.321 E49.24985
G1 X189.492 Y185.343 E49.29881
G1 X188.917 Y186.451 E49.35694
G1 X188.078 Y187.229 E49.41022
G1 X186.988 Y187.879 E49.46931
G1 X185.933 Y188.053 E49.5191
G1 X117.103 Y188.083 E52.72411
G1 X116.074 Y187.83 E52.77345
G1 X114.973 Y187.26 E52.83119
G1 X114.195 Y186.425 E52.88433
G1 X113.543 Y185.332 E52.94359
G1 X113.369 Y184.277 E52.99338
G1 X113.339 Y54.445 E59.0389
G1 X113.586 Y53.423 E59.08786
G0 F6000 X113.964 Y53.563
G1 F1200 X114.484 Y52.561 E59.14043
G1 X115.239 Y51.861 E59.18837
G1 X116.23 Y51.27 E59.24209
G1 X117.21 Y51.108 E59.28835
G1 X185.929 Y51.083 E62.48819
G1 X186.861 Y51.312 E62.53288
G1 X187.858 Y51.828 E62.58515
G1 X188.561 Y52.583 E62.63319
G1 X189.152 Y53.574 E62.68692
G1 X189.314 Y54.554 E62.73317
G1 X189.339 Y184.273 E68.77343
G1 X189.114 Y185.203 E68.81798
G1 X188.594 Y186.205 E68.87055
G1 X187.839 Y186.905 E68.91849
G1 X186.848 Y187.496 E68.97222
G1 X185.868 Y187.658 E69.01847
G1 X117.149 Y187.683 E72.21832
G1 X116.217 Y187.454 E72.26301
G1 X115.22 Y186.938 E72.31528
G1 X114.517 Y186.183 E72.36332
G1 X113.926 Y185.192 E72.41704
G1 X113.764 Y184.212 E72.4633
G1 X113.739 Y54.493 E78.50356
G1 X113.964 Y53.563 E78.54811
G0 F6000 X114.342 Y53.703
G1 F1200 X114.807 Y52.807 E78.59512
G1 X115.478 Y52.185 E78.63772
G1 X116.37 Y51.653 E78.68608
G1 X117.275 Y51.503 E78.7288
G1 X185.883 Y51.483 E81.92347
G1 X186.718 Y51.688 E81.96351
G1 X187.613 Y52.151 E82.01043
G1 X188.237 Y52.822 E82.0531
G1 X188.769 Y53.714 E82.10146
G1 X188.919 Y54.619 E82.14417
G1 X188.939 Y184.224 E88.17912
G1 X188.736 Y185.063 E88.21932
G1 X188.271 Y185.959 E88.26632
G1 X187.6 Y186.581 E88.30893
G1 X186.708 Y187.113 E88.35729
G1 X185.803 Y187.263 E88.40001
G1 X117.195 Y187.283 E91.59468
G1 X116.36 Y187.078 E91.63472
G1 X115.465 Y186.615 E91.68164
G1 X114.841 Y185.944 E91.72431
G1 X114.309 Y185.052 E91.77267
G1 X114.159 Y184.147 E91.81538
G1 X114.139 Y54.542 E97.85033
G1 X114.342 Y53.703 E97.89053
G0 F6000 X114.72 Y53.843
G1 F1200 X115.13 Y53.053 E97.93197
G1 X115.717 Y52.509 E97.96924
G1 X116.51 Y52.036 E98.01223
G1 X117.341 Y51.898 E98.05146
G1 X185.837 Y51.883 E101.24092
G1 X186.575 Y52.064 E101.2763
G1 X187.368 Y52.474 E101.31787
G1 X187.913 Y53.061 E101.35517
G1 X188.386 Y53.854 E101.39816
G1 X188.524 Y54.685 E101.43739
G1 X188.539 Y184.175 E107.46699
G1 X188.358 Y184.923 E107.50282
G1 X187.948 Y185.713 E107.54427
G1 X187.361 Y186.257 E107.58153
G1 X186.568 Y186.73 E107.62453
G1 X185.737 Y186.868 E107.66375
G1 X117.241 Y186.883 E110.85321
G1 X116.503 Y186.702 E110.8886
G1 X115.71 Y186.292 E110.93016
G1 X115.165 Y185.705 E110.96746
G1 X114.692 Y184.912 E111.01046
G1 X114.554 Y184.081 E111.04968
G1 X114.539 Y54.591 E117.07928
G1 X114.72 Y53.843 E117.11511
G0 F6000 X115.098 Y53.983
G1 F1200 X115.453 Y53.299 E117.151
G1 X115.956 Y52.833 E117.18293
G1 X116.65 Y52.419 E117.22056
G1 X117.407 Y52.293 E117.25629
G1 X185.787 Y52.283 E120.44035
G1 X186.436 Y52.442 E120.47146
G1 X187.123 Y52.797 E120.50747
G1 X187.589 Y53.3 E120.5394
G1 X188.003 Y53.994 E120.57703
G1 X188.129 Y54.751 E120.61276
G1 X188.139 Y184.126 E126.637
G1 X187.98 Y184.783 E126.66848
G1 X187.625 Y185.467 E126.70436
G1 X187.122 Y185.933 E126.73629
G1 X186.428 Y186.347 E126.77392
G1 X185.671 Y186.473 E126.80966
G1 X117.291 Y186.483 E129.99371
G1 X116.642 Y186.324 E130.02483
G1 X115.955 Y185.969 E130.06084
G1 X115.489 Y185.466 E130.09276
G1 X115.075 Y184.772 E130.13039
G1 X114.949 Y184.015 E130.16613
G1 X114.939 Y54.64 E136.19037
G1 X115.098 Y53.983 E136.22185
G0 F6000 X115.476 Y54.123
G1 F1200 X115.776 Y53.545 E136.25217
G1 X116.195 Y53.157 E136.27876
G1 X116.79 Y52.802 E136.31102
G1 X117.473 Y52.688 E136.34327
G1 X185.737 Y52.683 E139.52192
G1 X186.297 Y52.82 E139.54877
G1 X186.877 Y53.12 E139.57917
G1 X187.265 Y53.539 E139.60576
G1 X187.62 Y54.134 E139.63803
G1 X187.734 Y54.817 E139.67027
G1 X187.739 Y184.077 E145.68916
G1 X187.602 Y184.643 E145.71627
G1 X187.302 Y185.221 E145.7466
G1 X186.883 Y185.609 E145.77319
G1 X186.288 Y185.964 E145.80545
G1 X185.605 Y186.078 E145.83769
G1 X117.341 Y186.083 E149.01635
G1 X116.781 Y185.946 E149.0432
G1 X116.201 Y185.646 E149.0736
G1 X115.813 Y185.227 E149.10019
G1 X115.458 Y184.632 E149.13246
G1 X115.344 Y183.949 E149.1647
G1 X115.339 Y54.689 E155.18359
G1 X115.476 Y54.123 E155.2107
G0 F6000 X115.854 Y54.263
G1 F1200 X116.099 Y53.791 E155.23546
G1 X116.437 Y53.478 E155.25692
G1 X116.928 Y53.185 E155.28354
G1 X117.539 Y53.083 E155.31238
G1 X185.687 Y53.083 E158.48564
G1 X186.158 Y53.198 E158.50822
G1 X186.631 Y53.443 E158.53302
G1 X186.944 Y53.781 E158.55447
G1 X187.237 Y54.272 E158.5811
G1 X187.339 Y54.883 E158.60994
G1 X187.339 Y184.028 E164.62347
G1 X187.224 Y184.503 E164.64623
G1 X186.979 Y184.975 E164.67099
G1 X186.641 Y185.288 E164.69244
G1 X186.15 Y185.581 E164.71907
G1 X185.539 Y185.683 E164.74791
G1 X117.391 Y185.683 E167.92117
G1 X116.92 Y185.568 E167.94374
G1 X116.447 Y185.323 E167.96855
G1 X116.134 Y184.985 E167.99
G1 X115.841 Y184.494 E168.01662
G1 X115.739 Y183.883 E168.04547
G1 X115.739 Y54.738 E174.059
G1 X115.854 Y54.263 E174.08176
G0 F6000 X116.232 Y54.403
G1 F1200 X116.422 Y54.037 E174.10096
G1 X116.679 Y53.799 E174.11727
G1 X117.066 Y53.568 E174.13826
G1 X117.539 Y53.483 E174.16063
G1 X185.637 Y53.483 E177.33156
G1 X186.019 Y53.576 E177.34987
G1 X186.385 Y53.766 E177.36907
G1 X186.623 Y54.023 E177.38538
G1 X186.854 Y54.41 E177.40637
G1 X186.939 Y54.883 E177.42874
G1 X186.939 Y183.979 E183.44
G1 X186.846 Y184.363 E183.45839
G1 X186.656 Y184.729 E183.47759
G1 X186.399 Y184.967 E183.4939
G1 X186.012 Y185.198 E183.51489
G1 X185.539 Y185.283 E183.53727
G1 X117.441 Y185.283 E186.7082
G1 X117.059 Y185.19 E186.7265
G1 X116.693 Y185 E186.74571
G1 X116.455 Y184.743 E186.76202
G1 X116.224 Y184.356 E186.783
G1 X116.139 Y183.883 E186.80538
G1 X116.139 Y54.787 E192.81663
G1 X116.232 Y54.403 E192.83503
G0 F6000 X116.609 Y54.545
G1 F1200 X116.746 Y54.282 E192.84884
G1 X116.884 Y54.143 E192.85796
G1 X117.211 Y53.948 E192.87569
G1 X117.539 Y53.883 E192.89126
G1 X185.588 Y53.883 E196.0599
G1 X185.877 Y53.953 E196.07375
G1 X186.14 Y54.09 E196.08756
G1 X186.279 Y54.228 E196.09668
G1 X186.474 Y54.555 E196.11441
G1 X186.539 Y54.883 E196.12998
G1 X186.539 Y183.931 E202.13899
G1 X186.469 Y184.221 E202.15288
G1 X186.332 Y184.484 E202.16669
G1 X186.194 Y184.623 E202.17581
G1 X185.867 Y184.818 E202.19354
G1 X185.539 Y184.883 E202.20911
G1 X117.49 Y184.883 E205.37776
G1 X117.201 Y184.813 E205.3916
G1 X116.938 Y184.676 E205.40541
G1 X116.799 Y184.538 E205.41453
G1 X116.604 Y184.211 E205.43226
G1 X116.539 Y183.883 E205.44783
G1 X116.539 Y54.835 E211.45685
G1 X116.609 Y54.545 E211.47074
G0 F6000 X117.378 Y54.764
G1 F1200 X117.539 Y54.683 E211.47913
G1 X185.539 Y54.683 E214.64549
G1 X185.658 Y54.722 E214.65132
G1 X185.739 Y54.883 E214.65972
G1 X185.739 Y183.883 E220.6665
G1 X185.7 Y184.002 E220.67233
G1 X185.539 Y184.083 E220.68072
G1 X117.539 Y184.083 E223.84709
G1 X117.42 Y184.044 E223.85292
G1 X117.339 Y183.883 E223.86131
G1 X117.339 Y54.883 E229.86809
G1 X117.378 Y54.764 E229.87392
G0 F6000 X116.998 Y54.639
G1 F1200 X117.089 Y54.487 E229.88217
G1 X117.359 Y54.326 E229.89681
G1 X117.539 Y54.283 E229.90542
G1 X185.539 Y54.283 E233.07179
G1 X185.783 Y54.342 E233.08348
G1 X185.935 Y54.433 E233.09173
G1 X186.096 Y54.703 E233.10637
G1 X186.139 Y54.883 E233.11498
G1 X186.139 Y183.883 E239.12176
G1 X186.08 Y184.127 E239.13345
G1 X185.989 Y184.279 E239.1417
G1 X185.719 Y184.44 E239.15634
G1 X185.539 Y184.483 E239.16496
G1 X117.539 Y184.483 E242.33132
G1 X117.295 Y184.424 E242.34301
G1 X117.143 Y184.333 E242.35126
G1 X116.982 Y184.063 E242.3659
G1 X116.939 Y183.883 E242.37452
G1 X116.939 Y54.883 E248.3813
G1 X116.998 Y54.639 E248.39299
G1 F2700 E243.39299
;MESH:box1-Body.stl
G0 F6000 X118.336 Y55.68
G0 X132.727 Y183.28
;TYPE:WALL-INNER
G1 F2700 E248.39299
G1 F1200 X184.936 Y183.28 E250.82405
G1 X184.936 Y55.48 E256.77496
G1 X118.136 Y55.48 E259.88545
G1 X118.136 Y183.28 E265.83635
G1 X132.727 Y183.28 E266.51577
G0 F6000 X132.609 Y183.68
;TYPE:WALL-OUTER
G1 F1200 X185.336 Y183.68 E268.97096
G1 X185.336 Y55.08 E274.95911
G1 X117.736 Y55.08 E278.10685
G1 X117.736 Y183.68 E284.09501
G1 X132.609 Y183.68 E284.78756
G0 F6000 X132.833 Y182.92
;TYPE:SKIN
G1 F1200 X118.496 Y182.92 E285.45515
G1 X118.496 Y55.84 E291.37252
G1 X184.576 Y55.84 E294.44948
G1 X184.576 Y182.92 E300.36686
G1 X132.833 Y182.92 E302.77623
G0 F6000 X132.833 Y183.18
G0 X118.797 Y183.18
G0 X118.797 Y182.72
G1 F1200 X118.696 Y182.618 E302.78292
G0 F6000 X118.696 Y182.052
G1 F1200 X119.363 Y182.72 E302.82687
G0 F6000 X119.929 Y182.72
G1 F1200 X118.696 Y181.487 E302.90807
G0 F6000 X118.696 Y180.921
G1 F1200 X120.495 Y182.72 E303.02654
G0 F6000 X121.06 Y182.72
G1 F1200 X118.696 Y180.355 E303.18224
G0 F6000 X118.696 Y179.79
G1 F1200 X121.626 Y182.72 E303.37519
G0 F6000 X122.192 Y182.72
G1 F1200 X118.696 Y179.224 E303.6054
G0 F6000 X118.696 Y178.658
G1 F1200 X122.757 Y182.72 E303.87286
G0 F6000 X123.323 Y182.72
G1 F1200 X118.696 Y178.093 E304.17756
G0 F6000 X118.696 Y177.527
G1 F1200 X123.889 Y182.72 E304.51953
G0 F6000 X124.454 Y182.72
G1 F1200 X118.696 Y176.961 E304.89873
G0 F6000 X118.696 Y176.396
G1 F1200 X125.02 Y182.72 E305.31518
G0 F6000 X125.586 Y182.72
G1 F1200 X118.696 Y175.83 E305.7689
G0 F6000 X118.696 Y175.264
G1 F1200 X126.151 Y182.72 E306.25985
G0 F6000 X126.717 Y182.72
G1 F1200 X118.696 Y174.699 E306.78805
G0 F6000 X118.696 Y174.133
G1 F1200 X127.283 Y182.72 E307.35352
G0 F6000 X127.848 Y182.72
G1 F1200 X118.696 Y173.567 E307.95623
G0 F6000 X118.696 Y173.001
G1 F1200 X128.414 Y182.72 E308.59621
G0 F6000 X128.98 Y182.72
G1 F1200 X118.696 Y172.436 E309.27343
G0 F6000 X118.696 Y171.87
G1 F1200 X129.545 Y182.72 E309.98788
G0 F6000 X130.111 Y182.72
G1 F1200 X118.696 Y171.304 E310.73961
G0 F6000 X118.696 Y170.739
G1 F1200 X130.677 Y182.72 E311.52858
G0 F6000 X131.243 Y182.72
G1 F1200 X118.696 Y170.173 E312.35482
G0 F6000 X118.696 Y169.607
G1 F1200 X131.808 Y182.72 E313.21831
G0 F6000 X132.374 Y182.72
G1 F1200 X118.696 Y169.042 E314.11902
G0 F6000 X118.696 Y168.476
G1 F1200 X132.94 Y182.72 E315.05702
G0 F6000 X133.505 Y182.72
G1 F1200 X118.696 Y167.91 E316.03225
G0 F6000 X118.696 Y167.345
G1 F1200 X134.071 Y182.72 E317.04472
G0 F6000 X134.637 Y182.72
G1 F1200 X118.696 Y166.779 E318.09446
G0 F6000 X118.696 Y166.213
G1 F1200 X135.202 Y182.72 E319.18144
G0 F6000 X135.768 Y182.72
G1 F1200 X118.696 Y165.648 E320.30566
G0 F6000 X118.696 Y165.082
G1 F1200 X136.334 Y182.72 E321.46715
G0 F6000 X136.899 Y182.72
G1 F1200 X118.696 Y164.516 E322.66589
G0 F6000 X118.696 Y163.95
G1 F1200 X137.465 Y182.72 E323.90189
G0 F6000 X138.031 Y182.72
G1 F1200 X118.696 Y163.385 E325.17513
G0 F6000 X118.696 Y162.819
G1 F1200 X138.596 Y182.72 E326.48561
G0 F6000 X139.162 Y182.72
G1 F1200 X118.696 Y162.253 E327.83337
G0 F6000 X118.696 Y161.688
G1 F1200 X139.728 Y182.72 E329.21836
G0 F6000 X140.294 Y182.72
G1 F1200 X118.696 Y161.122 E330.64063
G0 F6000 X118.696 Y160.556
G1 F1200 X140.859 Y182.72 E332.10013
G0 F6000 X141.425 Y182.72
G1 F1200 X118.696 Y159.991 E333.59687
G0 F6000 X118.696 Y159.425
G1 F1200 X141.991 Y182.72 E335.13089
G0 F6000 X142.556 Y182.72
G1 F1200 X118.696 Y158.859 E336.70214
G0 F6000 X118.696 Y158.294
G1 F1200 X143.122 Y182.72 E338.31064
G0 F6000 X143.688 Y182.72
G1 F1200 X118.696 Y157.728 E339.9564
G0 F6000 X118.696 Y157.162
G1 F1200 X144.253 Y182.72 E341.63941
G0 F6000 X144.819 Y182.72
G1 F1200 X118.696 Y156.597 E343.35965
G0 F6000 X118.696 Y156.031
G1 F1200 X145.385 Y182.72 E345.11717
G0 F6000 X145.95 Y182.72
G1 F1200 X118.696 Y155.465 E346.91192
G0 F6000 X118.696 Y154.9
G1 F1200 X146.516 Y182.72 E348.74392
G0 F6000 X147.082 Y182.72
G1 F1200 X118.696 Y154.334 E350.61319
G0 F6000 X118.696 Y153.768
G1 F1200 X147.647 Y182.72 E352.51969
G0 F6000 X148.213 Y182.72
G1 F1200 X118.696 Y153.202 E354.46347
G0 F6000 X118.696 Y152.637
G1 F1200 X148.779 Y182.72 E356.44449
G0 F6000 X149.344 Y182.72
G1 F1200 X118.696 Y152.071 E358.46274
G0 F6000 X118.696 Y151.505
G1 F1200 X149.91 Y182.72 E360.51827
G0 F6000 X150.476 Y182.72
G1 F1200 X118.696 Y150.94 E362.61104
G0 F6000 X118.696 Y150.374
G1 F1200 X151.042 Y182.72 E364.74108
G0 F6000 X151.607 Y182.72
G1 F1200 X118.696 Y149.808 E366.90835
G0 F6000 X118.696 Y149.243
G1 F1200 X152.173 Y182.72 E369.11287
G0 F6000 X152.739 Y182.72
G1 F1200 X118.696 Y148.677 E371.35466
G0 F6000 X118.696 Y148.111
G1 F1200 X153.304 Y182.72 E373.63369
G0 F6000 X153.87 Y182.72
G1 F1200 X118.696 Y147.546 E375.94996
G0 F6000 X118.696 Y146.98
G1 F1200 X154.436 Y182.72 E378.3035
G0 F6000 X155.001 Y182.72
G1 F1200 X118.696 Y146.414 E380.69428
G0 F6000 X118.696 Y145.849
G1 F1200 X155.567 Y182.72 E383.1223
G0 F6000 X156.133 Y182.72
G1 F1200 X118.696 Y145.283 E385.58759
G0 F6000 X118.696 Y144.717
G1 F1200 X156.698 Y182.72 E388.09012
G0 F6000 X157.264 Y182.72
G1 F1200 X118.696 Y144.151 E390.62992
G0 F6000 X118.696 Y143.586
G1 F1200 X157.83 Y182.72 E393.20696
G0 F6000 X158.395 Y182.72
G1 F1200 X118.696 Y143.02 E395.82124
G0 F6000 X118.696 Y142.454
G1 F1200 X158.961 Y182.72 E398.47279
G0 F6000 X159.527 Y182.72
G1 F1200 X118.696 Y141.889 E401.16158
G0 F6000 X118.696 Y141.323
G1 F1200 X160.093 Y182.72 E403.88764
G0 F6000 X160.658 Y182.72
G1 F1200 X118.696 Y140.757 E406.65095
G0 F6000 X118.696 Y140.192
G1 F1200 X161.224 Y182.72 E409.45149
