;FLAVOR:Marlin
;TIME:26008
;Filament used: 24.2384m
;Layer height: 0.28
;MINX:41.38
;MINY:49.883
;MINZ:0.28
;MAXX:190.539
;MAXY:192.061
;MAXZ:29.12
;TARGET_MACHINE.NAME:Creality Ender-3
;POSTPROCESSED
;  [FilamentChange]
;Generated with Cura_SteamEngine 5.10.1
M140 S50
M105
M190 S50
M104 S200
M105
M109 S200
; Ender 3 Custom Start G-code
G92 E0 ; Reset Extruder
G28 ; Home all axes
G1 Z2.0 F3000 ; Move Z Axis up little to prevent scratching of Heat Bed
G1 X0.1 Y20 Z0.3 F5000.0 ; Move to start position
G1 X0.1 Y200.0 Z0.3 F1500.0 E15 ; Draw the first line
G1 X0.4 Y200.0 Z0.3 F5000.0 ; Move to side a little
G1 X0.4 Y20 Z0.3 F1500.0 E30 ; Draw the second line
G92 E0 ; Reset Extruder
G1 Z2.0 F3000 ; Move Z Axis up little to prevent scratching of Heat Bed
G1 X5 Y20 Z0.3 F5000.0 ; Move over to prevent blob squish
M82 ;absolute extrusion mode
G92 E0
G92 E0
G1 F2700 E-5
;LAYER_COUNT:104
;LAYER:0
M107
G0 F6000 X43.363 Y54.067 Z0.28
;TYPE:SKIRT
G1 F2700 E0
G1 F1200 X44.651 Y53.299 E0.06983
G1 X45.856 Y53.101 E0.12669
G1 X54.915 Y53.061 E0.54852
G1 X55.409 Y53.181 E0.57219
G1 X55.917 Y53.096 E0.59617
G1 X66.918 Y53.061 E1.10843
G1 X67.41 Y53.181 E1.13201
G1 X67.917 Y53.096 E1.15595
G1 X78.918 Y53.061 E1.6682
G1 X79.41 Y53.181 E1.69178
G1 X79.917 Y53.096 E1.71572
G1 X90.918 Y53.061 E2.22798
G1 X91.41 Y53.181 E2.25156
G1 X91.917 Y53.096 E2.2755
G1 X102.918 Y53.061 E2.78775
G1 X103.41 Y53.181 E2.81133
G1 X103.917 Y53.096 E2.83527
G1 X112.872 Y53.066 E3.25225
G1 X113.515 Y51.823 E3.31742
G1 X114.522 Y50.889 E3.38137
G1 X115.81 Y50.121 E3.4512
G1 X117.015 Y49.923 E3.50806
G1 X186.068 Y49.883 E6.72346
G1 X187.289 Y50.183 E6.78201
G1 X188.599 Y50.862 E6.85071
G1 X189.527 Y51.857 E6.91407
G1 X190.301 Y53.154 E6.9844
G1 X190.499 Y54.359 E7.04126
G1 X190.539 Y184.417 E13.0973
G1 X190.248 Y185.623 E13.15507
G1 X189.563 Y186.943 E13.22432
G1 X188.556 Y187.877 E13.28828
G1 X187.268 Y188.645 E13.3581
G1 X186.063 Y188.843 E13.41496
G1 X119.045 Y188.883 E16.5356
G1 X118.404 Y190.121 E16.60052
G1 X117.397 Y191.055 E16.66447
G1 X116.109 Y191.823 E16.7343
G1 X114.904 Y192.021 E16.79116
G1 X103.844 Y192.061 E17.30617
G1 X103.351 Y191.941 E17.32979
G1 X102.843 Y192.026 E17.35378
G1 X91.842 Y192.061 E17.86603
G1 X91.35 Y191.941 E17.88961
G1 X90.843 Y192.026 E17.91355
G1 X79.842 Y192.061 E18.42581
G1 X79.35 Y191.941 E18.44939
G1 X78.843 Y192.026 E18.47332
G1 X67.842 Y192.061 E18.98558
G1 X67.35 Y191.941 E19.00916
G1 X66.843 Y192.026 E19.0331
G1 X55.842 Y192.061 E19.54535
G1 X55.35 Y191.941 E19.56893
G1 X54.843 Y192.026 E19.59287
G1 X45.852 Y192.061 E20.01153
G1 X44.63 Y191.761 E20.07012
G1 X43.32 Y191.082 E20.13883
G1 X42.392 Y190.087 E20.20219
G1 X41.618 Y188.79 E20.27252
G1 X41.42 Y187.585 E20.32938
G1 X41.38 Y57.527 E26.38542
G1 X41.671 Y56.321 E26.44319
G1 X42.356 Y55.001 E26.51244
G1 X43.363 Y54.067 E26.57639
G0 F6000 X43.602 Y54.391
G1 F1200 X44.791 Y53.682 E26.64086
G1 X45.921 Y53.496 E26.69418
G1 X54.867 Y53.461 E27.11075
G1 X55.395 Y53.589 E27.13605
G1 X55.983 Y53.491 E27.1638
G1 X66.869 Y53.461 E27.6707
G1 X67.395 Y53.589 E27.69591
G1 X67.983 Y53.491 E27.72367
G1 X78.869 Y53.461 E28.23057
G1 X79.395 Y53.589 E28.25577
G1 X79.983 Y53.491 E28.28353
G1 X90.869 Y53.461 E28.79043
G1 X91.395 Y53.589 E28.81564
G1 X91.983 Y53.491 E28.8434
G1 X102.869 Y53.461 E29.3503
G1 X103.395 Y53.589 E29.3755
G1 X103.983 Y53.491 E29.40326
G1 X113.165 Y53.465 E29.83082
G1 X113.231 Y53.239 E29.84178
G1 X113.838 Y52.069 E29.90315
G1 X114.761 Y51.213 E29.96177
G1 X115.95 Y50.504 E30.02623
G1 X117.08 Y50.318 E30.07956
G1 X186.022 Y50.283 E33.28979
G1 X187.146 Y50.559 E33.34368
G1 X188.352 Y51.184 E33.40693
G1 X189.205 Y52.099 E33.46518
G1 X189.918 Y53.294 E33.52997
G1 X190.104 Y54.424 E33.5833
G1 X190.139 Y184.369 E39.63408
G1 X189.87 Y185.483 E39.68745
G1 X189.24 Y186.697 E39.75113
G1 X188.317 Y187.553 E39.80975
G1 X187.128 Y188.262 E39.87421
G1 X185.998 Y188.448 E39.92754
G1 X118.754 Y188.483 E43.0587
G1 X118.688 Y188.705 E43.06948
G1 X118.081 Y189.875 E43.13086
G1 X117.158 Y190.731 E43.18948
G1 X115.969 Y191.44 E43.25394
G1 X114.839 Y191.626 E43.30726
G1 X103.892 Y191.661 E43.817
G1 X103.365 Y191.533 E43.84226
G1 X102.777 Y191.631 E43.87001
G1 X91.891 Y191.661 E44.37691
G1 X91.365 Y191.533 E44.40212
G1 X90.777 Y191.631 E44.42988
G1 X79.891 Y191.661 E44.93678
G1 X79.365 Y191.533 E44.96198
G1 X78.777 Y191.631 E44.98974
G1 X67.891 Y191.661 E45.49664
G1 X67.365 Y191.533 E45.52185
G1 X66.777 Y191.631 E45.54961
G1 X55.891 Y191.661 E46.05651
G1 X55.365 Y191.533 E46.08171
G1 X54.777 Y191.631 E46.10947
G1 X45.897 Y191.661 E46.52296
G1 X44.773 Y191.385 E46.57686
G1 X43.567 Y190.76 E46.64011
G1 X42.714 Y189.845 E46.69835
G1 X42.001 Y188.65 E46.76315
G1 X41.815 Y187.52 E46.81648
G1 X41.78 Y57.575 E52.86726
G1 X42.049 Y56.461 E52.92062
G1 X42.679 Y55.247 E52.98431
G1 X43.602 Y54.391 E53.04293
G0 F6000 X43.841 Y54.715
G1 F1200 X44.931 Y54.065 E53.10202
G1 X45.986 Y53.891 E53.15181
G1 X54.818 Y53.861 E53.56307
G1 X55.38 Y53.998 E53.59
G1 X56.049 Y53.886 E53.62159
G1 X66.82 Y53.861 E54.12313
G1 X67.38 Y53.998 E54.14998
G1 X68.049 Y53.886 E54.18156
G1 X78.82 Y53.861 E54.68311
G1 X79.38 Y53.998 E54.70995
G1 X80.049 Y53.886 E54.74154
G1 X90.82 Y53.861 E55.24308
G1 X91.38 Y53.998 E55.26993
G1 X92.049 Y53.886 E55.30151
G1 X102.82 Y53.861 E55.80305
G1 X103.38 Y53.998 E55.8299
G1 X104.049 Y53.886 E55.86148
G1 X113.48 Y53.864 E56.30063
G1 X113.586 Y53.423 E56.32175
G1 X114.161 Y52.315 E56.37988
G1 X115 Y51.537 E56.43316
G1 X116.09 Y50.887 E56.49225
G1 X117.145 Y50.713 E56.54204
G1 X185.975 Y50.683 E59.74705
G1 X187.004 Y50.936 E59.7964
G1 X188.105 Y51.506 E59.85413
G1 X188.883 Y52.341 E59.90727
G1 X189.535 Y53.434 E59.96653
G1 X189.709 Y54.489 E60.01632
G1 X189.739 Y184.321 E66.06184
G1 X189.492 Y185.343 E66.1108
G1 X188.917 Y186.451 E66.16893
G1 X188.078 Y187.229 E66.22221
G1 X186.988 Y187.879 E66.2813
G1 X185.933 Y188.053 E66.33109
G1 X118.439 Y188.083 E69.47389
G1 X118.333 Y188.521 E69.49488
G1 X117.758 Y189.629 E69.553
G1 X116.919 Y190.407 E69.60628
G1 X115.829 Y191.057 E69.66538
G1 X114.774 Y191.231 E69.71517
G1 X103.941 Y191.261 E70.2196
G1 X103.38 Y191.124 E70.24649
G1 X102.711 Y191.236 E70.27807
G1 X91.94 Y191.261 E70.77962
G1 X91.38 Y191.124 E70.80646
G1 X90.711 Y191.236 E70.83805
G1 X79.94 Y191.261 E71.33959
G1 X79.38 Y191.124 E71.36644
G1 X78.711 Y191.236 E71.39802
G1 X67.94 Y191.261 E71.89957
G1 X67.38 Y191.124 E71.92641
G1 X66.711 Y191.236 E71.958
G1 X55.94 Y191.261 E72.45954
G1 X55.38 Y191.124 E72.48638
G1 X54.711 Y191.236 E72.51797
G1 X45.944 Y191.261 E72.9262
G1 X44.915 Y191.008 E72.97554
G1 X43.814 Y190.438 E73.03327
G1 X43.036 Y189.603 E73.08641
G1 X42.384 Y188.51 E73.14568
G1 X42.21 Y187.455 E73.19546
G1 X42.18 Y57.623 E79.24099
G1 X42.427 Y56.601 E79.28995
G1 X43.002 Y55.493 E79.34807
G1 X43.841 Y54.715 E79.40135
G0 F6000 X44.08 Y55.039
G1 F1200 X45.071 Y54.448 E79.45508
G1 X46.051 Y54.286 E79.50133
G1 X54.769 Y54.261 E79.90728
G1 X55.366 Y54.407 E79.9359
G1 X56.05 Y54.286 E79.96824
G1 X66.77 Y54.261 E80.46741
G1 X67.366 Y54.407 E80.49598
G1 X68.05 Y54.286 E80.52833
G1 X78.77 Y54.261 E81.0275
G1 X79.366 Y54.407 E81.05607
G1 X80.05 Y54.286 E81.08842
G1 X90.77 Y54.261 E81.58759
G1 X91.366 Y54.407 E81.61616
G1 X92.05 Y54.286 E81.6485
G1 X102.77 Y54.261 E82.14767
G1 X103.366 Y54.407 E82.17624
G1 X104.05 Y54.286 E82.20859
G1 X113.795 Y54.263 E82.66236
G1 X113.964 Y53.563 E82.69589
G1 X114.484 Y52.561 E82.74846
G1 X115.239 Y51.861 E82.7964
G1 X116.23 Y51.27 E82.85013
G1 X117.21 Y51.108 E82.89638
G1 X185.929 Y51.083 E86.09622
G1 X186.861 Y51.312 E86.14091
G1 X187.858 Y51.828 E86.19318
G1 X188.561 Y52.583 E86.24122
G1 X189.152 Y53.574 E86.29495
G1 X189.314 Y54.554 E86.3412
G1 X189.339 Y184.273 E92.38146
G1 X189.114 Y185.203 E92.42601
G1 X188.594 Y186.205 E92.47858
G1 X187.839 Y186.905 E92.52652
G1 X186.848 Y187.496 E92.58025
G1 X185.868 Y187.658 E92.6265
G1 X118.124 Y187.683 E95.78095
G1 X117.955 Y188.381 E95.81439
G1 X117.435 Y189.383 E95.86695
G1 X116.68 Y190.083 E95.9149
G1 X115.689 Y190.674 E95.96862
G1 X114.709 Y190.836 E96.01488
G1 X103.99 Y190.861 E96.514
G1 X103.394 Y190.715 E96.54257
G1 X102.71 Y190.836 E96.57492
G1 X91.99 Y190.861 E97.07409
G1 X91.394 Y190.715 E97.10266
G1 X90.71 Y190.836 E97.135
G1 X79.99 Y190.861 E97.63417
G1 X79.394 Y190.715 E97.66274
G1 X78.71 Y190.836 E97.69509
G1 X67.99 Y190.861 E98.19426
G1 X67.394 Y190.715 E98.22283
G1 X66.71 Y190.836 E98.25518
G1 X55.99 Y190.861 E98.75435
G1 X55.394 Y190.715 E98.78292
G1 X54.71 Y190.836 E98.81526
G1 X45.99 Y190.861 E99.2213
G1 X45.058 Y190.632 E99.26599
G1 X44.061 Y190.116 E99.31827
G1 X43.358 Y189.361 E99.3663
G1 X42.767 Y188.37 E99.42003
G1 X42.605 Y187.39 E99.46628
G1 X42.58 Y57.671 E105.50654
G1 X42.805 Y56.741 E105.5511
G1 X43.325 Y55.739 E105.60366
G1 X44.08 Y55.039 E105.6516
G0 F6000 X44.319 Y55.363
G1 F1200 X45.211 Y54.831 E105.69997
G1 X46.116 Y54.681 E105.74268
G1 X54.724 Y54.661 E106.14351
G1 X55.38 Y54.822 E106.17496
G1 X55.505 Y54.783 E106.18106
G1 X56.116 Y54.681 E106.2099
G1 X66.724 Y54.661 E106.70386
G1 X67.38 Y54.822 E106.73531
G1 X67.505 Y54.783 E106.7414
G1 X68.116 Y54.681 E106.77025
G1 X78.724 Y54.661 E107.2642
G1 X79.38 Y54.822 E107.29566
G1 X79.505 Y54.783 E107.30175
G1 X80.116 Y54.681 E107.3306
G1 X90.724 Y54.661 E107.82455
G1 X91.38 Y54.822 E107.856
G1 X91.505 Y54.783 E107.8621
G1 X92.116 Y54.681 E107.89095
G1 X102.724 Y54.661 E108.3849
G1 X103.38 Y54.822 E108.41635
G1 X103.505 Y54.783 E108.42245
G1 X104.116 Y54.681 E108.45129
G1 X114.139 Y54.662 E108.91801
G1 X114.15 Y54.497 E108.92571
G1 X114.342 Y53.703 E108.96375
G1 X114.807 Y52.807 E109.01075
G1 X115.478 Y52.185 E109.05335
G1 X116.37 Y51.653 E109.10172
G1 X117.275 Y51.503 E109.14443
G1 X185.883 Y51.483 E112.33911
G1 X186.718 Y51.688 E112.37914
G1 X187.613 Y52.151 E112.42606
G1 X188.237 Y52.822 E112.46873
G1 X188.769 Y53.714 E112.51709
G1 X188.919 Y54.619 E112.55981
G1 X188.939 Y184.224 E118.59476
G1 X188.736 Y185.063 E118.63495
G1 X188.271 Y185.959 E118.68196
G1 X187.6 Y186.581 E118.72456
G1 X186.708 Y187.113 E118.77293
G1 X185.803 Y187.263 E118.81564
G1 X117.78 Y187.283 E121.98308
G1 X117.769 Y187.447 E121.99073
G1 X117.577 Y188.241 E122.02877
G1 X117.112 Y189.137 E122.07577
G1 X116.441 Y189.759 E122.11838
G1 X115.549 Y190.291 E122.16674
G1 X114.644 Y190.441 E122.20945
G1 X104.036 Y190.461 E122.70341
G1 X103.38 Y190.3 E122.73486
G1 X103.255 Y190.339 E122.74096
G1 X102.644 Y190.441 E122.7698
G1 X92.036 Y190.461 E123.26376
G1 X91.38 Y190.3 E123.29521
G1 X91.255 Y190.339 E123.30131
G1 X90.644 Y190.441 E123.33015
G1 X80.036 Y190.461 E123.8241
G1 X79.38 Y190.3 E123.85556
G1 X79.255 Y190.339 E123.86165
G1 X78.644 Y190.441 E123.8905
G1 X68.036 Y190.461 E124.38445
G1 X67.38 Y190.3 E124.4159
G1 X67.255 Y190.339 E124.422
G1 X66.644 Y190.441 E124.45085
G1 X56.036 Y190.461 E124.9448
G1 X55.38 Y190.3 E124.97625
G1 X55.255 Y190.339 E124.98235
G1 X54.644 Y190.441 E125.01119
G1 X46.036 Y190.461 E125.41202
G1 X45.201 Y190.256 E125.45206
G1 X44.306 Y189.793 E125.49898
G1 X43.682 Y189.122 E125.54164
G1 X43.15 Y188.23 E125.59001
G1 X43 Y187.325 E125.63272
G1 X42.98 Y57.72 E131.66767
G1 X43.183 Y56.881 E131.70787
G1 X43.648 Y55.985 E131.75487
G1 X44.319 Y55.363 E131.79748
G0 F6000 X44.558 Y55.687
G1 F1200 X45.351 Y55.214 E131.84047
G1 X46.182 Y55.076 E131.8797
G1 X54.678 Y55.061 E132.27531
G1 X55.404 Y55.239 E132.31011
G1 X55.571 Y55.178 E132.31839
G1 X56.182 Y55.076 E132.34724
G1 X66.678 Y55.061 E132.83597
G1 X67.404 Y55.239 E132.87078
G1 X67.571 Y55.178 E132.87906
G1 X68.182 Y55.076 E132.9079
G1 X78.678 Y55.061 E133.39664
G1 X79.404 Y55.239 E133.43145
G1 X79.571 Y55.178 E133.43973
G1 X80.182 Y55.076 E133.46857
G1 X90.678 Y55.061 E133.95731
G1 X91.404 Y55.239 E133.99212
G1 X91.571 Y55.178 E134.0004
G1 X92.182 Y55.076 E134.02924
G1 X102.678 Y55.061 E134.51798
G1 X103.404 Y55.239 E134.55279
G1 X103.571 Y55.178 E134.56107
G1 X104.182 Y55.076 E134.58991
G1 X114.539 Y55.061 E135.07218
G1 X114.539 Y54.591 E135.09406
G1 X114.72 Y53.843 E135.1299
G1 X115.13 Y53.053 E135.17134
G1 X115.717 Y52.509 E135.20861
G1 X116.51 Y52.036 E135.2516
G1 X117.341 Y51.898 E135.29083
G1 X185.837 Y51.883 E138.48029
G1 X186.575 Y52.064 E138.51567
G1 X187.368 Y52.474 E138.55724
G1 X187.913 Y53.061 E138.59454
G1 X188.386 Y53.854 E138.63753
G1 X188.524 Y54.685 E138.67676
G1 X188.539 Y184.175 E144.70635
G1 X188.358 Y184.923 E144.74219
G1 X187.948 Y185.713 E144.78363
G1 X187.361 Y186.257 E144.8209
G1 X186.568 Y186.73 E144.86389
G1 X185.737 Y186.868 E144.90312
G1 X117.38 Y186.883 E148.08611
G1 X117.38 Y187.353 E148.10799
G1 X117.199 Y188.101 E148.14383
G1 X116.789 Y188.891 E148.18527
G1 X116.202 Y189.435 E148.22254
G1 X115.409 Y189.908 E148.26553
G1 X114.578 Y190.046 E148.30476
G1 X104.082 Y190.061 E148.7935
G1 X103.356 Y189.883 E148.8283
G1 X103.189 Y189.944 E148.83658
G1 X102.578 Y190.046 E148.86543
G1 X92.082 Y190.061 E149.35417
G1 X91.356 Y189.883 E149.38897
G1 X91.189 Y189.944 E149.39725
G1 X90.578 Y190.046 E149.4261
G1 X80.082 Y190.061 E149.91483
G1 X79.356 Y189.883 E149.94964
G1 X79.189 Y189.944 E149.95792
G1 X78.578 Y190.046 E149.98676
G1 X68.082 Y190.061 E150.4755
G1 X67.356 Y189.883 E150.51031
G1 X67.189 Y189.944 E150.51859
G1 X66.578 Y190.046 E150.54743
G1 X56.082 Y190.061 E151.03617
G1 X55.356 Y189.883 E151.07098
G1 X55.189 Y189.944 E151.07926
G1 X54.578 Y190.046 E151.1081
G1 X46.082 Y190.061 E151.50371
G1 X45.344 Y189.88 E151.53909
G1 X44.551 Y189.47 E151.58066
G1 X44.006 Y188.883 E151.61796
G1 X43.533 Y188.09 E151.66095
G1 X43.395 Y187.259 E151.70018
G1 X43.38 Y57.769 E157.72978
G1 X43.561 Y57.021 E157.76561
G1 X43.971 Y56.231 E157.80706
G1 X44.558 Y55.687 E157.84432
G0 F6000 X44.797 Y56.011
G1 F1200 X45.491 Y55.597 E157.88195
G1 X46.248 Y55.471 E157.91768
G1 X54.628 Y55.461 E158.30789
G1 X55.192 Y55.599 E158.33493
G1 X55.381 Y55.682 E158.34454
G1 X55.637 Y55.573 E158.3575
G1 X56.248 Y55.471 E158.38634
G1 X66.628 Y55.461 E158.86968
G1 X67.192 Y55.599 E158.89672
G1 X67.381 Y55.682 E158.90633
G1 X67.637 Y55.573 E158.91928
G1 X68.248 Y55.471 E158.94813
G1 X78.628 Y55.461 E159.43146
G1 X79.192 Y55.599 E159.4585
G1 X79.381 Y55.682 E159.46811
G1 X79.637 Y55.573 E159.48107
G1 X80.248 Y55.471 E159.50991
G1 X90.628 Y55.461 E159.99325
G1 X91.192 Y55.599 E160.02029
G1 X91.381 Y55.682 E160.0299
G1 X91.637 Y55.573 E160.04285
G1 X92.248 Y55.471 E160.0717
G1 X102.628 Y55.461 E160.55504
G1 X103.192 Y55.599 E160.58207
G1 X103.381 Y55.682 E160.59168
G1 X103.637 Y55.573 E160.60464
G1 X104.248 Y55.471 E160.63349
G1 X114.628 Y55.461 E161.11682
G1 X114.939 Y55.537 E161.13173
G1 X114.939 Y54.64 E161.1735
G1 X115.098 Y53.983 E161.20497
G1 X115.453 Y53.299 E161.24086
G1 X115.956 Y52.833 E161.27279
G1 X116.65 Y52.419 E161.31041
G1 X117.407 Y52.293 E161.34615
G1 X185.787 Y52.283 E164.53021
G1 X186.436 Y52.442 E164.56132
G1 X187.123 Y52.797 E164.59733
G1 X187.589 Y53.3 E164.62926
G1 X188.003 Y53.994 E164.66689
G1 X188.129 Y54.751 E164.70262
G1 X188.139 Y184.126 E170.72686
G1 X187.98 Y184.783 E170.75834
G1 X187.625 Y185.467 E170.79422
G1 X187.122 Y185.933 E170.82615
G1 X186.428 Y186.347 E170.86378
G1 X185.671 Y186.473 E170.89951
G1 X117.291 Y186.483 E174.08357
G1 X116.98 Y186.407 E174.09848
G1 X116.98 Y187.304 E174.14025
G1 X116.821 Y187.961 E174.17172
G1 X116.466 Y188.645 E174.20761
G1 X115.963 Y189.111 E174.23954
G1 X115.269 Y189.525 E174.27717
G1 X114.512 Y189.651 E174.3129
G1 X104.132 Y189.661 E174.79624
G1 X103.568 Y189.523 E174.82327
G1 X103.379 Y189.44 E174.83288
G1 X103.123 Y189.549 E174.84584
G1 X102.512 Y189.651 E174.87469
G1 X92.132 Y189.661 E175.35802
G1 X91.568 Y189.523 E175.38506
G1 X91.379 Y189.44 E175.39467
G1 X91.123 Y189.549 E175.40763
G1 X90.512 Y189.651 E175.43647
G1 X80.132 Y189.661 E175.91981
G1 X79.568 Y189.523 E175.94684
G1 X79.379 Y189.44 E175.95646
G1 X79.123 Y189.549 E175.96941
G1 X78.512 Y189.651 E175.99826
G1 X68.132 Y189.661 E176.48159
G1 X67.568 Y189.523 E176.50863
G1 X67.379 Y189.44 E176.51824
G1 X67.123 Y189.549 E176.5312
G1 X66.512 Y189.651 E176.56004
G1 X56.132 Y189.661 E177.04338
G1 X55.568 Y189.523 E177.07042
