;FLAVOR:Marlin
;TIME:10684
;Filament used: 10.2882m
;Layer height: 0.28
;MINX:73.349
;MINY:52.874
;MINZ:0.28
;MAXX:151.349
;MAXY:191.874
;MAXZ:7
;TARGET_MACHINE.NAME:Creality Ender-3
;POSTPROCESSED
;  [FilamentChange]
;Generated with Cura_SteamEngine 5.10.1
M140 S50
M105
M190 S50
M104 S200
M105
M109 S200
; Ender 3 Custom Start G-code
G92 E0 ; Reset Extruder
G28 ; Home all axes
G1 Z2.0 F3000 ; Move Z Axis up little to prevent scratching of Heat Bed
G1 X0.1 Y20 Z0.3 F5000.0 ; Move to start position
G1 X0.1 Y200.0 Z0.3 F1500.0 E15 ; Draw the first line
G1 X0.4 Y200.0 Z0.3 F5000.0 ; Move to side a little
G1 X0.4 Y20 Z0.3 F1500.0 E30 ; Draw the second line
G92 E0 ; Reset Extruder
G1 Z2.0 F3000 ; Move Z Axis up little to prevent scratching of Heat Bed
G1 X5 Y20 Z0.3 F5000.0 ; Move over to prevent blob squish
M82 ;absolute extrusion mode
G92 E0
G92 E0
G1 F2700 E-5
;LAYER_COUNT:25
;LAYER:0
M107
G0 F6000 X74.325 Y54.814 Z0.28
;TYPE:SKIRT
G1 F2700 E0
G1 F1200 X75.332 Y53.88 E0.06395
G1 X76.62 Y53.112 E0.13378
G1 X77.825 Y52.914 E0.19064
G1 X86.884 Y52.874 E0.61247
G1 X87.378 Y52.994 E0.63614
G1 X87.886 Y52.909 E0.66013
G1 X98.887 Y52.874 E1.17238
G1 X99.379 Y52.994 E1.19596
G1 X99.886 Y52.909 E1.2199
G1 X110.887 Y52.874 E1.73216
G1 X111.379 Y52.994 E1.75574
G1 X111.886 Y52.909 E1.77968
G1 X122.887 Y52.874 E2.29193
G1 X123.379 Y52.994 E2.31551
G1 X123.886 Y52.909 E2.33945
G1 X134.887 Y52.874 E2.8517
G1 X135.379 Y52.994 E2.87529
G1 X135.886 Y52.909 E2.89922
G1 X146.878 Y52.874 E3.41106
G1 X148.099 Y53.174 E3.46961
G1 X149.409 Y53.853 E3.53831
G1 X150.337 Y54.848 E3.60167
G1 X151.111 Y56.145 E3.672
G1 X151.309 Y57.35 E3.72886
G1 X151.349 Y187.408 E9.7849
G1 X151.058 Y188.614 E9.84267
G1 X150.373 Y189.934 E9.91192
G1 X149.366 Y190.868 E9.97588
G1 X148.078 Y191.636 E10.0457
G1 X146.873 Y191.834 E10.10256
G1 X135.813 Y191.874 E10.61757
G1 X135.32 Y191.754 E10.64119
G1 X134.812 Y191.839 E10.66518
G1 X123.811 Y191.874 E11.17743
G1 X123.319 Y191.754 E11.20101
G1 X122.812 Y191.839 E11.22495
G1 X111.811 Y191.874 E11.73721
G1 X111.319 Y191.754 E11.76079
G1 X110.812 Y191.839 E11.78473
G1 X99.811 Y191.874 E12.29698
G1 X99.319 Y191.754 E12.32056
G1 X98.812 Y191.839 E12.3445
G1 X87.811 Y191.874 E12.85675
G1 X87.319 Y191.754 E12.88034
G1 X86.812 Y191.839 E12.90427
G1 X77.821 Y191.874 E13.32294
G1 X76.599 Y191.574 E13.38153
G1 X75.289 Y190.895 E13.45023
G1 X74.361 Y189.9 E13.51359
G1 X73.587 Y188.603 E13.58392
G1 X73.389 Y187.398 E13.64078
G1 X73.349 Y57.34 E19.69683
G1 X73.64 Y56.134 E19.75459
G1 X74.325 Y54.814 E19.82384
G0 F6000 X74.648 Y55.06
G1 F1200 X75.571 Y54.204 E19.88246
G1 X76.76 Y53.495 E19.94692
G1 X77.89 Y53.309 E20.00024
G1 X86.836 Y53.274 E20.41681
G1 X87.364 Y53.402 E20.44211
G1 X87.952 Y53.304 E20.46987
G1 X98.838 Y53.274 E20.97677
G1 X99.364 Y53.402 E21.00197
G1 X99.952 Y53.304 E21.02973
G1 X110.838 Y53.274 E21.53663
G1 X111.364 Y53.402 E21.56184
G1 X111.952 Y53.304 E21.5896
G1 X122.838 Y53.274 E22.0965
G1 X123.364 Y53.402 E22.1217
G1 X123.952 Y53.304 E22.14946
G1 X134.838 Y53.274 E22.65636
G1 X135.364 Y53.402 E22.68157
G1 X135.952 Y53.304 E22.70932
G1 X146.832 Y53.274 E23.21594
G1 X147.956 Y53.55 E23.26984
G1 X149.162 Y54.175 E23.33309
G1 X150.015 Y55.09 E23.39134
G1 X150.728 Y56.285 E23.45613
G1 X150.914 Y57.415 E23.50946
G1 X150.949 Y187.36 E29.56024
G1 X150.68 Y188.474 E29.61361
G1 X150.05 Y189.688 E29.67729
G1 X149.127 Y190.544 E29.73591
G1 X147.938 Y191.253 E29.80037
G1 X146.808 Y191.439 E29.8537
G1 X135.861 Y191.474 E30.36344
G1 X135.334 Y191.346 E30.38869
G1 X134.746 Y191.444 E30.41645
G1 X123.86 Y191.474 E30.92335
G1 X123.334 Y191.346 E30.94855
G1 X122.746 Y191.444 E30.97631
G1 X111.86 Y191.474 E31.48321
G1 X111.334 Y191.346 E31.50842
G1 X110.746 Y191.444 E31.53618
G1 X99.86 Y191.474 E32.04308
G1 X99.334 Y191.346 E32.06828
G1 X98.746 Y191.444 E32.09604
G1 X87.86 Y191.474 E32.60294
G1 X87.334 Y191.346 E32.62815
G1 X86.746 Y191.444 E32.6559
G1 X77.866 Y191.474 E33.0694
G1 X76.742 Y191.198 E33.12329
G1 X75.536 Y190.573 E33.18654
G1 X74.683 Y189.658 E33.24479
G1 X73.97 Y188.463 E33.30958
G1 X73.784 Y187.333 E33.36291
G1 X73.749 Y57.388 E39.41369
G1 X74.018 Y56.274 E39.46706
G1 X74.648 Y55.06 E39.53074
G0 F6000 X74.971 Y55.306
G1 F1200 X75.81 Y54.528 E39.58402
G1 X76.9 Y53.878 E39.64312
G1 X77.955 Y53.704 E39.69291
G1 X86.787 Y53.674 E40.10416
G1 X87.349 Y53.811 E40.1311
G1 X88.018 Y53.699 E40.16268
G1 X98.789 Y53.674 E40.66423
G1 X99.349 Y53.811 E40.69107
G1 X100.018 Y53.699 E40.72266
G1 X110.789 Y53.674 E41.2242
G1 X111.349 Y53.811 E41.25105
G1 X112.018 Y53.699 E41.28263
G1 X122.789 Y53.674 E41.78418
G1 X123.349 Y53.811 E41.81102
G1 X124.018 Y53.699 E41.84261
G1 X134.789 Y53.674 E42.34415
G1 X135.349 Y53.811 E42.371
G1 X136.018 Y53.699 E42.40258
G1 X146.785 Y53.674 E42.90394
G1 X147.814 Y53.927 E42.95328
G1 X148.915 Y54.497 E43.01101
G1 X149.693 Y55.332 E43.06415
G1 X150.345 Y56.425 E43.12342
G1 X150.519 Y57.48 E43.1732
G1 X150.549 Y187.312 E49.21873
G1 X150.302 Y188.334 E49.26768
G1 X149.727 Y189.442 E49.32581
G1 X148.888 Y190.22 E49.37909
G1 X147.798 Y190.87 E49.43819
G1 X146.743 Y191.044 E49.48797
G1 X135.91 Y191.074 E49.99241
G1 X135.349 Y190.937 E50.0193
G1 X134.68 Y191.049 E50.05088
G1 X123.909 Y191.074 E50.55243
G1 X123.349 Y190.937 E50.57927
G1 X122.68 Y191.049 E50.61085
G1 X111.909 Y191.074 E51.1124
G1 X111.349 Y190.937 E51.13924
G1 X110.68 Y191.049 E51.17083
G1 X99.909 Y191.074 E51.67237
G1 X99.349 Y190.937 E51.69922
G1 X98.68 Y191.049 E51.7308
G1 X87.909 Y191.074 E52.23235
G1 X87.349 Y190.937 E52.25919
G1 X86.68 Y191.049 E52.29078
G1 X77.913 Y191.074 E52.69901
G1 X76.884 Y190.821 E52.74835
G1 X75.783 Y190.251 E52.80608
G1 X75.005 Y189.416 E52.85922
G1 X74.353 Y188.323 E52.91848
G1 X74.179 Y187.268 E52.96827
G1 X74.149 Y57.436 E59.01379
G1 X74.396 Y56.414 E59.06275
G1 X74.971 Y55.306 E59.12088
G0 F6000 X75.294 Y55.552
G1 F1200 X76.049 Y54.852 E59.16882
G1 X77.04 Y54.261 E59.22255
G1 X78.02 Y54.099 E59.2688
G1 X86.738 Y54.074 E59.67475
G1 X87.335 Y54.22 E59.70337
G1 X88.019 Y54.099 E59.73571
G1 X98.739 Y54.074 E60.23488
G1 X99.335 Y54.22 E60.26345
G1 X100.019 Y54.099 E60.2958
G1 X110.739 Y54.074 E60.79497
G1 X111.335 Y54.22 E60.82354
G1 X112.019 Y54.099 E60.85589
G1 X122.739 Y54.074 E61.35505
G1 X123.335 Y54.22 E61.38363
G1 X124.019 Y54.099 E61.41597
G1 X134.739 Y54.074 E61.91514
G1 X135.335 Y54.22 E61.94371
G1 X136.019 Y54.099 E61.97606
G1 X146.739 Y54.074 E62.47523
G1 X147.671 Y54.303 E62.51992
G1 X148.668 Y54.819 E62.57219
G1 X149.371 Y55.574 E62.62023
G1 X149.962 Y56.565 E62.67396
G1 X150.124 Y57.545 E62.72021
G1 X150.149 Y187.264 E68.76047
G1 X149.924 Y188.194 E68.80502
G1 X149.404 Y189.196 E68.85759
G1 X148.649 Y189.896 E68.90553
G1 X147.658 Y190.487 E68.95926
G1 X146.678 Y190.649 E69.00551
G1 X135.959 Y190.674 E69.50463
G1 X135.363 Y190.528 E69.5332
G1 X134.679 Y190.649 E69.56555
G1 X123.959 Y190.674 E70.06472
G1 X123.363 Y190.528 E70.09329
G1 X122.679 Y190.649 E70.12564
G1 X111.959 Y190.674 E70.62481
G1 X111.363 Y190.528 E70.65338
G1 X110.679 Y190.649 E70.68572
G1 X99.959 Y190.674 E71.18489
G1 X99.363 Y190.528 E71.21346
G1 X98.679 Y190.649 E71.24581
G1 X87.959 Y190.674 E71.74498
G1 X87.363 Y190.528 E71.77355
G1 X86.679 Y190.649 E71.8059
G1 X77.959 Y190.674 E72.21194
G1 X77.027 Y190.445 E72.25663
G1 X76.03 Y189.929 E72.3089
G1 X75.327 Y189.174 E72.35694
G1 X74.736 Y188.183 E72.41066
G1 X74.574 Y187.203 E72.45692
G1 X74.549 Y57.484 E78.49718
G1 X74.774 Y56.554 E78.54173
G1 X75.294 Y55.552 E78.5943
G0 F6000 X75.617 Y55.798
G1 F1200 X76.288 Y55.176 E78.6369
G1 X77.18 Y54.644 E78.68526
G1 X78.085 Y54.494 E78.72798
G1 X86.693 Y54.474 E79.1288
G1 X87.349 Y54.635 E79.16026
G1 X87.474 Y54.596 E79.16635
G1 X88.085 Y54.494 E79.1952
G1 X98.693 Y54.474 E79.68915
G1 X99.349 Y54.635 E79.7206
G1 X99.474 Y54.596 E79.7267
G1 X100.085 Y54.494 E79.75555
G1 X110.693 Y54.474 E80.2495
G1 X111.349 Y54.635 E80.28095
G1 X111.474 Y54.596 E80.28705
G1 X112.085 Y54.494 E80.31589
G1 X122.693 Y54.474 E80.80985
G1 X123.349 Y54.635 E80.8413
G1 X123.474 Y54.596 E80.8474
G1 X124.085 Y54.494 E80.87624
G1 X134.693 Y54.474 E81.3702
G1 X135.349 Y54.635 E81.40165
G1 X135.474 Y54.596 E81.40774
G1 X136.085 Y54.494 E81.43659
G1 X146.693 Y54.474 E81.93054
G1 X147.528 Y54.679 E81.97058
G1 X148.423 Y55.142 E82.0175
G1 X149.047 Y55.813 E82.06017
G1 X149.579 Y56.705 E82.10853
G1 X149.729 Y57.61 E82.15124
G1 X149.749 Y187.215 E88.1862
G1 X149.546 Y188.054 E88.22639
G1 X149.081 Y188.95 E88.2734
G1 X148.41 Y189.572 E88.316
G1 X147.518 Y190.104 E88.36436
G1 X146.613 Y190.254 E88.40708
G1 X136.005 Y190.274 E88.90103
G1 X135.349 Y190.113 E88.93248
G1 X135.224 Y190.152 E88.93858
G1 X134.613 Y190.254 E88.96742
G1 X124.005 Y190.274 E89.46138
G1 X123.349 Y190.113 E89.49283
G1 X123.224 Y190.152 E89.49893
G1 X122.613 Y190.254 E89.52777
G1 X112.005 Y190.274 E90.02173
G1 X111.349 Y190.113 E90.05318
G1 X111.224 Y190.152 E90.05928
G1 X110.613 Y190.254 E90.08812
G1 X100.005 Y190.274 E90.58207
G1 X99.349 Y190.113 E90.61353
G1 X99.224 Y190.152 E90.61962
G1 X98.613 Y190.254 E90.64847
G1 X88.005 Y190.274 E91.14242
G1 X87.349 Y190.113 E91.17388
G1 X87.224 Y190.152 E91.17997
G1 X86.613 Y190.254 E91.20882
G1 X78.005 Y190.274 E91.60964
G1 X77.17 Y190.069 E91.64968
G1 X76.275 Y189.606 E91.6966
G1 X75.651 Y188.935 E91.73927
G1 X75.119 Y188.043 E91.78763
G1 X74.969 Y187.138 E91.83034
G1 X74.949 Y57.533 E97.8653
G1 X75.152 Y56.694 E97.90549
G1 X75.617 Y55.798 E97.9525
G0 F6000 X75.94 Y56.044
G1 F1200 X76.527 Y55.5 E97.98976
G1 X77.32 Y55.027 E98.03276
G1 X78.151 Y54.889 E98.07198
G1 X86.647 Y54.874 E98.46759
G1 X87.373 Y55.052 E98.5024
G1 X87.54 Y54.991 E98.51068
G1 X88.151 Y54.889 E98.53952
G1 X98.647 Y54.874 E99.02826
G1 X99.373 Y55.052 E99.06307
G1 X99.54 Y54.991 E99.07135
G1 X100.151 Y54.889 E99.10019
G1 X110.647 Y54.874 E99.58893
G1 X111.373 Y55.052 E99.62374
G1 X111.54 Y54.991 E99.63201
G1 X112.151 Y54.889 E99.66086
G1 X122.647 Y54.874 E100.1496
G1 X123.373 Y55.052 E100.1844
G1 X123.54 Y54.991 E100.19268
G1 X124.151 Y54.889 E100.22153
G1 X134.647 Y54.874 E100.71026
G1 X135.373 Y55.052 E100.74507
G1 X135.54 Y54.991 E100.75335
G1 X136.151 Y54.889 E100.78219
G1 X146.647 Y54.874 E101.27093
G1 X147.385 Y55.055 E101.30632
G1 X148.178 Y55.465 E101.34788
G1 X148.723 Y56.052 E101.38518
G1 X149.196 Y56.845 E101.42818
G1 X149.334 Y57.676 E101.4674
G1 X149.349 Y187.166 E107.497
G1 X149.168 Y187.914 E107.53283
G1 X148.758 Y188.704 E107.57428
G1 X148.171 Y189.248 E107.61155
G1 X147.378 Y189.721 E107.65454
G1 X146.547 Y189.859 E107.69376
G1 X136.051 Y189.874 E108.1825
G1 X135.325 Y189.696 E108.21731
G1 X135.158 Y189.757 E108.22559
G1 X134.547 Y189.859 E108.25443
G1 X124.051 Y189.874 E108.74317
G1 X123.325 Y189.696 E108.77798
G1 X123.158 Y189.757 E108.78626
G1 X122.547 Y189.859 E108.8151
G1 X112.051 Y189.874 E109.30384
G1 X111.325 Y189.696 E109.33865
G1 X111.158 Y189.757 E109.34693
G1 X110.547 Y189.859 E109.37577
G1 X100.051 Y189.874 E109.86451
G1 X99.325 Y189.696 E109.89931
G1 X99.158 Y189.757 E109.90759
G1 X98.547 Y189.859 E109.93644
G1 X88.051 Y189.874 E110.42518
G1 X87.325 Y189.696 E110.45998
G1 X87.158 Y189.757 E110.46826
G1 X86.547 Y189.859 E110.49711
G1 X78.051 Y189.874 E110.89272
G1 X77.313 Y189.693 E110.9281
G1 X76.52 Y189.283 E110.96967
G1 X75.975 Y188.696 E111.00697
G1 X75.502 Y187.903 E111.04996
G1 X75.364 Y187.072 E111.08919
G1 X75.349 Y57.582 E117.11878
G1 X75.53 Y56.834 E117.15462
G1 X75.94 Y56.044 E117.19606
G0 F6000 X76.263 Y56.29
G1 F1200 X76.766 Y55.824 E117.22799
G1 X77.46 Y55.41 E117.26562
G1 X78.217 Y55.284 E117.30135
G1 X86.597 Y55.274 E117.69156
G1 X87.161 Y55.412 E117.7186
G1 X87.35 Y55.495 E117.72821
G1 X87.606 Y55.386 E117.74117
G1 X88.217 Y55.284 E117.77001
G1 X98.597 Y55.274 E118.25335
G1 X99.161 Y55.412 E118.28038
G1 X99.35 Y55.495 E118.29
G1 X99.606 Y55.386 E118.30295
G1 X100.217 Y55.284 E118.3318
G1 X110.597 Y55.274 E118.81513
G1 X111.161 Y55.412 E118.84217
G1 X111.35 Y55.495 E118.85178
G1 X111.606 Y55.386 E118.86474
G1 X112.217 Y55.284 E118.89358
G1 X122.597 Y55.274 E119.37692
G1 X123.161 Y55.412 E119.40396
G1 X123.35 Y55.495 E119.41357
G1 X123.606 Y55.386 E119.42652
G1 X124.217 Y55.284 E119.45537
G1 X134.597 Y55.274 E119.9387
G1 X135.161 Y55.412 E119.96574
G1 X135.35 Y55.495 E119.97535
G1 X135.606 Y55.386 E119.98831
G1 X136.217 Y55.284 E120.01715
G1 X146.597 Y55.274 E120.50049
G1 X147.246 Y55.433 E120.5316
G1 X147.933 Y55.788 E120.56761
G1 X148.399 Y56.291 E120.59954
G1 X148.813 Y56.985 E120.63717
G1 X148.939 Y57.742 E120.6729
G1 X148.949 Y187.117 E126.69715
G1 X148.79 Y187.774 E126.72862
G1 X148.435 Y188.458 E126.76451
G1 X147.932 Y188.924 E126.79643
G1 X147.238 Y189.338 E126.83406
G1 X146.481 Y189.464 E126.8698
G1 X136.101 Y189.474 E127.35313
G1 X135.537 Y189.336 E127.38017
G1 X135.348 Y189.253 E127.38978
G1 X135.092 Y189.362 E127.40274
G1 X134.481 Y189.464 E127.43158
G1 X124.101 Y189.474 E127.91492
G1 X123.537 Y189.336 E127.94196
G1 X123.348 Y189.253 E127.95157
G1 X123.092 Y189.362 E127.96452
G1 X122.481 Y189.464 E127.99337
G1 X112.101 Y189.474 E128.4767
G1 X111.537 Y189.336 E128.50374
G1 X111.348 Y189.253 E128.51335
G1 X111.092 Y189.362 E128.52631
G1 X110.481 Y189.464 E128.55515
G1 X100.101 Y189.474 E129.03849
G1 X99.537 Y189.336 E129.06553
G1 X99.348 Y189.253 E129.07514
G1 X99.092 Y189.362 E129.08809
G1 X98.481 Y189.464 E129.11694
G1 X88.101 Y189.474 E129.60028
G1 X87.537 Y189.336 E129.62731
G1 X87.348 Y189.253 E129.63692
G1 X87.092 Y189.362 E129.64988
G1 X86.481 Y189.464 E129.67872
G1 X78.101 Y189.474 E130.06893
G1 X77.452 Y189.315 E130.10005
G1 X76.765 Y188.96 E130.13605
G1 X76.299 Y188.457 E130.16798
G1 X75.885 Y187.763 E130.20561
G1 X75.759 Y187.006 E130.24135
G1 X75.749 Y57.631 E136.26559
G1 X75.908 Y56.974 E136.29706
G1 X76.263 Y56.29 E136.33295
G0 F6000 X76.586 Y56.536
G1 F1200 X77.005 Y56.148 E136.35954
G1 X77.6 Y55.793 E136.3918
G1 X78.283 Y55.679 E136.42404
G1 X86.547 Y55.674 E136.80885
G1 X87.066 Y55.801 E136.83373
G1 X87.351 Y55.941 E136.84852
G1 X87.672 Y55.781 E136.86522
G1 X88.283 Y55.679 E136.89406
G1 X98.547 Y55.674 E137.372
G1 X99.066 Y55.801 E137.39688
G1 X99.351 Y55.941 E137.41166
G1 X99.672 Y55.781 E137.42836
G1 X100.283 Y55.679 E137.45721
G1 X110.547 Y55.674 E137.93514
G1 X111.066 Y55.801 E137.96002
G1 X111.351 Y55.941 E137.97481
G1 X111.672 Y55.781 E137.99151
G1 X112.283 Y55.679 E138.02035
G1 X122.547 Y55.674 E138.49829
G1 X123.066 Y55.801 E138.52317
G1 X123.351 Y55.941 E138.53795
G1 X123.672 Y55.781 E138.55465
G1 X124.283 Y55.679 E138.5835
G1 X134.547 Y55.674 E139.06143
G1 X135.066 Y55.801 E139.08631
G1 X135.351 Y55.941 E139.1011
G1 X135.672 Y55.781 E139.1178
G1 X136.283 Y55.679 E139.14664
G1 X146.547 Y55.674 E139.62458
G1 X147.107 Y55.811 E139.65142
G1 X147.687 Y56.111 E139.68183
G1 X148.075 Y56.53 E139.70842
G1 X148.43 Y57.125 E139.74068
G1 X148.544 Y57.808 E139.77293
G1 X148.549 Y187.068 E145.79181
G1 X148.412 Y187.634 E145.81893
G1 X148.112 Y188.212 E145.84925
G1 X147.693 Y188.6 E145.87584
G1 X147.098 Y188.955 E145.90811
G1 X146.415 Y189.069 E145.94035
G1 X136.151 Y189.074 E146.41828
G1 X135.632 Y188.947 E146.44316
G1 X135.347 Y188.807 E146.45795
G1 X135.026 Y188.967 E146.47465
G1 X134.415 Y189.069 E146.5035
G1 X124.151 Y189.074 E146.98143
G1 X123.632 Y188.947 E147.00631
G1 X123.347 Y188.807 E147.0211
G1 X123.026 Y188.967 E147.0378
G1 X122.415 Y189.069 E147.06664
G1 X112.151 Y189.074 E147.54458
G1 X111.632 Y188.947 E147.56946
G1 X111.347 Y188.807 E147.58424
G1 X111.026 Y188.967 E147.60094
G1 X110.415 Y189.069 E147.62979
G1 X100.151 Y189.074 E148.10772
G1 X99.632 Y188.947 E148.1326
G1 X99.347 Y188.807 E148.14739
G1 X99.026 Y188.967 E148.16409
G1 X98.415 Y189.069 E148.19293
G1 X88.151 Y189.074 E148.67087
G1 X87.632 Y188.947 E148.69575
G1 X87.347 Y188.807 E148.71053
G1 X87.026 Y188.967 E148.72723
G1 X86.415 Y189.069 E148.75608
G1 X78.151 Y189.074 E149.14088
G1 X77.591 Y188.937 E149.16773
G1 X77.011 Y188.637 E149.19814
G1 X76.623 Y188.218 E149.22473
G1 X76.268 Y187.623 E149.25699
G1 X76.154 Y186.94 E149.28923
G1 X76.149 Y57.68 E155.30812
G1 X76.286 Y57.114 E155.33524
G1 X76.586 Y56.536 E155.36556
