;FLAVOR:Marlin
;TIME:12513
;Filament used: 10.9836m
;Layer height: 0.28
;MINX:79.49
;MINY:38.333
;MINZ:0.28
;MAXX:154.5
;MAXY:164.88
;MAXZ:24.08
;TARGET_MACHINE.NAME:Creality Ender-3
;POSTPROCESSED
;  [FilamentChange]
;Generated with Cura_SteamEngine 5.10.1
M140 S50
M105
M190 S50
M104 S200
M105
M109 S200
; Ender 3 Custom Start G-code
G92 E0 ; Reset Extruder
G28 ; Home all axes
G1 Z2.0 F3000 ; Move Z Axis up little to prevent scratching of Heat Bed
G1 X0.1 Y20 Z0.3 F5000.0 ; Move to start position
G1 X0.1 Y200.0 Z0.3 F1500.0 E15 ; Draw the first line
G1 X0.4 Y200.0 Z0.3 F5000.0 ; Move to side a little
G1 X0.4 Y20 Z0.3 F1500.0 E30 ; Draw the second line
G92 E0 ; Reset Extruder
G1 Z2.0 F3000 ; Move Z Axis up little to prevent scratching of Heat Bed
G1 X5 Y20 Z0.3 F5000.0 ; Move over to prevent blob squish
M82 ;absolute extrusion mode
G92 E0
G92 E0
G1 F2700 E-5
;LAYER_COUNT:86
;LAYER:0
M107
G0 F6000 X80.8 Y41.583 Z0.28
;TYPE:SKIRT
G1 F2700 E0
G1 F1200 X81.479 Y40.273 E0.06871
G1 X82.474 Y39.345 E0.13206
G1 X83.771 Y38.571 E0.20239
G1 X84.976 Y38.373 E0.25925
G1 X150.029 Y38.333 E3.28839
G1 X151.25 Y38.633 E3.34694
G1 X152.56 Y39.312 E3.41565
G1 X153.488 Y40.307 E3.479
G1 X154.262 Y41.604 E3.54933
G1 X154.46 Y42.809 E3.60619
G1 X154.5 Y53.869 E4.1212
G1 X154.38 Y54.362 E4.14482
G1 X154.465 Y54.87 E4.16881
G1 X154.5 Y65.871 E4.68106
G1 X154.38 Y66.363 E4.70464
G1 X154.465 Y66.87 E4.72858
G1 X154.5 Y77.871 E5.24084
G1 X154.38 Y78.363 E5.26442
G1 X154.465 Y78.87 E5.28835
G1 X154.5 Y89.871 E5.80061
G1 X154.38 Y90.363 E5.82419
G1 X154.465 Y90.87 E5.84813
G1 X154.5 Y99.861 E6.26679
G1 X154.2 Y101.083 E6.32538
G1 X153.555 Y102.328 E6.39067
G1 X153.321 Y102.579 E6.40665
G1 X153.45 Y103.352 E6.44314
G1 X153.49 Y160.409 E9.09996
G1 X153.19 Y161.63 E9.1585
G1 X152.511 Y162.94 E9.22721
G1 X151.516 Y163.868 E9.29056
G1 X150.219 Y164.642 E9.36089
G1 X149.014 Y164.84 E9.41776
G1 X83.961 Y164.88 E12.4469
G1 X82.74 Y164.58 E12.50544
G1 X81.43 Y163.901 E12.57415
G1 X80.502 Y162.906 E12.6375
G1 X79.728 Y161.609 E12.70783
G1 X79.53 Y160.404 E12.7647
G1 X79.49 Y103.351 E15.42132
G1 X79.79 Y102.13 E15.47987
G1 X80.435 Y100.885 E15.54516
G1 X80.669 Y100.634 E15.56114
G1 X80.54 Y99.861 E15.59763
G1 X80.5 Y90.798 E16.01964
G1 X80.62 Y90.304 E16.04332
G1 X80.535 Y89.796 E16.0673
G1 X80.5 Y78.795 E16.57956
G1 X80.62 Y78.303 E16.60314
G1 X80.535 Y77.796 E16.62707
G1 X80.5 Y66.795 E17.13933
G1 X80.62 Y66.303 E17.16291
G1 X80.535 Y65.796 E17.18685
G1 X80.5 Y54.795 E17.6991
G1 X80.62 Y54.303 E17.72268
G1 X80.535 Y53.796 E17.74662
G1 X80.5 Y42.804 E18.25846
G1 X80.8 Y41.583 E18.317
G0 F6000 X81.176 Y41.726
G1 F1200 X81.801 Y40.52 E18.38025
G1 X82.716 Y39.667 E18.4385
G1 X83.911 Y38.954 E18.5033
G1 X85.041 Y38.768 E18.55662
G1 X149.983 Y38.733 E21.5806
G1 X151.107 Y39.009 E21.63449
G1 X152.313 Y39.634 E21.69774
G1 X153.166 Y40.549 E21.75599
G1 X153.879 Y41.744 E21.82078
G1 X154.065 Y42.874 E21.87411
G1 X154.1 Y53.821 E22.38385
G1 X153.972 Y54.348 E22.4091
G1 X154.07 Y54.936 E22.43686
G1 X154.1 Y65.822 E22.94376
G1 X153.972 Y66.348 E22.96897
G1 X154.07 Y66.936 E22.99672
G1 X154.1 Y77.822 E23.50362
G1 X153.972 Y78.348 E23.52883
G1 X154.07 Y78.936 E23.55659
G1 X154.1 Y89.822 E24.06349
G1 X153.972 Y90.348 E24.0887
G1 X154.07 Y90.936 E24.11645
G1 X154.1 Y99.816 E24.52995
G1 X153.824 Y100.94 E24.58384
G1 X153.2 Y102.144 E24.64698
G1 X152.89 Y102.433 E24.66672
G1 X153.055 Y103.418 E24.71322
G1 X153.09 Y160.363 E27.36482
G1 X152.814 Y161.487 E27.41871
G1 X152.189 Y162.693 E27.48196
G1 X151.274 Y163.546 E27.54021
G1 X150.079 Y164.259 E27.60501
G1 X148.949 Y164.445 E27.65833
G1 X84.007 Y164.48 E30.68231
G1 X82.883 Y164.204 E30.7362
G1 X81.677 Y163.579 E30.79945
G1 X80.824 Y162.664 E30.8577
G1 X80.111 Y161.469 E30.92249
G1 X79.925 Y160.339 E30.97582
G1 X79.89 Y103.397 E33.62728
G1 X80.166 Y102.273 E33.68117
G1 X80.79 Y101.069 E33.74432
G1 X81.1 Y100.78 E33.76405
G1 X80.935 Y99.795 E33.81056
G1 X80.9 Y90.846 E34.22726
G1 X81.028 Y90.318 E34.25256
G1 X80.93 Y89.73 E34.28032
G1 X80.9 Y78.844 E34.78722
G1 X81.028 Y78.318 E34.81242
G1 X80.93 Y77.73 E34.84018
G1 X80.9 Y66.844 E35.34708
G1 X81.028 Y66.318 E35.37229
G1 X80.93 Y65.73 E35.40005
G1 X80.9 Y54.844 E35.90695
G1 X81.028 Y54.318 E35.93215
G1 X80.93 Y53.73 E35.95991
G1 X80.9 Y42.85 E36.46653
G1 X81.176 Y41.726 E36.52042
G0 F6000 X81.553 Y41.868
G1 F1200 X82.123 Y40.767 E36.57815
G1 X82.958 Y39.989 E36.6313
G1 X84.051 Y39.337 E36.69056
G1 X85.106 Y39.163 E36.74035
G1 X149.936 Y39.133 E39.75911
G1 X150.965 Y39.386 E39.80845
G1 X152.066 Y39.956 E39.86618
G1 X152.844 Y40.791 E39.91932
G1 X153.496 Y41.884 E39.97858
G1 X153.67 Y42.939 E40.02837
G1 X153.7 Y53.772 E40.5328
G1 X153.563 Y54.333 E40.55969
G1 X153.675 Y55.002 E40.59128
G1 X153.7 Y65.773 E41.09282
G1 X153.563 Y66.333 E41.11967
G1 X153.675 Y67.002 E41.15125
G1 X153.7 Y77.773 E41.6528
G1 X153.563 Y78.333 E41.67964
G1 X153.675 Y79.002 E41.71123
G1 X153.7 Y89.773 E42.21277
G1 X153.563 Y90.333 E42.23961
G1 X153.675 Y91.002 E42.2712
G1 X153.7 Y99.769 E42.67943
G1 X153.447 Y100.798 E42.72877
G1 X152.878 Y101.897 E42.7864
G1 X152.419 Y102.325 E42.81562
G1 X152.498 Y102.509 E42.82494
G1 X152.66 Y103.484 E42.87097
G1 X152.69 Y160.316 E45.5173
G1 X152.437 Y161.345 E45.56664
G1 X151.867 Y162.446 E45.62438
G1 X151.032 Y163.224 E45.67752
G1 X149.939 Y163.876 E45.73678
G1 X148.884 Y164.05 E45.78657
G1 X84.054 Y164.08 E48.80533
G1 X83.025 Y163.827 E48.85467
G1 X81.924 Y163.257 E48.9124
G1 X81.146 Y162.422 E48.96554
G1 X80.494 Y161.329 E49.0248
G1 X80.32 Y160.274 E49.07459
G1 X80.29 Y103.444 E51.72083
G1 X80.543 Y102.415 E51.77018
G1 X81.112 Y101.316 E51.8278
G1 X81.571 Y100.888 E51.85702
G1 X81.492 Y100.704 E51.86635
G1 X81.33 Y99.729 E51.91237
G1 X81.3 Y90.895 E52.32372
G1 X81.437 Y90.333 E52.35066
G1 X81.325 Y89.664 E52.38224
G1 X81.3 Y78.893 E52.88379
G1 X81.437 Y78.333 E52.91063
G1 X81.325 Y77.664 E52.94222
G1 X81.3 Y66.893 E53.44376
G1 X81.437 Y66.333 E53.47061
G1 X81.325 Y65.664 E53.50219
G1 X81.3 Y54.893 E54.00373
G1 X81.437 Y54.333 E54.03058
G1 X81.325 Y53.664 E54.06216
G1 X81.3 Y42.897 E54.56352
G1 X81.553 Y41.868 E54.61286
G0 F6000 X81.929 Y42.011
G1 F1200 X82.445 Y41.014 E54.66514
G1 X83.2 Y40.311 E54.71317
G1 X84.191 Y39.72 E54.7669
G1 X85.171 Y39.558 E54.81315
G1 X149.89 Y39.533 E57.82674
G1 X150.822 Y39.762 E57.87143
G1 X151.819 Y40.278 E57.9237
G1 X152.522 Y41.033 E57.97174
G1 X153.113 Y42.024 E58.02547
G1 X153.275 Y43.004 E58.07172
G1 X153.3 Y53.723 E58.57084
G1 X153.154 Y54.319 E58.59942
G1 X153.275 Y55.003 E58.63176
G1 X153.3 Y65.723 E59.13093
G1 X153.154 Y66.319 E59.1595
G1 X153.275 Y67.003 E59.19185
G1 X153.3 Y77.723 E59.69102
G1 X153.154 Y78.319 E59.71959
G1 X153.275 Y79.003 E59.75193
G1 X153.3 Y89.723 E60.2511
G1 X153.154 Y90.319 E60.27968
G1 X153.275 Y91.003 E60.31202
G1 X153.3 Y99.723 E60.71806
G1 X153.071 Y100.655 E60.76275
G1 X152.555 Y101.652 E60.81502
G1 X151.91 Y102.252 E60.85604
G1 X152.103 Y102.575 E60.87356
G1 X152.265 Y103.55 E60.91959
G1 X152.29 Y160.27 E63.56071
G1 X152.061 Y161.202 E63.6054
G1 X151.545 Y162.199 E63.65767
G1 X150.79 Y162.902 E63.70571
G1 X149.799 Y163.493 E63.75944
G1 X148.819 Y163.655 E63.80569
G1 X84.1 Y163.68 E66.81928
G1 X83.168 Y163.451 E66.86396
G1 X82.171 Y162.935 E66.91624
G1 X81.468 Y162.18 E66.96427
G1 X80.877 Y161.189 E67.018
G1 X80.715 Y160.209 E67.06425
G1 X80.69 Y103.49 E69.70533
G1 X80.919 Y102.558 E69.75002
G1 X81.435 Y101.561 E69.80229
G1 X82.08 Y100.961 E69.84331
G1 X81.887 Y100.638 E69.86083
G1 X81.725 Y99.663 E69.90685
G1 X81.7 Y90.944 E70.31285
G1 X81.846 Y90.347 E70.34147
G1 X81.725 Y89.663 E70.37381
G1 X81.7 Y78.943 E70.87298
G1 X81.846 Y78.347 E70.90155
G1 X81.725 Y77.663 E70.9339
G1 X81.7 Y66.943 E71.43307
G1 X81.846 Y66.347 E71.46164
G1 X81.725 Y65.663 E71.49398
G1 X81.7 Y54.943 E71.99315
G1 X81.846 Y54.347 E72.02173
G1 X81.725 Y53.663 E72.05407
G1 X81.7 Y42.943 E72.55324
G1 X81.929 Y42.011 E72.59793
G0 F6000 X82.305 Y42.154
G1 F1200 X82.768 Y41.259 E72.64485
G1 X83.439 Y40.635 E72.68752
G1 X84.331 Y40.103 E72.73588
G1 X85.236 Y39.953 E72.77859
G1 X149.844 Y39.933 E75.78701
G1 X150.679 Y40.138 E75.82705
G1 X151.574 Y40.601 E75.87397
G1 X152.198 Y41.272 E75.91664
G1 X152.73 Y42.164 E75.965
G1 X152.88 Y43.069 E76.00771
G1 X152.9 Y53.677 E76.50167
G1 X152.739 Y54.333 E76.53312
G1 X152.778 Y54.458 E76.53922
G1 X152.88 Y55.069 E76.56806
G1 X152.9 Y65.677 E77.06202
G1 X152.739 Y66.333 E77.09347
G1 X152.778 Y66.458 E77.09957
G1 X152.88 Y67.069 E77.12841
G1 X152.9 Y77.677 E77.62236
G1 X152.739 Y78.333 E77.65382
G1 X152.778 Y78.458 E77.65991
G1 X152.88 Y79.069 E77.68876
G1 X152.9 Y89.677 E78.18271
G1 X152.739 Y90.333 E78.21417
G1 X152.778 Y90.458 E78.22026
G1 X152.88 Y91.069 E78.24911
G1 X152.9 Y99.677 E78.64993
G1 X152.695 Y100.512 E78.68997
G1 X152.232 Y101.407 E78.73689
G1 X151.594 Y102 E78.77745
G1 X151.378 Y102.14 E78.78943
G1 X151.72 Y102.713 E78.82051
G1 X151.87 Y103.616 E78.86313
G1 X151.89 Y160.224 E81.49904
G1 X151.685 Y161.059 E81.53907
G1 X151.222 Y161.954 E81.58599
G1 X150.551 Y162.578 E81.62866
G1 X149.659 Y163.11 E81.67702
G1 X148.754 Y163.26 E81.71974
G1 X84.146 Y163.28 E84.72816
G1 X83.311 Y163.075 E84.76819
G1 X82.416 Y162.612 E84.81511
G1 X81.792 Y161.941 E84.85778
G1 X81.26 Y161.049 E84.90614
G1 X81.11 Y160.144 E84.94886
G1 X81.09 Y103.536 E87.58476
G1 X81.295 Y102.701 E87.6248
G1 X81.758 Y101.806 E87.67172
G1 X82.396 Y101.213 E87.71228
G1 X82.612 Y101.073 E87.72426
G1 X82.27 Y100.5 E87.75534
G1 X82.12 Y99.597 E87.79796
G1 X82.1 Y90.989 E88.19879
G1 X82.261 Y90.333 E88.23024
G1 X82.222 Y90.208 E88.23634
G1 X82.12 Y89.597 E88.26518
G1 X82.1 Y78.989 E88.75913
G1 X82.261 Y78.333 E88.79059
G1 X82.222 Y78.208 E88.79668
G1 X82.12 Y77.597 E88.82553
G1 X82.1 Y66.989 E89.31948
G1 X82.261 Y66.333 E89.35094
G1 X82.222 Y66.208 E89.35703
G1 X82.12 Y65.597 E89.38588
G1 X82.1 Y54.989 E89.87983
G1 X82.261 Y54.333 E89.91128
G1 X82.222 Y54.208 E89.91738
G1 X82.12 Y53.597 E89.94622
G1 X82.1 Y42.989 E90.44018
G1 X82.305 Y42.154 E90.48021
G0 F6000 X82.681 Y42.297
G1 F1200 X83.091 Y41.504 E90.52178
G1 X83.678 Y40.959 E90.55908
G1 X84.471 Y40.486 E90.60208
G1 X85.302 Y40.348 E90.6413
G1 X149.798 Y40.333 E93.6445
G1 X150.536 Y40.514 E93.67989
G1 X151.329 Y40.924 E93.72146
G1 X151.874 Y41.511 E93.75875
G1 X152.347 Y42.304 E93.80175
G1 X152.485 Y43.135 E93.84097
G1 X152.5 Y53.631 E94.32971
G1 X152.322 Y54.357 E94.36452
G1 X152.383 Y54.524 E94.3728
G1 X152.485 Y55.135 E94.40164
G1 X152.5 Y65.631 E94.89038
G1 X152.322 Y66.357 E94.92519
G1 X152.383 Y66.524 E94.93347
G1 X152.485 Y67.135 E94.96231
G1 X152.5 Y77.631 E95.45105
G1 X152.322 Y78.357 E95.48586
G1 X152.383 Y78.524 E95.49413
G1 X152.485 Y79.135 E95.52298
G1 X152.5 Y89.631 E96.01172
G1 X152.322 Y90.357 E96.04652
G1 X152.383 Y90.524 E96.0548
G1 X152.485 Y91.135 E96.08365
G1 X152.5 Y99.631 E96.47926
G1 X152.319 Y100.369 E96.51464
G1 X151.909 Y101.162 E96.55621
G1 X151.322 Y101.707 E96.59351
G1 X150.829 Y102.001 E96.62023
G1 X151.337 Y102.851 E96.66634
G1 X151.475 Y103.682 E96.70557
G1 X151.49 Y160.178 E99.33626
G1 X151.309 Y160.916 E99.37164
G1 X150.899 Y161.709 E99.41321
G1 X150.312 Y162.254 E99.45051
G1 X149.519 Y162.727 E99.4935
G1 X148.688 Y162.865 E99.53273
G1 X84.192 Y162.88 E102.53593
G1 X83.454 Y162.699 E102.57132
G1 X82.661 Y162.289 E102.61288
G1 X82.116 Y161.702 E102.65018
G1 X81.643 Y160.909 E102.69318
G1 X81.505 Y160.078 E102.7324
G1 X81.49 Y103.582 E105.36309
G1 X81.671 Y102.844 E105.39847
G1 X82.081 Y102.051 E105.44004
G1 X82.668 Y101.506 E105.47734
G1 X83.161 Y101.212 E105.50407
G1 X82.653 Y100.362 E105.55018
G1 X82.515 Y99.531 E105.5894
G1 X82.5 Y91.035 E105.98501
G1 X82.678 Y90.309 E106.01982
G1 X82.617 Y90.142 E106.0281
G1 X82.515 Y89.531 E106.05694
G1 X82.5 Y79.035 E106.54568
G1 X82.678 Y78.309 E106.58049
G1 X82.617 Y78.142 E106.58877
G1 X82.515 Y77.531 E106.61761
G1 X82.5 Y67.035 E107.10635
G1 X82.678 Y66.309 E107.14116
G1 X82.617 Y66.142 E107.14944
G1 X82.515 Y65.531 E107.17828
G1 X82.5 Y55.035 E107.66702
G1 X82.678 Y54.309 E107.70183
G1 X82.617 Y54.142 E107.7101
G1 X82.515 Y53.531 E107.73895
G1 X82.5 Y43.035 E108.22769
G1 X82.681 Y42.297 E108.26307
G0 F6000 X83.059 Y42.436
G1 F1200 X83.414 Y41.749 E108.29908
G1 X83.917 Y41.283 E108.33101
G1 X84.611 Y40.869 E108.36863
G1 X85.368 Y40.743 E108.40437
G1 X149.748 Y40.733 E111.40217
G1 X150.397 Y40.892 E111.43329
G1 X151.084 Y41.247 E111.46929
G1 X151.55 Y41.75 E111.50122
G1 X151.964 Y42.444 E111.53885
G1 X152.09 Y43.201 E111.57458
G1 X152.1 Y53.581 E112.05792
G1 X151.962 Y54.145 E112.08496
G1 X151.879 Y54.334 E112.09457
G1 X151.988 Y54.59 E112.10753
G1 X152.09 Y55.201 E112.13637
G1 X152.1 Y65.581 E112.61971
G1 X151.962 Y66.145 E112.64674
G1 X151.879 Y66.334 E112.65636
G1 X151.988 Y66.59 E112.66931
G1 X152.09 Y67.201 E112.69816
G1 X152.1 Y77.581 E113.18149
G1 X151.962 Y78.145 E113.20853
G1 X151.879 Y78.334 E113.21814
G1 X151.988 Y78.59 E113.2311
G1 X152.09 Y79.201 E113.25994
G1 X152.1 Y89.581 E113.74328
G1 X151.962 Y90.145 E113.77032
G1 X151.879 Y90.334 E113.77993
G1 X151.988 Y90.59 E113.79288
G1 X152.09 Y91.201 E113.82173
G1 X152.1 Y99.581 E114.21194
G1 X151.941 Y100.23 E114.24305
G1 X151.586 Y100.917 E114.27906
G1 X151.083 Y101.383 E114.31099
G1 X150.454 Y101.758 E114.34508
G1 X150.117 Y101.842 E114.36126
G1 X150.54 Y102.297 E114.39019
G1 X150.954 Y102.991 E114.42781
G1 X151.08 Y103.748 E114.46355
G1 X151.09 Y160.128 E117.08884
G1 X150.931 Y160.777 E117.11995
G1 X150.576 Y161.464 E117.15596
G1 X150.073 Y161.93 E117.18789
G1 X149.379 Y162.344 E117.22552
G1 X148.622 Y162.47 E117.26125
G1 X84.242 Y162.48 E120.25905
G1 X83.593 Y162.321 E120.29017
G1 X82.906 Y161.966 E120.32617
G1 X82.44 Y161.463 E120.3581
G1 X82.026 Y160.769 E120.39573
G1 X81.9 Y160.012 E120.43147
G1 X81.89 Y103.632 E123.05675
G1 X82.049 Y102.983 E123.08787
G1 X82.404 Y102.296 E123.12388
G1 X82.907 Y101.83 E123.15581
G1 X83.536 Y101.455 E123.1899
G1 X83.873 Y101.371 E123.20608
G1 X83.45 Y100.916 E123.235
G1 X83.036 Y100.222 E123.27263
G1 X82.91 Y99.465 E123.30837
G1 X82.9 Y91.085 E123.69858
G1 X83.038 Y90.521 E123.72561
G1 X83.121 Y90.332 E123.73522
G1 X83.012 Y90.076 E123.74818
G1 X82.91 Y89.465 E123.77702
G1 X82.9 Y79.085 E124.26036
G1 X83.038 Y78.521 E124.2874
G1 X83.121 Y78.332 E124.29701
G1 X83.012 Y78.076 E124.30997
G1 X82.91 Y77.465 E124.33881
G1 X82.9 Y67.085 E124.82215
G1 X83.038 Y66.521 E124.84918
G1 X83.121 Y66.332 E124.8588
G1 X83.012 Y66.076 E124.87175
G1 X82.91 Y65.465 E124.9006
G1 X82.9 Y55.085 E125.38393
G1 X83.038 Y54.521 E125.41097
G1 X83.121 Y54.332 E125.42058
G1 X83.012 Y54.076 E125.43354
G1 X82.91 Y53.465 E125.46238
G1 X82.9 Y43.085 E125.94572
G1 X83.059 Y42.436 E125.97683
G0 F6000 X83.437 Y42.575
G1 F1200 X83.737 Y41.995 E126.00724
G1 X84.156 Y41.607 E126.03383
G1 X84.751 Y41.252 E126.06609
G1 X85.434 Y41.138 E126.09833
G1 X149.698 Y41.133 E129.09074
G1 X150.258 Y41.27 E129.11758
G1 X150.838 Y41.57 E129.14799
G1 X151.226 Y41.989 E129.17458
G1 X151.581 Y42.584 E129.20684
G1 X151.695 Y43.267 E129.23908
G1 X151.7 Y53.531 E129.71702
G1 X151.573 Y54.05 E129.7419
G1 X151.433 Y54.335 E129.75668
G1 X151.593 Y54.656 E129.77338
G1 X151.695 Y55.267 E129.80223
G1 X151.7 Y65.531 E130.28016
G1 X151.573 Y66.05 E130.30504
G1 X151.433 Y66.335 E130.31983
G1 X151.593 Y66.656 E130.33653
G1 X151.695 Y67.267 E130.36537
G1 X151.7 Y77.531 E130.84331
G1 X151.573 Y78.05 E130.86819
G1 X151.433 Y78.335 E130.88297
G1 X151.593 Y78.656 E130.89968
G1 X151.695 Y79.267 E130.92852
G1 X151.7 Y89.531 E131.40646
G1 X151.573 Y90.05 E131.43133
G1 X151.433 Y90.335 E131.44612
G1 X151.593 Y90.656 E131.46282
G1 X151.695 Y91.267 E131.49167
G1 X151.7 Y99.531 E131.87647
G1 X151.563 Y100.091 E131.90332
G1 X151.263 Y100.671 E131.93372
G1 X150.844 Y101.059 E131.96031
G1 X150.249 Y101.414 E131.99258
G1 X149.566 Y101.528 E132.02482
G1 X85.302 Y101.533 E135.01722
G1 X84.742 Y101.396 E135.04407
G1 X84.162 Y101.096 E135.07447
G1 X83.774 Y100.677 E135.10106
G1 X83.419 Y100.082 E135.13332
G1 X83.305 Y99.399 E135.16557
G1 X83.3 Y91.135 E135.55037
G1 X83.427 Y90.616 E135.57525
G1 X83.567 Y90.331 E135.59004
G1 X83.407 Y90.01 E135.60674
